;FLAVOR:RepRap
;TIME:3575
;Generated with Cura_SteamEngine 2.3.1
M190 S45
M104 S205
M109 S205
G28 ;Home
G1 Z15.0 F6000 ;Move the platform down 15mm
;Prime the extruder
G92 E0
G1 F200 E3
G92 E0
;LAYER_COUNT:27
;LAYER:0
M107
G1 F1500 E-0.5
G0 F3600 X39.595 Y90.361 Z.3
;TYPE:SKIRT
G1 F1500 E0
G1 F1800 X40.32 Y90.049 E0.03938
G1 X41.073 Y89.812 E0.07876
G1 X41.847 Y89.653 E0.11818
G1 X42.632 Y89.572 E0.15755
G1 X43.034 Y89.562 E0.17762
G1 X183.033 Y89.562 E7.1622
G1 X183.822 Y89.602 E7.20161
G1 X184.602 Y89.721 E7.24097
G1 X185.367 Y89.919 E7.2804
G1 X186.107 Y90.193 E7.31977
G1 X186.816 Y90.541 E7.35917
G1 X187.487 Y90.959 E7.39861
G1 X188.111 Y91.442 E7.43798
G1 X188.684 Y91.985 E7.47736
G1 X189.199 Y92.584 E7.51677
G1 X189.65 Y93.232 E7.55616
G1 X190.034 Y93.923 E7.5956
G1 X190.346 Y94.648 E7.63498
G1 X190.583 Y95.401 E7.67436
G1 X190.742 Y96.175 E7.71378
G1 X190.823 Y96.96 E7.75316
G1 X190.833 Y97.362 E7.77322
G1 X190.833 Y142.361 E10.01823
G1 X190.793 Y143.15 E10.05764
G1 X190.674 Y143.93 E10.09701
G1 X190.476 Y144.695 E10.13643
G1 X190.202 Y145.435 E10.1758
G1 X189.854 Y146.144 E10.2152
G1 X189.436 Y146.815 E10.25464
G1 X188.953 Y147.439 E10.29401
G1 X188.41 Y148.012 E10.33339
G1 X187.811 Y148.527 E10.3728
G1 X187.163 Y148.978 E10.41219
G1 X186.472 Y149.362 E10.45163
G1 X185.747 Y149.674 E10.49101
G1 X184.994 Y149.911 E10.53039
G1 X184.22 Y150.07 E10.56981
G1 X183.435 Y150.151 E10.60919
G1 X183.033 Y150.161 E10.62925
G1 X43.034 Y150.161 E17.61383
G1 X42.245 Y150.121 E17.65324
G1 X41.465 Y150.002 E17.69261
G1 X40.7 Y149.804 E17.73203
G1 X39.96 Y149.53 E17.7714
G1 X39.251 Y149.182 E17.8108
G1 X38.58 Y148.764 E17.85024
G1 X37.956 Y148.281 E17.88961
G1 X37.383 Y147.738 E17.92899
G1 X36.868 Y147.139 E17.9684
G1 X36.417 Y146.491 E18.00779
G1 X36.033 Y145.8 E18.04723
G1 X35.721 Y145.075 E18.08661
G1 X35.484 Y144.322 E18.12599
G1 X35.325 Y143.548 E18.16542
G1 X35.244 Y142.763 E18.20479
G1 X35.234 Y142.361 E18.22485
G1 X35.234 Y97.362 E20.46986
G1 X35.274 Y96.573 E20.50927
G1 X35.393 Y95.793 E20.54864
G1 X35.591 Y95.028 E20.58806
G1 X35.865 Y94.288 E20.62743
G1 X36.213 Y93.579 E20.66683
G1 X36.631 Y92.908 E20.70627
G1 X37.114 Y92.284 E20.74564
G1 X37.657 Y91.711 E20.78502
G1 X38.256 Y91.196 E20.82444
G1 X38.904 Y90.745 E20.86382
G1 X39.595 Y90.361 E20.90326
G0 F3600 X39.97 Y90.626
G1 F1800 X40.685 Y90.345 E20.94159
G1 X41.427 Y90.139 E20.98001
G1 X42.185 Y90.011 E21.01836
G1 X43.034 Y89.962 E21.06079
G1 X183.033 Y89.962 E28.04537
G1 X183.801 Y90.002 E28.08374
G1 X184.561 Y90.121 E28.12211
G1 X185.304 Y90.319 E28.16048
G1 X186.023 Y90.593 E28.19886
G1 X186.709 Y90.94 E28.23722
G1 X187.356 Y91.356 E28.27559
G1 X187.956 Y91.837 E28.31396
G1 X188.503 Y92.378 E28.35234
G1 X188.991 Y92.973 E28.39073
G1 X189.414 Y93.615 E28.42909
G1 X189.769 Y94.298 E28.46749
G1 X190.05 Y95.013 E28.50582
G1 X190.256 Y95.755 E28.54424
G1 X190.384 Y96.513 E28.58259
G1 X190.433 Y97.362 E28.62502
G1 X190.433 Y142.361 E30.87003
G1 X190.393 Y143.129 E30.90839
G1 X190.274 Y143.889 E30.94677
G1 X190.076 Y144.632 E30.98514
G1 X189.802 Y145.351 E31.02352
G1 X189.455 Y146.037 E31.06188
G1 X189.039 Y146.684 E31.10025
G1 X188.558 Y147.284 E31.13862
G1 X188.017 Y147.831 E31.177
G1 X187.422 Y148.319 E31.21539
G1 X186.78 Y148.742 E31.25375
G1 X186.097 Y149.097 E31.29215
G1 X185.382 Y149.378 E31.33048
G1 X184.64 Y149.584 E31.3689
G1 X183.882 Y149.712 E31.40725
G1 X183.033 Y149.761 E31.44968
G1 X43.034 Y149.761 E38.43426
G1 X42.266 Y149.721 E38.47262
G1 X41.506 Y149.602 E38.511
G1 X40.763 Y149.404 E38.54936
G1 X40.044 Y149.13 E38.58775
G1 X39.358 Y148.783 E38.62611
G1 X38.711 Y148.367 E38.66448
G1 X38.111 Y147.886 E38.70285
G1 X37.564 Y147.345 E38.74123
G1 X37.076 Y146.75 E38.77962
G1 X36.653 Y146.108 E38.81798
G1 X36.298 Y145.425 E38.85638
G1 X36.017 Y144.71 E38.89471
G1 X35.811 Y143.968 E38.93313
G1 X35.683 Y143.21 E38.97148
G1 X35.634 Y142.361 E39.01391
G1 X35.634 Y97.362 E41.25892
G1 X35.674 Y96.594 E41.29728
G1 X35.793 Y95.834 E41.33566
G1 X35.991 Y95.091 E41.37402
G1 X36.265 Y94.372 E41.41241
G1 X36.612 Y93.686 E41.45077
G1 X37.028 Y93.039 E41.48914
G1 X37.509 Y92.439 E41.52751
G1 X38.05 Y91.892 E41.56589
G1 X38.645 Y91.404 E41.60428
G1 X39.287 Y90.981 E41.64264
G1 X39.97 Y90.626 E41.68104
G0 F3600 X40.342 Y90.9
G1 F1800 X41.047 Y90.65 E41.71836
G1 X41.775 Y90.476 E41.7557
G1 X42.517 Y90.381 E41.79302
G1 X43.034 Y90.362 E41.81883
G1 X183.033 Y90.362 E48.80341
G1 X183.78 Y90.402 E48.84073
G1 X184.518 Y90.521 E48.87803
G1 X185.24 Y90.719 E48.91538
G1 X185.936 Y90.992 E48.95268
G1 X186.599 Y91.339 E48.99001
G1 X187.222 Y91.754 E49.02736
G1 X187.796 Y92.233 E49.06466
G1 X188.317 Y92.77 E49.10198
G1 X188.776 Y93.36 E49.13928
G1 X189.171 Y93.996 E49.17663
G1 X189.495 Y94.67 E49.21394
G1 X189.745 Y95.375 E49.25126
G1 X189.919 Y96.103 E49.2886
G1 X190.014 Y96.845 E49.32592
G1 X190.033 Y97.362 E49.35173
G1 X190.033 Y142.361 E51.59674
G1 X189.993 Y143.108 E51.63406
G1 X189.874 Y143.846 E51.67136
G1 X189.676 Y144.568 E51.70871
G1 X189.403 Y145.264 E51.74601
G1 X189.056 Y145.927 E51.78334
G1 X188.641 Y146.55 E51.82069
G1 X188.162 Y147.124 E51.85799
G1 X187.625 Y147.645 E51.89531
G1 X187.035 Y148.104 E51.93261
G1 X186.399 Y148.499 E51.96996
G1 X185.725 Y148.823 E52.00727
G1 X185.02 Y149.073 E52.04459
G1 X184.292 Y149.247 E52.08193
G1 X183.55 Y149.342 E52.11925
G1 X183.033 Y149.361 E52.14506
G1 X43.034 Y149.361 E59.12964
G1 X42.287 Y149.321 E59.16696
G1 X41.549 Y149.202 E59.20426
G1 X40.827 Y149.004 E59.24161
G1 X40.131 Y148.731 E59.27891
G1 X39.468 Y148.384 E59.31624
G1 X38.845 Y147.969 E59.35359
G1 X38.271 Y147.49 E59.39088
G1 X37.75 Y146.953 E59.42821
G1 X37.291 Y146.363 E59.46551
G1 X36.896 Y145.727 E59.50286
G1 X36.572 Y145.053 E59.54017
G1 X36.322 Y144.348 E59.57749
G1 X36.148 Y143.62 E59.61483
G1 X36.053 Y142.878 E59.65215
G1 X36.034 Y142.361 E59.67796
G1 X36.034 Y97.362 E61.92297
G1 X36.074 Y96.615 E61.96029
G1 X36.193 Y95.877 E61.99759
G1 X36.391 Y95.155 E62.03494
G1 X36.664 Y94.459 E62.07224
G1 X37.011 Y93.796 E62.10957
G1 X37.426 Y93.173 E62.14692
G1 X37.905 Y92.599 E62.18421
G1 X38.442 Y92.078 E62.22154
G1 X39.032 Y91.619 E62.25884
G1 X39.668 Y91.224 E62.29619
G1 X40.342 Y90.9 E62.3335
G0 F3600 X40.712 Y91.184
G1 F1800 X41.405 Y90.966 E62.36974
G1 X42.117 Y90.826 E62.40594
G1 X43.034 Y90.762 E62.4518
G1 X183.033 Y90.762 E69.43638
G1 X183.758 Y90.802 E69.47261
G1 X184.475 Y90.921 E69.50887
G1 X185.174 Y91.119 E69.54511
G1 X185.847 Y91.392 E69.58135
G1 X186.486 Y91.737 E69.61758
G1 X187.083 Y92.151 E69.65382
G1 X187.631 Y92.627 E69.69004
G1 X188.124 Y93.161 E69.72629
G1 X188.554 Y93.746 E69.76252
G1 X188.918 Y94.375 E69.79877
G1 X189.211 Y95.04 E69.83503
G1 X189.429 Y95.733 E69.87127
G1 X189.569 Y96.445 E69.90747
G1 X189.633 Y97.362 E69.95333
G1 X189.633 Y142.361 E72.19834
G1 X189.593 Y143.086 E72.23457
G1 X189.474 Y143.803 E72.27083
G1 X189.276 Y144.502 E72.30708
G1 X189.003 Y145.175 E72.34331
G1 X188.658 Y145.814 E72.37954
G1 X188.244 Y146.411 E72.41578
G1 X187.768 Y146.959 E72.452
G1 X187.234 Y147.452 E72.48826
G1 X186.649 Y147.882 E72.52448
G1 X186.02 Y148.246 E72.56073
G1 X185.355 Y148.539 E72.59699
G1 X184.662 Y148.757 E72.63323
G1 X183.95 Y148.897 E72.66944
G1 X183.033 Y148.961 E72.7153
G1 X43.034 Y148.961 E79.69987
G1 X42.309 Y148.921 E79.7361
G1 X41.592 Y148.802 E79.77236
G1 X40.893 Y148.604 E79.80861
G1 X40.22 Y148.331 E79.84484
G1 X39.581 Y147.986 E79.88107
G1 X38.984 Y147.572 E79.91731
G1 X38.436 Y147.096 E79.95353
G1 X37.943 Y146.562 E79.98979
G1 X37.513 Y145.977 E80.02601
G1 X37.149 Y145.348 E80.06227
G1 X36.856 Y144.683 E80.09852
G1 X36.638 Y143.99 E80.13476
G1 X36.498 Y143.278 E80.17097
G1 X36.434 Y142.361 E80.21683
G1 X36.434 Y97.362 E82.46184
G1 X36.474 Y96.637 E82.49806
G1 X36.593 Y95.92 E82.53432
G1 X36.791 Y95.221 E82.57057
G1 X37.064 Y94.548 E82.6068
G1 X37.409 Y93.909 E82.64303
G1 X37.823 Y93.312 E82.67928
G1 X38.299 Y92.764 E82.71549
G1 X38.833 Y92.271 E82.75175
G1 X39.418 Y91.841 E82.78797
G1 X40.047 Y91.477 E82.82423
G1 X40.712 Y91.184 E82.86048
G0 F3600 X41.077 Y91.479
G1 F1800 X41.757 Y91.295 E82.89563
G1 X42.453 Y91.189 E82.93075
G1 X43.034 Y91.162 E82.95977
G1 X183.033 Y91.162 E89.94435
G1 X183.736 Y91.202 E89.97948
G1 X184.43 Y91.321 E90.01461
G1 X185.105 Y91.519 E90.0497
G1 X185.754 Y91.791 E90.08481
G1 X186.368 Y92.136 E90.11994
G1 X186.939 Y92.547 E90.15504
G1 X187.46 Y93.021 E90.19018
G1 X187.924 Y93.551 E90.22533
G1 X188.324 Y94.13 E90.26044
G1 X188.656 Y94.751 E90.29557
G1 X188.916 Y95.405 E90.33068
G1 X189.1 Y96.085 E90.36583
G1 X189.206 Y96.781 E90.40095
G1 X189.233 Y97.362 E90.42997
G1 X189.233 Y142.361 E92.67498
G1 X189.193 Y143.064 E92.71011
G1 X189.074 Y143.758 E92.74524
G1 X188.876 Y144.433 E92.78033
G1 X188.604 Y145.082 E92.81544
G1 X188.259 Y145.696 E92.85058
G1 X187.848 Y146.267 E92.88567
G1 X187.374 Y146.788 E92.92081
G1 X186.844 Y147.252 E92.95596
G1 X186.265 Y147.652 E92.99107
G1 X185.644 Y147.984 E93.0262
G1 X184.99 Y148.244 E93.06131
G1 X184.31 Y148.428 E93.09646
G1 X183.614 Y148.534 E93.13158
G1 X183.033 Y148.561 E93.1606
G1 X43.034 Y148.561 E100.14518
G1 X42.331 Y148.521 E100.18031
G1 X41.637 Y148.402 E100.21544
G1 X40.962 Y148.204 E100.25053
G1 X40.313 Y147.932 E100.28564
G1 X39.699 Y147.587 E100.32077
G1 X39.128 Y147.176 E100.35587
G1 X38.607 Y146.702 E100.39101
G1 X38.143 Y146.172 E100.42616
G1 X37.743 Y145.593 E100.46127
G1 X37.411 Y144.972 E100.4964
G1 X37.151 Y144.318 E100.53151
G1 X36.967 Y143.638 E100.56666
G1 X36.861 Y142.942 E100.60178
G1 X36.834 Y142.361 E100.6308
G1 X36.834 Y97.362 E102.87581
G1 X36.874 Y96.659 E102.91094
G1 X36.993 Y95.965 E102.94607
G1 X37.191 Y95.29 E102.98116
G1 X37.463 Y94.641 E103.01627
G1 X37.808 Y94.027 E103.0514
G1 X38.219 Y93.456 E103.0865
G1 X38.693 Y92.935 E103.12164
G1 X39.223 Y92.471 E103.15679
G1 X39.802 Y92.071 E103.1919
G1 X40.423 Y91.739 E103.22703
G1 X41.077 Y91.479 E103.26214
G0 F3600 X41.438 Y91.786
G1 F1800 X42.103 Y91.637 E103.29614
G1 X43.034 Y91.562 E103.34274
G1 X183.033 Y91.562 E110.32732
G1 X183.713 Y91.602 E110.3613
G1 X184.383 Y91.721 E110.39525
G1 X185.035 Y91.918 E110.42923
G1 X185.659 Y92.19 E110.46319
G1 X186.247 Y92.534 E110.49718
G1 X186.791 Y92.944 E110.53116
G1 X187.282 Y93.415 E110.56511
G1 X187.716 Y93.94 E110.59909
G1 X188.085 Y94.512 E110.63305
G1 X188.384 Y95.124 E110.66703
G1 X188.609 Y95.766 E110.70097
G1 X188.758 Y96.431 E110.73497
G1 X188.833 Y97.362 E110.78157
G1 X188.833 Y142.361 E113.02658
G1 X188.793 Y143.041 E113.06056
G1 X188.674 Y143.711 E113.09451
G1 X188.477 Y144.363 E113.1285
G1 X188.205 Y144.987 E113.16246
G1 X187.861 Y145.575 E113.19644
G1 X187.451 Y146.119 E113.23043
G1 X186.98 Y146.61 E113.26437
G1 X186.455 Y147.044 E113.29836
G1 X185.883 Y147.413 E113.33232
G1 X185.271 Y147.712 E113.3663
G1 X184.629 Y147.937 E113.40024
G1 X183.964 Y148.086 E113.43424
G1 X183.033 Y148.161 E113.48083
G1 X43.034 Y148.161 E120.46541
G1 X42.354 Y148.121 E120.4994
G1 X41.684 Y148.002 E120.53335
G1 X41.032 Y147.805 E120.56733
G1 X40.408 Y147.533 E120.60129
G1 X39.82 Y147.189 E120.63528
G1 X39.276 Y146.779 E120.66926
G1 X38.785 Y146.308 E120.70321
G1 X38.351 Y145.783 E120.73719
G1 X37.982 Y145.211 E120.77115
G1 X37.683 Y144.599 E120.80513
G1 X37.458 Y143.957 E120.83907
G1 X37.309 Y143.292 E120.87307
G1 X37.234 Y142.361 E120.91967
G1 X37.234 Y97.362 E123.16468
G1 X37.274 Y96.682 E123.19866
G1 X37.393 Y96.012 E123.23261
G1 X37.59 Y95.36 E123.26659
G1 X37.862 Y94.736 E123.30055
G1 X38.206 Y94.148 E123.33454
G1 X38.616 Y93.604 E123.36852
G1 X39.087 Y93.113 E123.40247
G1 X39.612 Y92.679 E123.43645
G1 X40.184 Y92.31 E123.47041
G1 X40.796 Y92.011 E123.50439
G1 X41.438 Y91.786 E123.53833
G0 F3600 X41.794 Y92.106
G1 F1800 X42.441 Y91.995 E123.57108
G1 X43.034 Y91.962 E123.60071
G1 X183.033 Y91.962 E130.58529
G1 X183.689 Y92.002 E130.61808
G1 X184.335 Y92.121 E130.65085
G1 X184.962 Y92.318 E130.68364
G1 X185.56 Y92.59 E130.71642
G1 X186.121 Y92.932 E130.7492
G1 X186.636 Y93.34 E130.78198
G1 X187.098 Y93.807 E130.81475
G1 X187.499 Y94.327 E130.84751
G1 X187.835 Y94.891 E130.88026
G1 X188.099 Y95.493 E130.91306
G1 X188.289 Y96.122 E130.94584
G1 X188.4 Y96.769 E130.97859
G1 X188.433 Y97.362 E131.00822
G1 X188.433 Y142.361 E133.25323
G1 X188.393 Y143.017 E133.28602
G1 X188.274 Y143.663 E133.31879
G1 X188.077 Y144.29 E133.35158
G1 X187.805 Y144.888 E133.38435
G1 X187.463 Y145.449 E133.41713
G1 X187.055 Y145.964 E133.44991
G1 X186.588 Y146.426 E133.48269
G1 X186.068 Y146.827 E133.51545
G1 X185.504 Y147.163 E133.5482
G1 X184.902 Y147.427 E133.581
G1 X184.273 Y147.617 E133.61378
G1 X183.626 Y147.728 E133.64653
G1 X183.033 Y147.761 E133.67616
G1 X43.034 Y147.761 E140.66074
G1 X42.378 Y147.721 E140.69353
G1 X41.732 Y147.602 E140.7263
G1 X41.105 Y147.405 E140.75909
G1 X40.507 Y147.133 E140.79186
G1 X39.946 Y146.791 E140.82464
G1 X39.431 Y146.383 E140.85742
G1 X38.969 Y145.916 E140.89019
G1 X38.568 Y145.396 E140.92295
G1 X38.232 Y144.832 E140.95571
G1 X37.968 Y144.23 E140.9885
G1 X37.778 Y143.601 E141.02128
G1 X37.667 Y142.954 E141.05403
G1 X37.634 Y142.361 E141.08366
G1 X37.634 Y97.362 E143.32867
G1 X37.674 Y96.706 E143.36146
G1 X37.793 Y96.06 E143.39423
G1 X37.99 Y95.433 E143.42702
G1 X38.262 Y94.835 E143.4598
G1 X38.604 Y94.274 E143.49258
G1 X39.012 Y93.759 E143.52536
G1 X39.479 Y93.297 E143.55813
G1 X39.999 Y92.896 E143.59089
G1 X40.563 Y92.56 E143.62364
G1 X41.165 Y92.296 E143.65644
G1 X41.794 Y92.106 E143.68922
G0 F3600 X41.529 Y92.594
G1 F1800 X42.143 Y92.442 E143.72078
G1 X43.034 Y92.362 E143.76541
G1 X183.033 Y92.362 E150.74999
G1 X183.664 Y92.402 E150.78153
G1 X184.285 Y92.521 E150.81308
G1 X184.885 Y92.718 E150.84458
G1 X185.457 Y92.989 E150.87616
G1 X185.989 Y93.329 E150.90766
G1 X186.474 Y93.735 E150.93922
G1 X186.904 Y94.198 E150.97074
G1 X187.273 Y94.712 E151.00231
G1 X187.573 Y95.268 E151.03383
G1 X187.801 Y95.857 E151.06534
G1 X187.953 Y96.471 E151.09689
G1 X188.033 Y97.362 E151.14152
G1 X188.033 Y142.361 E153.38653
G1 X187.993 Y142.992 E153.41808
G1 X187.874 Y143.613 E153.44962
G1 X187.677 Y144.213 E153.48113
G1 X187.406 Y144.785 E153.51271
G1 X187.066 Y145.317 E153.54421
G1 X186.66 Y145.802 E153.57576
G1 X186.197 Y146.232 E153.60729
G1 X185.683 Y146.601 E153.63885
G1 X185.127 Y146.901 E153.67037
G1 X184.538 Y147.129 E153.70188
G1 X183.924 Y147.281 E153.73344
G1 X183.033 Y147.361 E153.77807
G1 X43.034 Y147.361 E160.76265
G1 X42.403 Y147.321 E160.79419
G1 X41.782 Y147.202 E160.82574
G1 X41.182 Y147.005 E160.85725
G1 X40.61 Y146.734 E160.88882
G1 X40.078 Y146.394 E160.92032
G1 X39.593 Y145.988 E160.95188
G1 X39.163 Y145.525 E160.9834
G1 X38.794 Y145.011 E161.01497
G1 X38.494 Y144.455 E161.04649
G1 X38.266 Y143.866 E161.078
G1 X38.114 Y143.252 E161.10956
G1 X38.034 Y142.361 E161.15419
G1 X38.034 Y97.362 E163.3992
G1 X38.074 Y96.731 E163.43074
G1 X38.193 Y96.11 E163.46229
G1 X38.39 Y95.51 E163.49379
G1 X38.661 Y94.938 E163.52537
G1 X39.001 Y94.406 E163.55687
G1 X39.407 Y93.921 E163.58843
G1 X39.87 Y93.491 E163.61995
G1 X40.384 Y93.122 E163.65152
G1 X40.94 Y92.822 E163.68304
G1 X41.529 Y92.594 E163.71455
G0 F3600 X41.888 Y92.907
G1 F1800 X42.484 Y92.795 E163.7448
G1 X43.034 Y92.762 E163.77229
G1 X183.033 Y92.762 E170.75687
G1 X183.638 Y92.802 E170.78712
G1 X184.232 Y92.921 E170.81734
G1 X184.806 Y93.117 E170.8476
G1 X185.349 Y93.388 E170.87788
G1 X185.852 Y93.727 E170.90814
G1 X186.305 Y94.129 E170.93836
G1 X186.702 Y94.587 E170.9686
G1 X187.035 Y95.094 E170.99886
G1 X187.299 Y95.64 E171.02912
G1 X187.488 Y96.216 E171.05936
G1 X187.6 Y96.812 E171.08962
G1 X187.633 Y97.362 E171.11711
G1 X187.633 Y142.361 E173.36211
G1 X187.593 Y142.966 E173.39236
G1 X187.474 Y143.56 E173.42259
G1 X187.278 Y144.134 E173.45285
G1 X187.007 Y144.677 E173.48312
G1 X186.668 Y145.18 E173.51339
G1 X186.266 Y145.633 E173.5436
G1 X185.808 Y146.03 E173.57384
G1 X185.301 Y146.363 E173.6041
G1 X184.755 Y146.627 E173.63436
G1 X184.179 Y146.816 E173.66461
G1 X183.583 Y146.928 E173.69486
G1 X183.033 Y146.961 E173.72235
G1 X43.034 Y146.961 E180.70693
G1 X42.429 Y146.921 E180.73718
G1 X41.835 Y146.802 E180.7674
G1 X41.261 Y146.606 E180.79766
