;FLAVOR:RepRap
;TIME:2871
;Generated with Cura_SteamEngine 2.3.1
M190 S40
M104 S200
M109 S200
G28 ;Home
G1 Z15.0 F6000 ;Move the platform down 15mm
;Prime the extruder
G92 E0
G1 F200 E3
G92 E0
;LAYER_COUNT:25
;LAYER:0
M107
G1 F4800 E-0.5
G0 F7000 X39.528 Y70.954 Z.3
;TYPE:SKIRT
G1 F4800 E0
G1 F2100 X40.253 Y70.642 E0.03938
G1 X41.006 Y70.405 E0.07876
G1 X41.78 Y70.246 E0.11818
G1 X42.565 Y70.165 E0.15755
G1 X42.967 Y70.155 E0.17762
G1 X182.966 Y70.155 E7.1622
G1 X183.755 Y70.195 E7.20161
G1 X184.535 Y70.314 E7.24097
G1 X185.3 Y70.512 E7.2804
G1 X186.04 Y70.786 E7.31977
G1 X186.749 Y71.134 E7.35917
G1 X187.42 Y71.552 E7.39861
G1 X188.044 Y72.035 E7.43798
G1 X188.617 Y72.578 E7.47736
G1 X189.132 Y73.177 E7.51677
G1 X189.583 Y73.825 E7.55616
G1 X189.967 Y74.516 E7.5956
G1 X190.279 Y75.241 E7.63498
G1 X190.516 Y75.994 E7.67436
G1 X190.675 Y76.768 E7.71378
G1 X190.756 Y77.553 E7.75316
G1 X190.766 Y77.955 E7.77322
G1 X190.766 Y122.954 E10.01823
G1 X190.726 Y123.743 E10.05764
G1 X190.607 Y124.523 E10.09701
G1 X190.409 Y125.288 E10.13643
G1 X190.135 Y126.028 E10.1758
G1 X189.787 Y126.737 E10.2152
G1 X189.369 Y127.408 E10.25464
G1 X188.886 Y128.032 E10.29401
G1 X188.343 Y128.605 E10.33339
G1 X187.744 Y129.12 E10.3728
G1 X187.096 Y129.571 E10.41219
G1 X186.405 Y129.955 E10.45163
G1 X185.68 Y130.267 E10.49101
G1 X184.927 Y130.504 E10.53039
G1 X184.153 Y130.663 E10.56981
G1 X183.368 Y130.744 E10.60919
G1 X182.966 Y130.754 E10.62925
G1 X42.967 Y130.754 E17.61383
G1 X42.178 Y130.714 E17.65324
G1 X41.398 Y130.595 E17.69261
G1 X40.633 Y130.397 E17.73203
G1 X39.893 Y130.123 E17.7714
G1 X39.184 Y129.775 E17.8108
G1 X38.513 Y129.357 E17.85024
G1 X37.889 Y128.874 E17.88961
G1 X37.316 Y128.331 E17.92899
G1 X36.801 Y127.732 E17.9684
G1 X36.35 Y127.084 E18.00779
G1 X35.966 Y126.393 E18.04723
G1 X35.654 Y125.668 E18.08661
G1 X35.417 Y124.915 E18.12599
G1 X35.258 Y124.141 E18.16542
G1 X35.177 Y123.356 E18.20479
G1 X35.167 Y122.954 E18.22485
G1 X35.167 Y77.955 E20.46986
G1 X35.207 Y77.166 E20.50927
G1 X35.326 Y76.386 E20.54864
G1 X35.524 Y75.621 E20.58806
G1 X35.798 Y74.881 E20.62743
G1 X36.146 Y74.172 E20.66683
G1 X36.564 Y73.501 E20.70627
G1 X37.047 Y72.877 E20.74564
G1 X37.59 Y72.304 E20.78502
G1 X38.189 Y71.789 E20.82444
G1 X38.837 Y71.338 E20.86382
G1 X39.528 Y70.954 E20.90326
G0 F7000 X39.903 Y71.219
G1 F2100 X40.618 Y70.938 E20.94159
G1 X41.36 Y70.732 E20.98001
G1 X42.118 Y70.604 E21.01836
G1 X42.967 Y70.555 E21.06079
G1 X182.966 Y70.555 E28.04537
G1 X183.734 Y70.595 E28.08374
G1 X184.494 Y70.714 E28.12211
G1 X185.237 Y70.912 E28.16048
G1 X185.956 Y71.186 E28.19886
G1 X186.642 Y71.533 E28.23722
G1 X187.289 Y71.949 E28.27559
G1 X187.889 Y72.43 E28.31396
G1 X188.436 Y72.971 E28.35234
G1 X188.924 Y73.566 E28.39073
G1 X189.347 Y74.208 E28.42909
G1 X189.702 Y74.891 E28.46749
G1 X189.983 Y75.606 E28.50582
G1 X190.189 Y76.348 E28.54424
G1 X190.317 Y77.106 E28.58259
G1 X190.366 Y77.955 E28.62502
G1 X190.366 Y122.954 E30.87003
G1 X190.326 Y123.722 E30.90839
G1 X190.207 Y124.482 E30.94677
G1 X190.009 Y125.225 E30.98514
G1 X189.735 Y125.944 E31.02352
G1 X189.388 Y126.63 E31.06188
G1 X188.972 Y127.277 E31.10025
G1 X188.491 Y127.877 E31.13862
G1 X187.95 Y128.424 E31.177
G1 X187.355 Y128.912 E31.21539
G1 X186.713 Y129.335 E31.25375
G1 X186.03 Y129.69 E31.29215
G1 X185.315 Y129.971 E31.33048
G1 X184.573 Y130.177 E31.3689
G1 X183.815 Y130.305 E31.40725
G1 X182.966 Y130.354 E31.44968
G1 X42.967 Y130.354 E38.43426
G1 X42.199 Y130.314 E38.47262
G1 X41.439 Y130.195 E38.511
G1 X40.696 Y129.997 E38.54936
G1 X39.977 Y129.723 E38.58775
G1 X39.291 Y129.376 E38.62611
G1 X38.644 Y128.96 E38.66448
G1 X38.044 Y128.479 E38.70285
G1 X37.497 Y127.938 E38.74123
G1 X37.009 Y127.343 E38.77962
G1 X36.586 Y126.701 E38.81798
G1 X36.231 Y126.018 E38.85638
G1 X35.95 Y125.303 E38.89471
G1 X35.744 Y124.561 E38.93313
G1 X35.616 Y123.803 E38.97148
G1 X35.567 Y122.954 E39.01391
G1 X35.567 Y77.955 E41.25892
G1 X35.607 Y77.187 E41.29728
G1 X35.726 Y76.427 E41.33566
G1 X35.924 Y75.684 E41.37402
G1 X36.198 Y74.965 E41.41241
G1 X36.545 Y74.279 E41.45077
G1 X36.961 Y73.632 E41.48914
G1 X37.442 Y73.032 E41.52751
G1 X37.983 Y72.485 E41.56589
G1 X38.578 Y71.997 E41.60428
G1 X39.22 Y71.574 E41.64264
G1 X39.903 Y71.219 E41.68104
G0 F7000 X40.275 Y71.493
G1 F2100 X40.98 Y71.243 E41.71836
G1 X41.708 Y71.069 E41.7557
G1 X42.45 Y70.974 E41.79302
G1 X42.967 Y70.955 E41.81883
G1 X182.966 Y70.955 E48.80341
G1 X183.713 Y70.995 E48.84073
G1 X184.451 Y71.114 E48.87803
G1 X185.173 Y71.312 E48.91538
G1 X185.869 Y71.585 E48.95268
G1 X186.532 Y71.932 E48.99001
G1 X187.155 Y72.347 E49.02736
G1 X187.729 Y72.826 E49.06466
G1 X188.25 Y73.363 E49.10198
G1 X188.709 Y73.953 E49.13928
G1 X189.104 Y74.589 E49.17663
G1 X189.428 Y75.263 E49.21394
G1 X189.678 Y75.968 E49.25126
G1 X189.852 Y76.696 E49.2886
G1 X189.947 Y77.438 E49.32592
G1 X189.966 Y77.955 E49.35173
G1 X189.966 Y122.954 E51.59674
G1 X189.926 Y123.701 E51.63406
G1 X189.807 Y124.439 E51.67136
G1 X189.609 Y125.161 E51.70871
G1 X189.336 Y125.857 E51.74601
G1 X188.989 Y126.52 E51.78334
G1 X188.574 Y127.143 E51.82069
G1 X188.095 Y127.717 E51.85799
G1 X187.558 Y128.238 E51.89531
G1 X186.968 Y128.697 E51.93261
G1 X186.332 Y129.092 E51.96996
G1 X185.658 Y129.416 E52.00727
G1 X184.953 Y129.666 E52.04459
G1 X184.225 Y129.84 E52.08193
G1 X183.483 Y129.935 E52.11925
G1 X182.966 Y129.954 E52.14506
G1 X42.967 Y129.954 E59.12964
G1 X42.22 Y129.914 E59.16696
G1 X41.482 Y129.795 E59.20426
G1 X40.76 Y129.597 E59.24161
G1 X40.064 Y129.324 E59.27891
G1 X39.401 Y128.977 E59.31624
G1 X38.778 Y128.562 E59.35359
G1 X38.204 Y128.083 E59.39088
G1 X37.683 Y127.546 E59.42821
G1 X37.224 Y126.956 E59.46551
G1 X36.829 Y126.32 E59.50286
G1 X36.505 Y125.646 E59.54017
G1 X36.255 Y124.941 E59.57749
G1 X36.081 Y124.213 E59.61483
G1 X35.986 Y123.471 E59.65215
G1 X35.967 Y122.954 E59.67796
G1 X35.967 Y77.955 E61.92297
G1 X36.007 Y77.208 E61.96029
G1 X36.126 Y76.47 E61.99759
G1 X36.324 Y75.748 E62.03494
G1 X36.597 Y75.052 E62.07224
G1 X36.944 Y74.389 E62.10957
G1 X37.359 Y73.766 E62.14692
G1 X37.838 Y73.192 E62.18421
G1 X38.375 Y72.671 E62.22154
G1 X38.965 Y72.212 E62.25884
G1 X39.601 Y71.817 E62.29619
G1 X40.275 Y71.493 E62.3335
G0 F7000 X40.645 Y71.777
G1 F2100 X41.338 Y71.559 E62.36974
G1 X42.05 Y71.419 E62.40594
G1 X42.967 Y71.355 E62.4518
G1 X182.966 Y71.355 E69.43638
G1 X183.691 Y71.395 E69.47261
G1 X184.408 Y71.514 E69.50887
G1 X185.107 Y71.712 E69.54511
G1 X185.78 Y71.985 E69.58135
G1 X186.419 Y72.33 E69.61758
G1 X187.016 Y72.744 E69.65382
G1 X187.564 Y73.22 E69.69004
G1 X188.057 Y73.754 E69.72629
G1 X188.487 Y74.339 E69.76252
G1 X188.851 Y74.968 E69.79877
G1 X189.144 Y75.633 E69.83503
G1 X189.362 Y76.326 E69.87127
G1 X189.502 Y77.038 E69.90747
G1 X189.566 Y77.955 E69.95333
G1 X189.566 Y122.954 E72.19834
G1 X189.526 Y123.679 E72.23457
G1 X189.407 Y124.396 E72.27083
G1 X189.209 Y125.095 E72.30708
G1 X188.936 Y125.768 E72.34331
G1 X188.591 Y126.407 E72.37954
G1 X188.177 Y127.004 E72.41578
G1 X187.701 Y127.552 E72.452
G1 X187.167 Y128.045 E72.48826
G1 X186.582 Y128.475 E72.52448
G1 X185.953 Y128.839 E72.56073
G1 X185.288 Y129.132 E72.59699
G1 X184.595 Y129.35 E72.63323
G1 X183.883 Y129.49 E72.66944
G1 X182.966 Y129.554 E72.7153
G1 X42.967 Y129.554 E79.69987
G1 X42.242 Y129.514 E79.7361
G1 X41.525 Y129.395 E79.77236
G1 X40.826 Y129.197 E79.80861
G1 X40.153 Y128.924 E79.84484
G1 X39.514 Y128.579 E79.88107
G1 X38.917 Y128.165 E79.91731
G1 X38.369 Y127.689 E79.95353
G1 X37.876 Y127.155 E79.98979
G1 X37.446 Y126.57 E80.02601
G1 X37.082 Y125.941 E80.06227
G1 X36.789 Y125.276 E80.09852
G1 X36.571 Y124.583 E80.13476
G1 X36.431 Y123.871 E80.17097
G1 X36.367 Y122.954 E80.21683
G1 X36.367 Y77.955 E82.46184
G1 X36.407 Y77.23 E82.49806
G1 X36.526 Y76.513 E82.53432
G1 X36.724 Y75.814 E82.57057
G1 X36.997 Y75.141 E82.6068
G1 X37.342 Y74.502 E82.64303
G1 X37.756 Y73.905 E82.67928
G1 X38.232 Y73.357 E82.71549
G1 X38.766 Y72.864 E82.75175
G1 X39.351 Y72.434 E82.78797
G1 X39.98 Y72.07 E82.82423
G1 X40.645 Y71.777 E82.86048
G0 F7000 X41.01 Y72.072
G1 F2100 X41.69 Y71.888 E82.89563
G1 X42.386 Y71.782 E82.93075
G1 X42.967 Y71.755 E82.95977
G1 X182.966 Y71.755 E89.94435
G1 X183.669 Y71.795 E89.97948
G1 X184.363 Y71.914 E90.01461
G1 X185.038 Y72.112 E90.0497
G1 X185.687 Y72.384 E90.08481
G1 X186.301 Y72.729 E90.11994
G1 X186.872 Y73.14 E90.15504
G1 X187.393 Y73.614 E90.19018
G1 X187.857 Y74.144 E90.22533
G1 X188.257 Y74.723 E90.26044
G1 X188.589 Y75.344 E90.29557
G1 X188.849 Y75.998 E90.33068
G1 X189.033 Y76.678 E90.36583
G1 X189.139 Y77.374 E90.40095
G1 X189.166 Y77.955 E90.42997
G1 X189.166 Y122.954 E92.67498
G1 X189.126 Y123.657 E92.71011
G1 X189.007 Y124.351 E92.74524
G1 X188.809 Y125.026 E92.78033
G1 X188.537 Y125.675 E92.81544
G1 X188.192 Y126.289 E92.85058
G1 X187.781 Y126.86 E92.88567
G1 X187.307 Y127.381 E92.92081
G1 X186.777 Y127.845 E92.95596
G1 X186.198 Y128.245 E92.99107
G1 X185.577 Y128.577 E93.0262
G1 X184.923 Y128.837 E93.06131
G1 X184.243 Y129.021 E93.09646
G1 X183.547 Y129.127 E93.13158
G1 X182.966 Y129.154 E93.1606
G1 X42.967 Y129.154 E100.14518
G1 X42.264 Y129.114 E100.18031
G1 X41.57 Y128.995 E100.21544
G1 X40.895 Y128.797 E100.25053
G1 X40.246 Y128.525 E100.28564
G1 X39.632 Y128.18 E100.32077
G1 X39.061 Y127.769 E100.35587
G1 X38.54 Y127.295 E100.39101
G1 X38.076 Y126.765 E100.42616
G1 X37.676 Y126.186 E100.46127
G1 X37.344 Y125.565 E100.4964
G1 X37.084 Y124.911 E100.53151
G1 X36.9 Y124.231 E100.56666
G1 X36.794 Y123.535 E100.60178
G1 X36.767 Y122.954 E100.6308
G1 X36.767 Y77.955 E102.87581
G1 X36.807 Y77.252 E102.91094
G1 X36.926 Y76.558 E102.94607
G1 X37.124 Y75.883 E102.98116
G1 X37.396 Y75.234 E103.01627
G1 X37.741 Y74.62 E103.0514
G1 X38.152 Y74.049 E103.0865
G1 X38.626 Y73.528 E103.12164
G1 X39.156 Y73.064 E103.15679
G1 X39.735 Y72.664 E103.1919
G1 X40.356 Y72.332 E103.22703
G1 X41.01 Y72.072 E103.26214
G0 F7000 X41.371 Y72.379
G1 F2100 X42.036 Y72.23 E103.29614
G1 X42.967 Y72.155 E103.34274
G1 X182.966 Y72.155 E110.32732
G1 X183.646 Y72.195 E110.3613
G1 X184.316 Y72.314 E110.39525
G1 X184.968 Y72.511 E110.42923
G1 X185.592 Y72.783 E110.46319
G1 X186.18 Y73.127 E110.49718
G1 X186.724 Y73.537 E110.53116
G1 X187.215 Y74.008 E110.56511
G1 X187.649 Y74.533 E110.59909
G1 X188.018 Y75.105 E110.63305
G1 X188.317 Y75.717 E110.66703
G1 X188.542 Y76.359 E110.70097
G1 X188.691 Y77.024 E110.73497
G1 X188.766 Y77.955 E110.78157
G1 X188.766 Y122.954 E113.02658
G1 X188.726 Y123.634 E113.06056
G1 X188.607 Y124.304 E113.09451
G1 X188.41 Y124.956 E113.1285
G1 X188.138 Y125.58 E113.16246
G1 X187.794 Y126.168 E113.19644
G1 X187.384 Y126.712 E113.23043
G1 X186.913 Y127.203 E113.26437
G1 X186.388 Y127.637 E113.29836
G1 X185.816 Y128.006 E113.33232
G1 X185.204 Y128.305 E113.3663
G1 X184.562 Y128.53 E113.40024
G1 X183.897 Y128.679 E113.43424
G1 X182.966 Y128.754 E113.48083
G1 X42.967 Y128.754 E120.46541
G1 X42.287 Y128.714 E120.4994
G1 X41.617 Y128.595 E120.53335
G1 X40.965 Y128.398 E120.56733
G1 X40.341 Y128.126 E120.60129
G1 X39.753 Y127.782 E120.63528
G1 X39.209 Y127.372 E120.66926
G1 X38.718 Y126.901 E120.70321
G1 X38.284 Y126.376 E120.73719
G1 X37.915 Y125.804 E120.77115
G1 X37.616 Y125.192 E120.80513
G1 X37.391 Y124.55 E120.83907
G1 X37.242 Y123.885 E120.87307
G1 X37.167 Y122.954 E120.91967
G1 X37.167 Y77.955 E123.16468
G1 X37.207 Y77.275 E123.19866
G1 X37.326 Y76.605 E123.23261
G1 X37.523 Y75.953 E123.26659
G1 X37.795 Y75.329 E123.30055
G1 X38.139 Y74.741 E123.33454
G1 X38.549 Y74.197 E123.36852
G1 X39.02 Y73.706 E123.40247
G1 X39.545 Y73.272 E123.43645
G1 X40.117 Y72.903 E123.47041
G1 X40.729 Y72.604 E123.50439
G1 X41.371 Y72.379 E123.53833
G0 F7000 X41.727 Y72.699
G1 F2100 X42.374 Y72.588 E123.57108
G1 X42.967 Y72.555 E123.60071
G1 X182.966 Y72.555 E130.58529
G1 X183.622 Y72.595 E130.61808
G1 X184.268 Y72.714 E130.65085
G1 X184.895 Y72.911 E130.68364
G1 X185.493 Y73.183 E130.71642
G1 X186.054 Y73.525 E130.7492
G1 X186.569 Y73.933 E130.78198
G1 X187.031 Y74.4 E130.81475
G1 X187.432 Y74.92 E130.84751
G1 X187.768 Y75.484 E130.88026
G1 X188.032 Y76.086 E130.91306
G1 X188.222 Y76.715 E130.94584
G1 X188.333 Y77.362 E130.97859
G1 X188.366 Y77.955 E131.00822
G1 X188.366 Y122.954 E133.25323
G1 X188.326 Y123.61 E133.28602
G1 X188.207 Y124.256 E133.31879
G1 X188.01 Y124.883 E133.35158
G1 X187.738 Y125.481 E133.38435
G1 X187.396 Y126.042 E133.41713
G1 X186.988 Y126.557 E133.44991
G1 X186.521 Y127.019 E133.48269
G1 X186.001 Y127.42 E133.51545
G1 X185.437 Y127.756 E133.5482
G1 X184.835 Y128.02 E133.581
G1 X184.206 Y128.21 E133.61378
G1 X183.559 Y128.321 E133.64653
G1 X182.966 Y128.354 E133.67616
G1 X42.967 Y128.354 E140.66074
G1 X42.311 Y128.314 E140.69353
G1 X41.665 Y128.195 E140.7263
G1 X41.038 Y127.998 E140.75909
G1 X40.44 Y127.726 E140.79186
G1 X39.879 Y127.384 E140.82464
G1 X39.364 Y126.976 E140.85742
G1 X38.902 Y126.509 E140.89019
G1 X38.501 Y125.989 E140.92295
G1 X38.165 Y125.425 E140.95571
G1 X37.901 Y124.823 E140.9885
G1 X37.711 Y124.194 E141.02128
G1 X37.6 Y123.547 E141.05403
G1 X37.567 Y122.954 E141.08366
G1 X37.567 Y77.955 E143.32867
G1 X37.607 Y77.299 E143.36146
G1 X37.726 Y76.653 E143.39423
G1 X37.923 Y76.026 E143.42702
G1 X38.195 Y75.428 E143.4598
G1 X38.537 Y74.867 E143.49258
G1 X38.945 Y74.352 E143.52536
G1 X39.412 Y73.89 E143.55813
G1 X39.932 Y73.489 E143.59089
G1 X40.496 Y73.153 E143.62364
G1 X41.098 Y72.889 E143.65644
G1 X41.727 Y72.699 E143.68922
G0 F7000 X41.462 Y73.187
G1 F2100 X42.076 Y73.035 E143.72078
G1 X42.967 Y72.955 E143.76541
G1 X182.966 Y72.955 E150.74999
G1 X183.597 Y72.995 E150.78153
G1 X184.218 Y73.114 E150.81308
G1 X184.818 Y73.311 E150.84458
G1 X185.39 Y73.582 E150.87616
G1 X185.922 Y73.922 E150.90766
G1 X186.407 Y74.328 E150.93922
G1 X186.837 Y74.791 E150.97074
G1 X187.206 Y75.305 E151.00231
G1 X187.506 Y75.861 E151.03383
G1 X187.734 Y76.45 E151.06534
G1 X187.886 Y77.064 E151.09689
G1 X187.966 Y77.955 E151.14152
G1 X187.966 Y122.954 E153.38653
G1 X187.926 Y123.585 E153.41808
G1 X187.807 Y124.206 E153.44962
G1 X187.61 Y124.806 E153.48113
G1 X187.339 Y125.378 E153.51271
G1 X186.999 Y125.91 E153.54421
G1 X186.593 Y126.395 E153.57576
G1 X186.13 Y126.825 E153.60729
G1 X185.616 Y127.194 E153.63885
G1 X185.06 Y127.494 E153.67037
G1 X184.471 Y127.722 E153.70188
G1 X183.857 Y127.874 E153.73344
G1 X182.966 Y127.954 E153.77807
G1 X42.967 Y127.954 E160.76265
G1 X42.336 Y127.914 E160.79419
G1 X41.715 Y127.795 E160.82574
G1 X41.115 Y127.598 E160.85725
G1 X40.543 Y127.327 E160.88882
G1 X40.011 Y126.987 E160.92032
G1 X39.526 Y126.581 E160.95188
G1 X39.096 Y126.118 E160.9834
G1 X38.727 Y125.604 E161.01497
G1 X38.427 Y125.048 E161.04649
G1 X38.199 Y124.459 E161.078
G1 X38.047 Y123.845 E161.10956
G1 X37.967 Y122.954 E161.15419
G1 X37.967 Y77.955 E163.3992
G1 X38.007 Y77.324 E163.43074
G1 X38.126 Y76.703 E163.46229
G1 X38.323 Y76.103 E163.49379
G1 X38.594 Y75.531 E163.52537
G1 X38.934 Y74.999 E163.55687
G1 X39.34 Y74.514 E163.58843
G1 X39.803 Y74.084 E163.61995
G1 X40.317 Y73.715 E163.65152
G1 X40.873 Y73.415 E163.68304
G1 X41.462 Y73.187 E163.71455
G0 F7000 X41.821 Y73.5
G1 F2100 X42.417 Y73.388 E163.7448
G1 X42.967 Y73.355 E163.77229
G1 X182.966 Y73.355 E170.75687
G1 X183.571 Y73.395 E170.78712
G1 X184.165 Y73.514 E170.81734
G1 X184.739 Y73.71 E170.8476
G1 X185.282 Y73.981 E170.87788
G1 X185.785 Y74.32 E170.90814
G1 X186.238 Y74.722 E170.93836
G1 X186.635 Y75.18 E170.9686
G1 X186.968 Y75.687 E170.99886
G1 X187.232 Y76.233 E171.02912
G1 X187.421 Y76.809 E171.05936
G1 X187.533 Y77.405 E171.08962
G1 X187.566 Y77.955 E171.11711
G1 X187.566 Y122.954 E173.36211
G1 X187.526 Y123.559 E173.39236
G1 X187.407 Y124.153 E173.42259
G1 X187.211 Y124.727 E173.45285
G1 X186.94 Y125.27 E173.48312
G1 X186.601 Y125.773 E173.51339
G1 X186.199 Y126.226 E173.5436
G1 X185.741 Y126.623 E173.57384
G1 X185.234 Y126.956 E173.6041
G1 X184.688 Y127.22 E173.63436
G1 X184.112 Y127.409 E173.66461
G1 X183.516 Y127.521 E173.69486
G1 X182.966 Y127.554 E173.72235
G1 X42.967 Y127.554 E180.70693
G1 X42.362 Y127.514 E180.73718
G1 X41.768 Y127.395 E180.7674
G1 X41.194 Y127.199 E180.79766
