;FLAVOR:RepRap
;TIME:4962
;Generated with Cura_SteamEngine 2.3.1
M190 S45
M104 S205
M109 S205
G28 ;Home
G1 Z15.0 F6000 ;Move the platform down 15mm
;Prime the extruder
G92 E0
G1 F200 E3
G92 E0
;LAYER_COUNT:20
;LAYER:0
M107
G1 F1500 E-1
G0 F3600 X87.758 Y41.526 Z.3
;TYPE:SKIRT
G1 F1500 E0
G1 F1800 X88.024 Y41.101 E0.01876
G1 X88.354 Y40.723 E0.03754
G1 X88.739 Y40.402 E0.05629
G1 X89.171 Y40.146 E0.07508
G1 X89.638 Y39.963 E0.09385
G1 X90.127 Y39.855 E0.11259
G1 X90.555 Y39.826 E0.12864
G1 X135.536 Y39.827 E1.81172
G1 X136.036 Y39.867 E1.83049
G1 X136.523 Y39.986 E1.84925
G1 X136.986 Y40.18 E1.86803
G1 X137.411 Y40.446 E1.88679
G1 X137.789 Y40.776 E1.90557
G1 X138.11 Y41.161 E1.92433
G1 X138.366 Y41.593 E1.94311
G1 X138.549 Y42.06 E1.96188
G1 X138.657 Y42.55 E1.98066
G1 X138.686 Y42.977 E1.99667
G1 X138.686 Y182.956 E7.23436
G1 X138.646 Y183.456 E7.25313
G1 X138.527 Y183.943 E7.27188
G1 X138.333 Y184.406 E7.29067
G1 X138.067 Y184.831 E7.30943
G1 X137.737 Y185.209 E7.3282
G1 X137.352 Y185.53 E7.34696
G1 X136.92 Y185.786 E7.36575
G1 X136.453 Y185.969 E7.38452
G1 X135.964 Y186.077 E7.40326
G1 X135.536 Y186.106 E7.41931
G1 X90.555 Y186.106 E9.10239
G1 X90.055 Y186.066 E9.12116
G1 X89.568 Y185.947 E9.13992
G1 X89.105 Y185.753 E9.1587
G1 X88.68 Y185.487 E9.17746
G1 X88.302 Y185.157 E9.19624
G1 X87.981 Y184.772 E9.21499
G1 X87.725 Y184.34 E9.23378
G1 X87.542 Y183.873 E9.25255
G1 X87.434 Y183.384 E9.27129
G1 X87.405 Y182.956 E9.28734
G1 X87.405 Y42.976 E14.52506
G1 X87.445 Y42.476 E14.54383
G1 X87.564 Y41.989 E14.56259
G1 X87.758 Y41.526 E14.58137
G1 F1500 E13.58137
G0 F3600 X89.881 Y43.445
G0 X91.024 Y43.445
G0 X91.596 Y44.361
;TYPE:WALL-INNER
G1 F1500 E14.58137
G1 F1800 X91.596 Y44.017 E14.59425
G1 X91.92 Y44.017 E14.60637
G1 X92.077 Y44.017 E14.61224
G1 X92.328 Y44.017 E14.62163
G1 X92.077 Y44.193 E14.62442
G1 X91.962 Y44.3 E14.62917
G1 X91.896 Y44.361 E14.63253
G1 X91.654 Y44.652 E14.64669
G1 X91.596 Y44.753 E14.65105
G0 X91.596 Y44.652
G1 X91.596 Y44.361 E14.65472
G0 F3600 X91.668 Y47.297
G1 F1800 X91.805 Y47.473 E14.66307
G1 X91.882 Y47.548 E14.66709
G1 X92.057 Y47.721 E14.6763
G1 X92.232 Y47.854 E14.68452
G1 X92.419 Y47.975 E14.69286
G1 X92.766 Y48.134 E14.70714
G1 X93.155 Y48.238 E14.7222
G1 X93.557 Y48.271 E14.7373
G1 X93.932 Y48.236 E14.75139
G1 X94.173 Y48.181 E14.76064
G1 X94.506 Y48.059 E14.77391
G1 X94.721 Y47.946 E14.783
G1 X95.036 Y47.726 E14.79737
G1 X95.301 Y47.456 E14.81153
G1 X95.434 Y47.281 E14.81975
G1 X95.542 Y47.112 E14.82726
G1 X95.636 Y46.931 E14.83489
G1 X95.712 Y46.745 E14.84241
G1 X95.771 Y46.552 E14.84996
G1 X95.814 Y46.357 E14.85743
G1 X95.842 Y46.137 E14.86573
G1 X95.841 Y45.759 E14.87987
G1 X95.771 Y45.361 E14.89499
G1 X95.637 Y45.005 E14.90923
G1 X95.526 Y44.792 E14.91821
G1 X95.306 Y44.479 E14.93253
G1 X95.124 Y44.299 E14.94211
G1 X95.019 Y44.195 E14.94764
G1 X94.764 Y44.017 E14.95927
G1 X95.019 Y44.017 E14.9601
G1 X95.167 Y44.017 E14.96459
G1 X130.919 Y44.017 E16.30235
G1 X131.076 Y44.017 E16.30823
G1 X131.327 Y44.017 E16.31762
G1 X131.076 Y44.193 E16.3204
G1 X130.961 Y44.3 E16.32515
G1 X130.895 Y44.361 E16.32851
G1 X130.653 Y44.652 E16.34267
G1 X130.465 Y44.98 E16.35682
G1 X130.378 Y45.194 E16.36546
G1 X130.322 Y45.379 E16.3727
G1 X130.273 Y45.595 E16.38098
G1 X130.241 Y45.978 E16.39536
G1 X130.276 Y46.354 E16.40949
G1 X130.331 Y46.593 E16.41867
G1 X130.452 Y46.924 E16.43186
G1 X130.556 Y47.125 E16.44033
G1 X130.667 Y47.297 E16.44799
G1 X130.804 Y47.473 E16.45633
G1 X131.056 Y47.721 E16.46956
G1 X131.231 Y47.854 E16.47778
G1 X131.418 Y47.975 E16.48612
G1 X131.765 Y48.134 E16.5004
G1 X132.154 Y48.238 E16.51547
G1 X132.556 Y48.271 E16.53056
G1 X132.931 Y48.236 E16.54465
G1 X133.172 Y48.181 E16.5539
G1 X133.505 Y48.059 E16.56717
G1 X133.72 Y47.946 E16.57626
G1 X134.035 Y47.726 E16.59064
G1 X134.211 Y47.547 E16.60003
G1 X134.3 Y47.456 E16.60479
G1 X134.433 Y47.281 E16.61302
G1 X134.495 Y47.184 E16.61733
G0 X134.495 Y47.281
G0 X134.495 Y47.456
G1 X134.495 Y47.584 E16.62134
G1 X134.495 Y178.345 E21.51411
G1 X134.495 Y178.476 E21.51901
G1 X134.495 Y178.748 E21.52919
G1 X134.305 Y178.476 E21.5328
G1 X134.212 Y178.385 E21.53684
G1 X134.017 Y178.193 E21.54708
G1 X133.709 Y177.978 E21.56114
G1 X133.511 Y177.876 E21.56947
G1 X133.321 Y177.799 E21.57714
G1 X133.133 Y177.742 E21.58449
G1 X132.917 Y177.693 E21.59278
G1 X132.534 Y177.661 E21.60716
G1 X132.159 Y177.696 E21.62125
G1 X131.916 Y177.751 E21.63058
G1 X131.587 Y177.873 E21.6437
G1 X131.37 Y177.986 E21.65286
G1 X131.076 Y178.192 E21.66629
G1 X130.896 Y178.36 E21.6755
G1 X130.653 Y178.65 E21.68966
G1 X130.465 Y178.981 E21.70391
G1 X130.378 Y179.19 E21.71238
G1 X130.322 Y179.378 E21.71972
G1 X130.273 Y179.593 E21.72797
G1 X130.241 Y179.976 E21.74235
G1 X130.276 Y180.352 E21.75648
G1 X130.331 Y180.592 E21.76569
G1 X130.459 Y180.947 E21.77981
G1 X130.652 Y181.274 E21.79402
G1 X130.803 Y181.47 E21.80328
G1 X130.966 Y181.631 E21.81185
G1 X131.056 Y181.72 E21.81659
G1 X131.231 Y181.853 E21.82481
G1 X131.327 Y181.915 E21.82909
G0 X131.231 Y181.915
G0 X131.056 Y181.915
G1 X130.929 Y181.915 E21.83307
G1 X95.165 Y181.915 E23.17128
G1 X95.034 Y181.915 E23.17618
G1 X94.764 Y181.915 E23.18628
G1 X95.034 Y181.725 E23.18988
G1 X95.126 Y181.632 E23.19394
G1 X95.319 Y181.437 E23.20421
G1 X95.532 Y181.129 E23.21822
G1 X95.647 Y180.91 E23.22747
G1 X95.767 Y180.572 E23.24089
G1 X95.814 Y180.355 E23.2492
G1 X95.842 Y180.135 E23.2575
G1 X95.841 Y179.758 E23.27161
G1 X95.771 Y179.36 E23.28673
G1 X95.637 Y179.002 E23.30103
G1 X95.523 Y178.787 E23.31014
G1 X95.306 Y178.476 E23.32433
G1 X95.018 Y178.193 E23.33944
G1 X94.71 Y177.978 E23.35349
G1 X94.512 Y177.876 E23.36182
G1 X94.322 Y177.799 E23.36949
G1 X94.134 Y177.742 E23.37685
G1 X93.918 Y177.693 E23.38513
G1 X93.535 Y177.661 E23.39951
G1 X93.16 Y177.696 E23.41361
G1 X92.917 Y177.751 E23.42293
G1 X92.588 Y177.873 E23.43606
G1 X92.371 Y177.986 E23.44521
G1 X92.077 Y178.192 E23.45865
G1 X91.897 Y178.36 E23.46786
G1 X91.867 Y178.396 E23.46961
G1 X91.654 Y178.65 E23.48202
G1 X91.596 Y178.752 E23.48641
G0 X91.596 Y178.65
G1 X91.596 Y178.318 E23.49413
G1 X91.596 Y47.581 E28.386
G1 X91.596 Y47.473 E28.38808
G1 X91.596 Y47.297 E28.39027
G1 X91.596 Y47.185 E28.39254
G0 X91.668 Y47.297
G0 F3600 X97.184 Y49.461
G1 F1800 X97.184 Y59.381 E28.76372
G1 X101.824 Y59.381 E28.93734
G1 X101.824 Y49.461 E29.30852
G1 X97.184 Y49.461 E29.48214
G0 F3600 X101.252 Y50.033
G0 X113.16 Y53.071
G1 F1800 X113.16 Y75.671 E30.32778
G1 X130.76 Y75.671 E30.98633
G1 X130.76 Y53.071 E31.83197
G1 X113.16 Y53.071 E32.49052
G0 F3600 X111.051 Y64.551
G1 F1800 X104.951 Y64.551 E32.71877
G1 X104.951 Y70.651 E32.94701
G1 X111.051 Y70.651 E33.17526
G1 X111.051 Y64.551 E33.40351
G0 F3600 X110.479 Y70.079
G0 X101.9 Y75.432
G1 F1800 X101.662 Y75.233 E33.41512
G1 X101.409 Y75.056 E33.42667
G1 X101.138 Y74.899 E33.43839
G1 X100.86 Y74.771 E33.44984
G1 X100.567 Y74.662 E33.46154
G1 X100.267 Y74.585 E33.47313
G1 X99.966 Y74.53 E33.48458
G1 X99.656 Y74.503 E33.49622
G1 X99.346 Y74.503 E33.50782
G1 X99.035 Y74.53 E33.5195
G1 X98.734 Y74.585 E33.53095
G1 X98.434 Y74.662 E33.54254
G1 X98.141 Y74.771 E33.55424
G1 X97.863 Y74.899 E33.56569
G1 X97.592 Y75.056 E33.57741
G1 X97.338 Y75.234 E33.58901
G1 X97.102 Y75.43 E33.60049
G1 X96.88 Y75.652 E33.61224
G1 X96.684 Y75.888 E33.62372
G1 X96.506 Y76.142 E33.63532
G1 X96.349 Y76.413 E33.64704
G1 X96.221 Y76.691 E33.65849
G1 X96.112 Y76.984 E33.67019
G1 X96.035 Y77.284 E33.68178
G1 X95.98 Y77.585 E33.69323
G1 X95.953 Y77.895 E33.70487
G1 X95.953 Y78.206 E33.71651
G1 X95.98 Y78.516 E33.72815
G1 X96.035 Y78.817 E33.7396
G1 X96.112 Y79.117 E33.75119
G1 X96.221 Y79.41 E33.76289
G1 X96.349 Y79.688 E33.77434
G1 X96.506 Y79.959 E33.78606
G1 X96.684 Y80.213 E33.79766
G1 X96.88 Y80.449 E33.80914
G1 X97.102 Y80.671 E33.82089
G1 X97.338 Y80.867 E33.83237
G1 X97.592 Y81.045 E33.84398
G1 X97.863 Y81.202 E33.85569
G1 X98.141 Y81.33 E33.86715
G1 X98.434 Y81.439 E33.87884
G1 X98.734 Y81.516 E33.89043
G1 X99.035 Y81.571 E33.90188
G1 X99.346 Y81.598 E33.91356
G1 X99.656 Y81.598 E33.92516
G1 X99.966 Y81.571 E33.93681
G1 X100.267 Y81.516 E33.94825
G1 X100.567 Y81.439 E33.95984
G1 X100.86 Y81.33 E33.97154
G1 X101.138 Y81.202 E33.98299
G1 X101.409 Y81.045 E33.99471
G1 X101.662 Y80.868 E34.00627
G1 X101.9 Y80.669 E34.01787
G1 X102.121 Y80.447 E34.02959
G1 X102.317 Y80.213 E34.04102
G1 X102.495 Y79.959 E34.05262
G1 X102.652 Y79.688 E34.06434
G1 X102.78 Y79.41 E34.07579
G1 X102.889 Y79.117 E34.08749
G1 X102.966 Y78.817 E34.09908
G1 X103.021 Y78.516 E34.11053
G1 X103.048 Y78.206 E34.12217
G1 X103.048 Y77.895 E34.13381
G1 X103.021 Y77.585 E34.14545
G1 X102.966 Y77.284 E34.1569
G1 X102.889 Y76.984 E34.16849
G1 X102.78 Y76.691 E34.18019
G1 X102.652 Y76.413 E34.19164
G1 X102.495 Y76.142 E34.20336
G1 X102.317 Y75.888 E34.21496
G1 X102.121 Y75.654 E34.22639
G1 X101.9 Y75.432 E34.23811
G0 F3600 X113.522 Y88.448
G1 F1800 X113.177 Y88.793 E34.25636
G1 X112.992 Y89.002 E34.26681
G1 X112.687 Y89.402 E34.28563
G1 X112.419 Y89.823 E34.3043
G1 X112.282 Y90.069 E34.31484
G1 X112.078 Y90.512 E34.33309
G1 X111.976 Y90.771 E34.3435
G1 X111.826 Y91.249 E34.36225
G1 X111.716 Y91.74 E34.38108
G1 X111.674 Y92.018 E34.3916
G1 X111.631 Y92.515 E34.41026
G1 X111.631 Y93.026 E34.42938
G1 X111.674 Y93.523 E34.44805
G1 X111.716 Y93.801 E34.45857
G1 X111.826 Y94.292 E34.4774
G1 X111.98 Y94.781 E34.49658
G1 X112.171 Y95.239 E34.51515
G1 X112.286 Y95.477 E34.52504
G1 X112.419 Y95.719 E34.53537
G1 X112.687 Y96.139 E34.55401
G1 X112.992 Y96.537 E34.57277
G1 X113.177 Y96.748 E34.58327
G1 X113.523 Y97.094 E34.60158
G1 X113.733 Y97.278 E34.61203
G1 X114.131 Y97.583 E34.63079
G1 X114.552 Y97.851 E34.64947
G1 X114.797 Y97.987 E34.65995
G1 X115.24 Y98.193 E34.67823
G1 X115.5 Y98.295 E34.68868
G1 X115.978 Y98.445 E34.70743
G1 X116.479 Y98.557 E34.72664
G1 X116.989 Y98.623 E34.74588
G1 X117.5 Y98.645 E34.76502
G1 X118.01 Y98.623 E34.78412
G1 X118.52 Y98.557 E34.80336
G1 X119.021 Y98.445 E34.82257
G1 X119.51 Y98.291 E34.84175
G1 X119.969 Y98.1 E34.86035
G1 X120.209 Y97.983 E34.87035
G1 X120.449 Y97.851 E34.88059
G1 X120.868 Y97.583 E34.8992
G1 X121.266 Y97.278 E34.91797
G1 X121.476 Y97.094 E34.92841
G1 X121.822 Y96.748 E34.94672
G1 X122.007 Y96.537 E34.95722
G1 X122.312 Y96.139 E34.97599
G1 X122.58 Y95.719 E34.99463
G1 X122.717 Y95.472 E35.0052
G1 X122.922 Y95.03 E35.02343
G1 X123.024 Y94.77 E35.03388
G1 X123.174 Y94.292 E35.05262
G1 X123.286 Y93.79 E35.07187
G1 X123.351 Y93.294 E35.09059
G1 X123.369 Y93.026 E35.10064
G1 X123.374 Y92.758 E35.11067
G1 X123.351 Y92.26 E35.12932
G1 X123.286 Y91.751 E35.14852
G1 X123.174 Y91.249 E35.16777
G1 X123.02 Y90.76 E35.18695
G1 X122.827 Y90.299 E35.20565
G1 X122.71 Y90.061 E35.21557
G1 X122.58 Y89.824 E35.22569
G1 X122.312 Y89.402 E35.24439
G1 X122.007 Y89.002 E35.26321
G1 X121.822 Y88.793 E35.27366
G1 X121.477 Y88.448 E35.29191
G1 X121.268 Y88.263 E35.30236
G1 X120.868 Y87.958 E35.32118
G1 X120.448 Y87.69 E35.33982
G1 X120.201 Y87.553 E35.35039
G1 X119.759 Y87.348 E35.36862
G1 X119.499 Y87.246 E35.37907
G1 X119.029 Y87.099 E35.3975
G1 X118.769 Y87.036 E35.40751
G1 X118.519 Y86.986 E35.41705
G1 X118.264 Y86.946 E35.42671
G1 X118.012 Y86.919 E35.43619
G1 X117.744 Y86.901 E35.44624
G1 X117.244 Y86.901 E35.46495
G1 X116.732 Y86.946 E35.48418
G1 X116.229 Y87.036 E35.5033
G1 X115.746 Y87.165 E35.52201
G1 X115.48 Y87.254 E35.5325
G1 X115.028 Y87.443 E35.55083
G1 X114.79 Y87.56 E35.56076
G1 X114.553 Y87.69 E35.57087
G1 X114.131 Y87.958 E35.58958
G1 X113.731 Y88.263 E35.6084
G1 X113.522 Y88.448 E35.61884
G0 F3600 X112.368 Y91.395
G0 X112.192 Y92.54
G0 X112.267 Y93.698
G0 X113.5 Y100.201
G1 F1800 X112.942 Y100.212 E35.63973
G1 X112.385 Y100.249 E35.66061
G1 X111.83 Y100.309 E35.6815
G1 X111.278 Y100.395 E35.70241
G1 X110.73 Y100.504 E35.72331
G1 X110.188 Y100.636 E35.74419
G1 X109.652 Y100.792 E35.76507
G1 X109.121 Y100.972 E35.78605
G1 X108.601 Y101.175 E35.80694
G1 X108.09 Y101.399 E35.82782
G1 X107.589 Y101.647 E35.84873
G1 X107.101 Y101.915 E35.86957
G1 X106.624 Y102.205 E35.89045
G1 X106.159 Y102.514 E35.91134
G1 X105.708 Y102.846 E35.9323
G1 X105.273 Y103.194 E35.95314
G1 X104.852 Y103.564 E35.97412
G1 X104.45 Y103.95 E35.99497
G1 X104.064 Y104.352 E36.01582
G1 X103.694 Y104.773 E36.03679
G1 X103.346 Y105.208 E36.05764
G1 X103.014 Y105.659 E36.07859
G1 X102.705 Y106.124 E36.09948
G1 X102.415 Y106.6 E36.12034
G1 X102.147 Y107.089 E36.1412
G1 X101.899 Y107.59 E36.16212
G1 X101.675 Y108.101 E36.183
G1 X101.472 Y108.621 E36.20389
G1 X101.292 Y109.152 E36.22487
G1 X101.136 Y109.688 E36.24575
G1 X101.004 Y110.23 E36.26663
G1 X100.895 Y110.778 E36.28753
G1 X100.809 Y111.33 E36.30844
G1 X100.749 Y111.885 E36.32932
G1 X100.712 Y112.442 E36.35021
G1 X100.7 Y113 E36.3711
G1 X100.712 Y113.558 E36.39198
G1 X100.749 Y114.115 E36.41287
G1 X100.809 Y114.67 E36.43376
G1 X100.895 Y115.222 E36.45466
G1 X101.004 Y115.77 E36.47557
G1 X101.136 Y116.312 E36.49644
G1 X101.292 Y116.848 E36.51733
G1 X101.472 Y117.379 E36.53831
G1 X101.675 Y117.899 E36.55919
G1 X101.899 Y118.41 E36.58007
G1 X102.147 Y118.911 E36.60099
G1 X102.415 Y119.399 E36.62182
G1 X102.705 Y119.876 E36.64271
G1 X103.014 Y120.341 E36.6636
G1 X103.346 Y120.792 E36.68455
G1 X103.694 Y121.227 E36.7054
G1 X104.064 Y121.648 E36.72637
G1 X104.45 Y122.05 E36.74722
G1 X104.852 Y122.436 E36.76808
G1 X105.273 Y122.806 E36.78905
G1 X105.708 Y123.154 E36.80989
G1 X106.159 Y123.486 E36.83085
G1 X106.624 Y123.795 E36.85174
G1 X107.1 Y124.085 E36.87259
G1 X107.589 Y124.353 E36.89346
G1 X108.09 Y124.601 E36.91438
G1 X108.601 Y124.825 E36.93525
G1 X109.121 Y125.028 E36.95614
G1 X109.652 Y125.208 E36.97712
G1 X110.188 Y125.364 E36.99801
G1 X110.73 Y125.496 E37.01888
G1 X111.278 Y125.605 E37.03979
G1 X111.83 Y125.691 E37.06069
G1 X112.385 Y125.751 E37.08158
G1 X112.942 Y125.788 E37.10247
G1 X113.499 Y125.799 E37.12331
G1 X114.058 Y125.788 E37.14423
G1 X114.615 Y125.751 E37.16512
G1 X115.17 Y125.691 E37.18601
G1 X115.722 Y125.605 E37.20691
G1 X116.27 Y125.496 E37.22782
G1 X116.812 Y125.364 E37.24869
G1 X117.348 Y125.208 E37.26958
G1 X117.879 Y125.028 E37.29056
G1 X118.399 Y124.825 E37.31145
G1 X118.91 Y124.601 E37.33232
G1 X119.411 Y124.353 E37.35324
G1 X119.899 Y124.085 E37.37407
G1 X120.376 Y123.795 E37.39496
G1 X120.841 Y123.486 E37.41585
G1 X121.292 Y123.154 E37.4368
G1 X121.727 Y122.806 E37.45765
G1 X122.148 Y122.436 E37.47862
G1 X122.55 Y122.05 E37.49947
G1 X122.936 Y121.648 E37.52033
G1 X123.306 Y121.227 E37.5413
G1 X123.654 Y120.792 E37.56214
G1 X123.986 Y120.341 E37.5831
G1 X124.295 Y119.876 E37.60399
G1 X124.585 Y119.4 E37.62485
G1 X124.853 Y118.911 E37.64571
G1 X125.101 Y118.41 E37.66663
G1 X125.325 Y117.899 E37.6875
G1 X125.528 Y117.379 E37.70839
G1 X125.708 Y116.848 E37.72937
G1 X125.864 Y116.312 E37.75026
G1 X125.996 Y115.77 E37.77113
G1 X126.105 Y115.222 E37.79204
G1 X126.191 Y114.67 E37.81294
G1 X126.251 Y114.115 E37.83383
G1 X126.288 Y113.558 E37.85472
G1 X126.3 Y113 E37.8756
G1 X126.288 Y112.442 E37.89649
G1 X126.251 Y111.885 E37.91737
G1 X126.191 Y111.33 E37.93826
G1 X126.105 Y110.778 E37.95916
G1 X125.996 Y110.23 E37.98007
G1 X125.864 Y109.688 E38.00094
G1 X125.708 Y109.152 E38.02183
G1 X125.528 Y108.621 E38.04281
G1 X125.325 Y108.101 E38.0637
G1 X125.101 Y107.59 E38.08458
G1 X124.853 Y107.089 E38.10549
G1 X124.585 Y106.601 E38.12633
G1 X124.295 Y106.124 E38.14721
G1 X123.986 Y105.659 E38.1681
G1 X123.654 Y105.208 E38.18906
G1 X123.306 Y104.773 E38.2099
G1 X122.936 Y104.352 E38.23087
G1 X122.55 Y103.95 E38.25173
G1 X122.148 Y103.564 E38.27258
G1 X121.727 Y103.194 E38.29355
G1 X121.292 Y102.846 E38.3144
G1 X120.841 Y102.514 E38.33535
G1 X120.376 Y102.205 E38.35624
G1 X119.9 Y101.915 E38.3771
G1 X119.411 Y101.647 E38.39796
G1 X118.91 Y101.399 E38.41888
G1 X118.399 Y101.175 E38.43976
G1 X117.879 Y100.972 E38.46065
G1 X117.348 Y100.792 E38.48162
G1 X116.812 Y100.636 E38.50251
G1 X116.27 Y100.504 E38.52339
G1 X115.722 Y100.395 E38.54429
G1 X115.17 Y100.309 E38.5652
G1 X114.615 Y100.249 E38.58608
G1 X114.058 Y100.212 E38.60697
G1 X113.5 Y100.201 E38.62785
G0 F3600 X109.314 Y101.499
