;FLAVOR:RepRap
;TIME:2853
;Generated with Cura_SteamEngine 2.3.1
M190 S45
M104 S220
M109 S220
G28 ;Home
G1 Z15.0 F6000 ;Move the platform down 15mm
;Prime the extruder
G92 E0
G1 F200 E3
G92 E0
;LAYER_COUNT:32
;LAYER:0
M107
G1 F1500 E-0.5
G0 F3600 X42.218 Y90.931 Z.3
G0 X43.034 Y90.766
;TYPE:SKIRT
G1 F1500 E0
G1 F1800 X183.033 Y90.766 E10.47687
G1 X183.44 Y90.806 E10.50747
G1 X183.832 Y90.924 E10.53811
G1 X184.194 Y91.116 E10.56877
G1 X184.511 Y91.375 E10.59941
G1 X184.773 Y91.69 E10.63007
G1 X184.968 Y92.05 E10.66071
G1 X185.089 Y92.441 E10.69134
G1 X185.133 Y92.866 E10.72331
G1 X185.133 Y137.865 E14.09083
G1 X185.093 Y138.272 E14.12143
G1 X184.975 Y138.664 E14.15207
G1 X184.783 Y139.026 E14.18273
G1 X184.524 Y139.343 E14.21337
G1 X184.209 Y139.605 E14.24403
G1 X183.849 Y139.8 E14.27467
G1 X183.458 Y139.921 E14.3053
G1 X183.033 Y139.965 E14.33727
G1 X43.034 Y139.965 E24.81414
G1 X42.627 Y139.925 E24.84474
G1 X42.235 Y139.807 E24.87538
G1 X41.873 Y139.615 E24.90604
G1 X41.556 Y139.356 E24.93668
G1 X41.294 Y139.041 E24.96734
G1 X41.099 Y138.681 E24.99798
G1 X40.978 Y138.29 E25.02861
G1 X40.934 Y137.865 E25.06058
G1 X40.934 Y92.866 E28.4281
G1 X40.974 Y92.459 E28.4587
G1 X41.092 Y92.067 E28.48934
G1 X41.284 Y91.705 E28.52
G1 X41.543 Y91.388 E28.55064
G1 X41.858 Y91.126 E28.5813
G1 X42.218 Y90.931 E28.61194
G1 X42.609 Y90.81 E28.64257
G1 X43.034 Y90.766 E28.67454
G0 F3600 X43.034 Y91.366
G1 F1800 X183.033 Y91.366 E39.15141
G1 X183.377 Y91.406 E39.17733
G1 X183.702 Y91.523 E39.20318
G1 X183.992 Y91.712 E39.22908
G1 X184.23 Y91.962 E39.25491
G1 X184.405 Y92.261 E39.28084
G1 X184.508 Y92.591 E39.30671
G1 X184.533 Y92.866 E39.32737
G1 X184.533 Y137.865 E42.69489
G1 X184.493 Y138.209 E42.7208
G1 X184.376 Y138.534 E42.74665
G1 X184.187 Y138.824 E42.77256
G1 X183.937 Y139.062 E42.79839
G1 X183.638 Y139.237 E42.82431
G1 X183.308 Y139.34 E42.85019
G1 X183.033 Y139.365 E42.87085
G1 X43.034 Y139.365 E53.34772
G1 X42.69 Y139.325 E53.37363
G1 X42.365 Y139.208 E53.39948
G1 X42.075 Y139.019 E53.42539
G1 X41.837 Y138.769 E53.45122
G1 X41.662 Y138.47 E53.47715
G1 X41.559 Y138.14 E53.50302
G1 X41.534 Y137.865 E53.52368
G1 X41.534 Y92.866 E56.89119
G1 X41.574 Y92.522 E56.91711
G1 X41.691 Y92.197 E56.94296
G1 X41.88 Y91.907 E56.96887
G1 X42.13 Y91.669 E56.9947
G1 X42.429 Y91.494 E57.02062
G1 X42.759 Y91.391 E57.04649
G1 X43.034 Y91.366 E57.06716
G0 F3600 X43.034 Y91.966
G1 F1800 X183.033 Y91.966 E67.54403
G1 X183.298 Y92.006 E67.56408
G1 X183.539 Y92.122 E67.5841
G1 X183.735 Y92.303 E67.60406
G1 X183.87 Y92.535 E67.62415
G1 X183.933 Y92.866 E67.64937
G1 X183.933 Y137.865 E71.01688
G1 X183.893 Y138.13 E71.03694
G1 X183.777 Y138.371 E71.05695
G1 X183.596 Y138.567 E71.07692
G1 X183.364 Y138.702 E71.097
G1 X183.033 Y138.765 E71.12222
G1 X43.034 Y138.765 E81.59909
G1 X42.769 Y138.725 E81.61914
G1 X42.528 Y138.609 E81.63916
G1 X42.332 Y138.428 E81.65912
G1 X42.197 Y138.196 E81.67921
G1 X42.134 Y137.865 E81.70443
G1 X42.134 Y92.866 E85.07194
G1 X42.174 Y92.601 E85.092
G1 X42.29 Y92.36 E85.11201
G1 X42.471 Y92.164 E85.13198
G1 X42.703 Y92.029 E85.15206
G1 X43.034 Y91.966 E85.17728
G0 F3600 X43.034 Y92.566
G1 F1800 X183.033 Y92.566 E95.65415
G1 X183.182 Y92.605 E95.66567
G1 X183.291 Y92.713 E95.67716
G1 X183.333 Y92.866 E95.68903
G1 X183.333 Y137.865 E99.05654
G1 X183.294 Y138.014 E99.06807
G1 X183.186 Y138.123 E99.07955
G1 X183.033 Y138.165 E99.09143
G1 X43.034 Y138.165 E109.56829
G1 X42.885 Y138.126 E109.57982
G1 X42.776 Y138.018 E109.5913
G1 X42.734 Y137.865 E109.60318
G1 X42.734 Y92.866 E112.97069
G1 X42.773 Y92.717 E112.98222
G1 X42.881 Y92.608 E112.9937
G1 X43.034 Y92.566 E113.00557
G1 F1500 E112.50557
G0 F3600 X43.962 Y93.794
G0 X44.849 Y93.866
G0 X44.849 Y93.766
;TYPE:WALL-INNER
G1 F1500 E113.00557
G1 F1800 X45.074 Y93.766 E113.02241
G1 X45.378 Y93.766 E113.04516
G1 X45.696 Y93.766 E113.06896
G1 X46.024 Y93.766 E113.0935
G1 X46.338 Y93.766 E113.117
G1 X46.54 Y93.766 E113.13212
G1 X46.834 Y93.766 E113.15412
G1 X47.117 Y93.766 E113.1753
G1 X47.206 Y93.766 E113.18196
G1 X111.849 Y93.766 E118.01954
G1 X112.073 Y93.766 E118.0363
G1 X112.377 Y93.766 E118.05905
G1 X112.696 Y93.766 E118.08292
G1 X113.023 Y93.766 E118.10739
G1 X113.337 Y93.766 E118.13089
G1 X113.539 Y93.766 E118.14601
G1 X113.833 Y93.766 E118.16801
G1 X114.116 Y93.766 E118.18919
G1 X114.205 Y93.766 E118.19585
G1 X178.848 Y93.766 E123.03343
G1 X179.073 Y93.766 E123.05027
G1 X179.377 Y93.766 E123.07302
G1 X179.695 Y93.766 E123.09681
G1 X180.023 Y93.766 E123.12136
G1 X180.337 Y93.766 E123.14486
G1 X180.539 Y93.766 E123.15997
G1 X180.833 Y93.766 E123.18198
G1 X181.116 Y93.766 E123.20315
G1 X181.205 Y93.766 E123.20982
G1 X182.133 Y93.766 E123.27926
G1 X182.133 Y94.693 E123.34863
G1 X182.133 Y94.766 E123.3541
G1 X182.133 Y95.055 E123.37573
G1 X182.133 Y95.367 E123.39907
G1 X182.133 Y95.692 E123.4234
G1 X182.133 Y96.025 E123.44832
G1 X182.133 Y96.349 E123.47256
G1 X182.133 Y96.643 E123.49456
G1 X182.133 Y96.827 E123.50833
G1 X182.133 Y97.054 E123.52532
G1 X182.133 Y133.692 E126.26714
G1 X182.133 Y133.765 E126.2726
G1 X182.133 Y134.054 E126.29423
G1 X182.133 Y134.366 E126.31758
G1 X182.133 Y134.691 E126.3419
G1 X182.133 Y135.024 E126.36682
G1 X182.133 Y135.348 E126.39106
G1 X182.133 Y135.642 E126.41307
G1 X182.133 Y135.826 E126.42684
G1 X182.133 Y136.053 E126.44382
G1 X182.133 Y136.965 E126.51207
G1 X181.218 Y136.965 E126.58055
G1 X180.993 Y136.965 E126.59738
G1 X180.691 Y136.965 E126.61999
G1 X180.372 Y136.965 E126.64386
G1 X180.042 Y136.965 E126.66855
G1 X179.73 Y136.965 E126.6919
G1 X179.528 Y136.965 E126.70702
G1 X179.234 Y136.965 E126.72902
G1 X178.951 Y136.965 E126.7502
G1 X178.862 Y136.965 E126.75686
G1 X114.218 Y136.965 E131.59451
G1 X113.994 Y136.965 E131.61128
G1 X113.692 Y136.965 E131.63388
G1 X113.372 Y136.965 E131.65782
G1 X113.042 Y136.965 E131.68252
G1 X112.731 Y136.965 E131.70579
G1 X112.529 Y136.965 E131.72091
G1 X112.235 Y136.965 E131.74291
G1 X111.952 Y136.965 E131.76409
G1 X111.863 Y136.965 E131.77075
G1 X47.219 Y136.965 E136.6084
G1 X46.994 Y136.965 E136.62524
G1 X46.692 Y136.965 E136.64784
G1 X46.373 Y136.965 E136.67171
G1 X46.043 Y136.965 E136.69641
G1 X45.731 Y136.965 E136.71976
G1 X45.529 Y136.965 E136.73487
G1 X45.235 Y136.965 E136.75688
G1 X44.952 Y136.965 E136.77805
G1 X44.863 Y136.965 E136.78471
G1 X43.934 Y136.965 E136.85424
G1 X43.934 Y136.037 E136.92368
G1 X43.934 Y135.965 E136.92907
G1 X43.934 Y135.676 E136.9507
G1 X43.934 Y135.364 E136.97405
G1 X43.934 Y135.039 E136.99837
G1 X43.934 Y134.706 E137.02329
G1 X43.934 Y134.382 E137.04754
G1 X43.934 Y134.088 E137.06954
G1 X43.934 Y133.904 E137.08331
G1 X43.934 Y133.678 E137.10022
G1 X43.934 Y97.038 E139.84219
G1 X43.934 Y96.966 E139.84757
G1 X43.934 Y96.677 E139.8692
G1 X43.934 Y96.365 E139.89255
G1 X43.934 Y96.04 E139.91687
G1 X43.934 Y95.707 E139.94179
G1 X43.934 Y95.383 E139.96604
G1 X43.934 Y95.089 E139.98804
G1 X43.934 Y94.905 E140.00181
G1 X43.934 Y94.679 E140.01872
G1 X43.934 Y93.766 E140.08705
G1 X44.849 Y93.766 E140.15552
G0 F3600 X45.074 Y94.222
G1 F1800 X44.891 Y94.352 E140.17039
G1 X44.806 Y94.413 E140.17822
G1 X44.572 Y94.646 E140.20294
G1 X44.521 Y94.719 E140.2096
G1 X44.393 Y94.905 E140.22317
G1 X44.298 Y95.089 E140.22472
G0 X44.194 Y95.383
G0 X44.138 Y95.707
G0 X44.139 Y96.04
G0 X44.198 Y96.365
G0 X44.312 Y96.677
G1 X44.481 Y96.966 E140.24275
G1 X44.527 Y97.021 E140.24789
G1 X44.696 Y97.22 E140.26742
G1 X44.952 Y97.43 E140.2922
G1 X45.235 Y97.593 E140.31664
G1 X45.529 Y97.7 E140.34006
G1 X45.731 Y97.744 E140.35553
G1 X46.043 Y97.769 E140.37895
G1 X46.373 Y97.739 E140.40375
G1 X46.692 Y97.652 E140.42849
G1 X46.994 Y97.51 E140.45347
G1 X47.262 Y97.319 E140.4781
G1 X47.497 Y97.086 E140.50286
G1 X47.676 Y96.827 E140.52642
G1 X47.771 Y96.643 E140.54192
G1 X47.875 Y96.349 E140.56526
G1 X47.931 Y96.025 E140.58986
G1 X47.93 Y95.692 E140.61478
G1 X47.871 Y95.367 E140.6395
G1 X47.757 Y95.055 E140.66436
G1 X47.588 Y94.766 E140.68941
G1 X47.373 Y94.512 E140.71432
G1 X47.185 Y94.358 E140.7325
G1 X47.117 Y94.302 E140.73876
G1 X46.834 Y94.139 E140.74944
G0 X46.54 Y94.032
G0 X46.338 Y93.988
G0 X46.024 Y93.963
G0 X45.696 Y93.993
G0 X45.378 Y94.079
G1 X45.074 Y94.222 E140.75697
G0 F3600 X45.024 Y94.136
G0 X45.689 Y93.954
G0 X46.343 Y93.949
G0 X46.85 Y94.103
G0 X47.401 Y94.484
G0 X47.793 Y95.038
G0 X53.251 Y107.345
G0 X53.301 Y107.431
G1 F1800 X52.883 Y107.686 E140.79361
G1 X52.48 Y107.957 E140.82996
G1 X52.089 Y108.245 E140.8663
G1 X51.71 Y108.55 E140.9027
G1 X51.345 Y108.871 E140.93908
G1 X50.995 Y109.208 E140.97544
G1 X50.658 Y109.559 E141.01185
G1 X50.337 Y109.928 E141.04845
G1 X50.035 Y110.306 E141.08466
G1 X49.747 Y110.699 E141.12112
G1 X49.478 Y111.103 E141.15745
G1 X49.226 Y111.52 E141.19391
G1 X48.993 Y111.948 E141.23038
G1 X48.778 Y112.383 E141.26669
G1 X48.583 Y112.828 E141.30305
G1 X48.408 Y113.281 E141.33939
G1 X48.251 Y113.743 E141.37591
G1 X48.116 Y114.211 E141.41236
G1 X48.002 Y114.683 E141.44869
G1 X47.907 Y115.159 E141.48502
G1 X47.833 Y115.641 E141.52151
G1 X47.782 Y116.124 E141.55786
G1 X47.75 Y116.609 E141.59423
G1 X47.74 Y117.096 E141.63068
G1 X47.751 Y117.584 E141.66721
G1 X47.785 Y118.067 E141.70345
G1 X47.837 Y118.551 E141.73988
G1 X47.913 Y119.034 E141.77647
G1 X48.009 Y119.51 E141.81281
G1 X48.125 Y119.982 E141.84918
G1 X48.262 Y120.448 E141.88553
G1 X48.42 Y120.91 E141.92207
G1 X48.597 Y121.361 E141.95833
G1 X48.792 Y121.807 E141.99475
G1 X49.009 Y122.243 E142.0312
G1 X49.242 Y122.668 E142.06747
G1 X49.497 Y123.086 E142.10411
G1 X49.767 Y123.488 E142.14035
G1 X50.055 Y123.881 E142.17681
G1 X50.36 Y124.258 E142.2131
G1 X50.681 Y124.625 E142.24959
G1 X51.02 Y124.976 E142.28611
G1 X51.371 Y125.312 E142.32247
G1 X51.737 Y125.631 E142.3588
G1 X52.117 Y125.936 E142.39527
G1 X52.51 Y126.222 E142.43164
G1 X52.914 Y126.491 E142.46796
G1 X53.33 Y126.744 E142.5044
G1 X53.759 Y126.978 E142.54097
G1 X54.194 Y127.191 E142.57722
G1 X54.639 Y127.387 E142.61361
G1 X55.094 Y127.562 E142.65009
G1 X55.554 Y127.718 E142.68644
G1 X56.023 Y127.854 E142.72298
G1 X56.495 Y127.968 E142.75932
G1 X56.971 Y128.062 E142.79563
G1 X57.452 Y128.136 E142.83205
G1 X57.936 Y128.188 E142.86848
G1 X58.421 Y128.219 E142.90485
G1 X58.907 Y128.229 E142.94122
G1 X59.395 Y128.218 E142.97775
G1 X59.881 Y128.185 E143.01421
G1 X60.364 Y128.131 E143.05058
G1 X60.844 Y128.056 E143.08693
G1 X61.32 Y127.961 E143.12326
G1 X61.793 Y127.844 E143.15972
G1 X62.26 Y127.707 E143.19614
G1 X62.72 Y127.551 E143.23249
G1 X63.174 Y127.373 E143.26899
G1 X63.618 Y127.177 E143.30531
G1 X64.053 Y126.961 E143.34165
G1 X64.479 Y126.728 E143.37799
G1 X64.898 Y126.473 E143.4147
G1 X65.301 Y126.201 E143.45108
G1 X65.692 Y125.915 E143.48733
G1 X66.071 Y125.609 E143.52379
G1 X66.436 Y125.288 E143.56016
G1 X66.786 Y124.951 E143.59652
G1 X67.124 Y124.599 E143.63304
G1 X67.444 Y124.23 E143.66959
G1 X67.747 Y123.853 E143.70579
G1 X68.034 Y123.458 E143.74233
G1 X68.302 Y123.055 E143.77855
G1 X68.555 Y122.639 E143.81498
G1 X68.788 Y122.211 E143.85145
G1 X69.003 Y121.775 E143.88783
G1 X69.198 Y121.328 E143.92433
G1 X69.373 Y120.877 E143.96053
G1 X69.53 Y120.415 E143.99704
G1 X69.665 Y119.947 E144.0335
G1 X69.779 Y119.474 E144.06991
G1 X69.874 Y119 E144.10608
G1 X69.948 Y118.518 E144.14258
G1 X70 Y118.032 E144.17915
G1 X70.031 Y117.547 E144.21552
G1 X70.04 Y117.062 E144.25183
G1 X70.03 Y116.576 E144.2882
G1 X69.997 Y116.089 E144.32473
G1 X69.943 Y115.605 E144.36118
G1 X69.868 Y115.124 E144.39761
G1 X69.772 Y114.647 E144.43402
G1 X69.655 Y114.176 E144.47034
G1 X69.519 Y113.71 E144.50667
G1 X69.361 Y113.248 E144.54321
G1 X69.184 Y112.796 E144.57953
G1 X68.988 Y112.351 E144.61592
G1 X68.772 Y111.916 E144.65227
G1 X68.539 Y111.491 E144.68854
G1 X68.284 Y111.073 E144.72518
G1 X68.014 Y110.671 E144.76142
G1 X67.726 Y110.278 E144.79788
G1 X67.421 Y109.9 E144.83423
G1 X67.1 Y109.534 E144.87066
G1 X66.761 Y109.183 E144.90718
G1 X66.41 Y108.847 E144.94354
G1 X66.044 Y108.528 E144.97987
G1 X65.665 Y108.224 E145.01623
G1 X65.271 Y107.936 E145.05276
G1 X64.867 Y107.667 E145.08908
G1 X64.45 Y107.415 E145.12554
G1 X64.022 Y107.182 E145.16201
G1 X63.587 Y106.967 E145.19832
G1 X63.14 Y106.772 E145.23482
G1 X62.688 Y106.597 E145.27109
G1 X62.227 Y106.44 E145.30753
G1 X61.758 Y106.305 E145.34406
G1 X61.286 Y106.191 E145.3804
G1 X60.81 Y106.096 E145.41672
G1 X60.328 Y106.022 E145.45321
G1 X59.843 Y105.971 E145.48971
G1 X59.36 Y105.94 E145.52593
G1 X58.873 Y105.93 E145.56238
G1 X58.386 Y105.941 E145.59883
G1 X57.9 Y105.974 E145.63529
G1 X57.417 Y106.028 E145.67166
G1 X56.937 Y106.103 E145.70802
G1 X56.461 Y106.198 E145.74434
G1 X55.988 Y106.314 E145.78079
G1 X55.521 Y106.451 E145.81721
G1 X55.06 Y106.609 E145.85368
G1 X54.608 Y106.786 E145.89
G1 X54.163 Y106.981 E145.92636
G1 X53.727 Y107.198 E145.96281
G1 X53.301 Y107.431 E145.99914
G0 F3600 X53.251 Y107.345
G0 X55.509 Y106.413
G0 X56.93 Y106.064
G0 X58.385 Y105.902
G0 X59.846 Y105.932
G0 X61.294 Y106.152
G0 X75.271 Y109.71
G0 X75.341 Y109.78
G1 F1800 X75.341 Y119.079 E146.69504
G1 X84.64 Y119.079 E147.39093
G1 X84.64 Y113.558 E147.8041
G1 X84.64 Y113.422 E147.81427
G1 X84.64 Y113.281 E147.82483
G1 X84.64 Y113.128 E147.83628
G1 X84.64 Y112.963 E147.84862
G1 X84.64 Y112.898 E147.85349
G0 X84.681 Y112.963
G0 X84.81 Y113.128
G0 X84.95 Y113.281
G1 X85.106 Y113.422 E147.86004
G1 X85.213 Y113.505 E147.86916
G1 X85.271 Y113.549 E147.87461
G1 X85.451 Y113.664 E147.89059
G1 X85.639 Y113.759 E147.90636
G1 X85.829 Y113.837 E147.92173
G1 X86.028 Y113.899 E147.93732
G1 X86.236 Y113.945 E147.95327
G1 X86.442 Y113.97 E147.9688
G1 X86.648 Y113.98 E147.98423
G1 X86.859 Y113.97 E148.00004
G1 X87.068 Y113.942 E148.01582
G1 X87.269 Y113.897 E148.03123
G1 X87.467 Y113.835 E148.04676
G1 X87.662 Y113.755 E148.06253
G1 X87.85 Y113.657 E148.0784
G1 X88.026 Y113.544 E148.09405
G1 X88.194 Y113.414 E148.10995
G1 X88.348 Y113.272 E148.12562
G1 X88.486 Y113.12 E148.14099
G1 X88.614 Y112.953 E148.15673
G1 X88.727 Y112.776 E148.17245
G1 X88.823 Y112.589 E148.18818
G1 X88.903 Y112.397 E148.20374
G1 X88.965 Y112.197 E148.21941
G1 X89.011 Y111.989 E148.23536
G1 X89.036 Y111.783 E148.25088
G1 X89.046 Y111.577 E148.26632
G1 X89.036 Y111.366 E148.28213
G1 X89.008 Y111.157 E148.29791
G1 X88.963 Y110.956 E148.31332
G1 X88.901 Y110.759 E148.32878
G1 X88.82 Y110.56 E148.34486
G1 X88.721 Y110.374 E148.36062
G1 X88.609 Y110.198 E148.37624
G1 X88.479 Y110.031 E148.39207
G1 X88.338 Y109.877 E148.4077
G1 X88.183 Y109.737 E148.42333
G1 X88.018 Y109.611 E148.43887
G1 X87.841 Y109.498 E148.45458
G1 X87.654 Y109.402 E148.47031
G1 X87.462 Y109.322 E148.48588
G1 X87.262 Y109.26 E148.50155
G1 X87.056 Y109.214 E148.51734
G1 X86.848 Y109.189 E148.53302
G1 X86.643 Y109.179 E148.54838
G1 X86.412 Y109.189 E148.56568
G1 X86.039 Y109.256 E148.59404
G1 X85.823 Y109.324 E148.61099
G1 X85.623 Y109.406 E148.62717
G1 X85.439 Y109.505 E148.6428
G1 X85.264 Y109.615 E148.65827
G1 X85.099 Y109.744 E148.67394
G1 X84.942 Y109.886 E148.68979
G1 X84.862 Y109.976 E148.6988
G1 X84.803 Y110.043 E148.70548
G1 X84.676 Y110.205 E148.72088
G1 X84.64 Y110.262 E148.72593
G0 X84.64 Y110.205
G0 X84.64 Y110.043
G0 X84.64 Y109.886
G0 X84.64 Y109.78
G1 X75.341 Y109.78 E149.42182
G0 F3600 X75.271 Y109.71
G0 X75.313 Y119.107
G0 X84.867 Y120.815
G0 X84.938 Y120.885
G1 F1800 X84.798 Y121.042 E149.43756
G1 X84.673 Y121.203 E149.45282
G1 X84.557 Y121.385 E149.46897
G1 X84.461 Y121.573 E149.48477
G1 X84.383 Y121.763 E149.50014
G1 X84.322 Y121.959 E149.5155
G1 X84.274 Y122.166 E149.5314
G1 X84.249 Y122.376 E149.54723
G1 X84.239 Y122.582 E149.56266
G1 X84.249 Y122.796 E149.57869
G1 X84.278 Y123.004 E149.59441
G1 X84.323 Y123.204 E149.60975
G1 X84.385 Y123.402 E149.62528
G1 X84.466 Y123.598 E149.64115
G1 X84.566 Y123.786 E149.65708
G1 X84.677 Y123.959 E149.67247
G1 X84.803 Y124.126 E149.68812
G1 X84.947 Y124.281 E149.70395
G1 X85.1 Y124.42 E149.71942
G1 X85.267 Y124.548 E149.73517
G1 X85.448 Y124.663 E149.75122
G1 X85.634 Y124.757 E149.76681
G1 X85.82 Y124.835 E149.78191
G1 X86.021 Y124.899 E149.79769
G1 X86.232 Y124.945 E149.81385
G1 X86.438 Y124.97 E149.82938
G1 X86.643 Y124.98 E149.84474
