; generated by Slic3r 1.2.9 on 2016-11-07 at 19:07:05

; external perimeters extrusion width = 0.20mm
; perimeters extrusion width = 0.20mm
; infill extrusion width = 0.20mm
; solid infill extrusion width = 0.20mm
; top infill extrusion width = 0.20mm
; support material extrusion width = 0.40mm

M107
M190 S55 ; set bed temperature
M104 S210 ; set temperature
G28 ; home all axes
G1 Z5 F5000 ; lift nozzle
M117 Stampa in corso ...
G1 E 3.00000 F50
G1 x 20.00 Y20.00 F300
M109 S210 ; wait for temperature to be reached
G21 ; set units to millimeters
G90 ; use absolute coordinates
M82 ; use absolute distances for extrusion
G92 E0
G1 E-3.00000 F2400.00000
G92 E0
G1 Z0.300 F9000.000
G1 X54.406 Y61.629 F9000.000
G1 E3.00000 F2400.00000
G1 X54.931 Y61.166 E3.02845 F3600.000
G1 X57.114 Y60.283 E3.12406
G1 X58.600 Y60.123 E3.18477
G1 X141.400 Y60.123 E6.54753
G1 X143.720 Y60.520 E6.64314
G1 X145.776 Y61.666 E6.73874 F3600.000
G1 X147.334 Y63.431 E6.83435
G1 X148.217 Y65.614 E6.92995
G1 X148.377 Y67.100 E6.99067
G1 X148.377 Y132.900 E9.66301
G1 X147.980 Y135.220 E9.75861
G1 X146.834 Y137.276 E9.85422
G1 X145.069 Y138.834 E9.94982
G1 X142.886 Y139.717 E10.04543
G1 X141.400 Y139.877 E10.10614
G1 X58.600 Y139.877 E13.46890
G1 X56.280 Y139.480 E13.56451
G1 X54.224 Y138.334 E13.66011
G1 X52.666 Y136.569 E13.75571
G1 X51.783 Y134.386 E13.85132
G1 X51.623 Y132.900 E13.91203
G1 X51.623 Y67.100 E16.58437
G1 X52.020 Y64.780 E16.67998
G1 X53.166 Y62.724 E16.77558
G1 X54.361 Y61.669 E16.84030
G1 X54.622 Y61.884 F9000.000
G1 X55.243 Y61.358 E16.87336 F3600.000
G1 X57.397 Y60.558 E16.96669
G1 X58.600 Y60.449 E17.01573
G1 X141.400 Y60.449 E20.37849
G1 X143.663 Y60.846 E20.47182
G1 X145.657 Y61.989 E20.56515 F3600.000
G1 X147.142 Y63.743 E20.65848
G1 X147.942 Y65.897 E20.75181
G1 X148.051 Y67.100 E20.80086
G1 X148.051 Y132.900 E23.47319
G1 X147.654 Y135.163 E23.56652
G1 X146.511 Y137.157 E23.65986
G1 X144.757 Y138.642 E23.75319
G1 X142.603 Y139.442 E23.84652
G1 X141.400 Y139.551 E23.89556
G1 X58.600 Y139.551 E27.25832
G1 X56.337 Y139.154 E27.35165
G1 X54.343 Y138.011 E27.44498
G1 X52.858 Y136.257 E27.53831
G1 X52.058 Y134.103 E27.63164
G1 X51.949 Y132.900 E27.68069
G1 X51.949 Y67.100 E30.35302
G1 X52.346 Y64.837 E30.44635
G1 X53.489 Y62.843 E30.53968
G1 X54.576 Y61.923 E30.59752
G1 X54.830 Y62.142 F9000.000
G1 X55.553 Y61.556 E30.63530 F3600.000
G1 X58.600 Y60.774 E30.76304
G1 X141.400 Y60.774 E34.12580
G1 X143.605 Y61.171 E34.21680
G1 X145.534 Y62.312 E34.30780 F3600.000
G1 X146.944 Y64.053 E34.39880
G1 X147.726 Y67.100 E34.52654
G1 X147.726 Y132.900 E37.19888
G1 X147.329 Y135.105 E37.28988
G1 X146.188 Y137.034 E37.38088
G1 X144.447 Y138.444 E37.47188
G1 X141.400 Y139.226 E37.59962
G1 X58.600 Y139.226 E40.96238
G1 X56.395 Y138.829 E41.05338
G1 X54.466 Y137.688 E41.14438
G1 X53.056 Y135.947 E41.23538
G1 X52.274 Y132.900 E41.36312
G1 X52.274 Y67.100 E44.03546
G1 X52.671 Y64.895 E44.12646
G1 X53.812 Y62.966 E44.21746
G1 X54.784 Y62.180 E44.26824
G1 X57.007 Y64.318 F9000.000
G1 X57.319 Y64.007 E44.28615 F3600.000
G1 X142.681 Y64.007 E47.75298
G1 X144.493 Y65.819 E47.85706
G1 X144.493 Y134.181 E50.63348 F3600.000
G1 X142.681 Y135.993 E50.73755
G1 X57.319 Y135.993 E54.20439
G1 X55.507 Y134.181 E54.30847
G1 X55.507 Y65.819 E57.08488
G1 X56.965 Y64.361 E57.16862
G1 X57.237 Y64.549 F9000.000
G1 X57.454 Y64.332 E57.18104 F3600.000
G1 X142.546 Y64.332 E60.63693
G1 X144.168 Y65.954 E60.73005 F3600.000
G1 X144.168 Y134.046 E63.49551
G1 X142.546 Y135.668 E63.58863
G1 X57.454 Y135.668 E67.04451
G1 X55.832 Y134.046 E67.13763
G1 X55.832 Y65.954 E69.90309
G1 X57.195 Y64.591 E69.98135
G1 X57.467 Y64.779 F9000.000
G1 X57.588 Y64.658 E69.98830 F3600.000
G1 X142.412 Y64.658 E73.43323
G1 X143.842 Y66.088 E73.51539
G1 X143.842 Y133.912 E76.26990 F3600.000
G1 X142.412 Y135.342 E76.35206
G1 X57.588 Y135.342 E79.79699
G1 X56.158 Y133.912 E79.87915
G1 X56.158 Y66.088 E82.63366
G1 X57.425 Y64.821 E82.70644
G1 X57.698 Y65.009 F9000.000
G1 X57.723 Y64.983 E82.70791 F3600.000
G1 X142.277 Y64.983 E86.14188
G1 X143.517 Y66.223 E86.21309 F3600.000
G1 X143.517 Y133.777 E88.95664
G1 X142.277 Y135.017 E89.02785
G1 X57.723 Y135.017 E92.46182
G1 X56.483 Y133.777 E92.53303
G1 X56.483 Y66.223 E95.27658
G1 X57.655 Y65.052 E95.34388
G1 X57.858 Y65.309 F9000.000
G1 X142.142 Y65.309 E98.76690 F3600.000
G1 X143.191 Y66.358 E98.82716
G1 X143.191 Y133.642 E101.55975 F3600.000
G1 X142.142 Y134.691 E101.62000
G1 X57.858 Y134.691 E105.04302
G1 X56.809 Y133.642 E105.10327
G1 X56.809 Y66.358 E107.83587
G1 X57.816 Y65.352 E107.89369
G1 X57.993 Y65.635 F9000.000
G1 X142.007 Y65.635 E111.30575 F3600.000
G1 X142.865 Y66.493 E111.35505 F3600.000
G1 X142.865 Y133.507 E114.07668
G1 X142.007 Y134.365 E114.12598
G1 X57.993 Y134.365 E117.53804
G1 X57.135 Y133.507 E117.58734
G1 X57.135 Y66.493 E120.30898
G1 X57.951 Y65.677 E120.35584
G1 X58.128 Y65.960 F9000.000
G1 X141.872 Y65.960 E123.75695 F3600.000
G1 X142.540 Y66.628 E123.79529
G1 X142.540 Y133.372 E126.50598 F3600.000
G1 X141.872 Y134.040 E126.54432
G1 X58.128 Y134.040 E129.94543
G1 X57.460 Y133.372 E129.98377
G1 X57.460 Y66.628 E132.69445
G1 X58.086 Y66.003 E132.73036
G1 X58.263 Y66.286 F9000.000
G1 X141.737 Y66.286 E136.12051 F3600.000
G1 X142.214 Y66.763 E136.14790 F3600.000
G1 X142.214 Y133.237 E138.84763
G1 X141.737 Y133.714 E138.87501
G1 X58.263 Y133.714 E142.26516
G1 X57.786 Y133.237 E142.29255
G1 X57.786 Y66.763 E144.99228
G1 X58.220 Y66.328 E145.01723
G1 X58.398 Y66.612 F9000.000
G1 X141.602 Y66.612 E148.39643 F3600.000
G1 X141.888 Y66.898 E148.41286
G1 X141.888 Y133.102 E151.10163 F3600.000
G1 X141.602 Y133.388 E151.11806
G1 X58.398 Y133.388 E154.49726
G1 X58.112 Y133.102 E154.51369
G1 X58.112 Y66.898 E157.20246
G1 X58.355 Y66.654 E157.21646
G1 X58.533 Y66.937 F9000.000
G1 X141.467 Y66.937 E160.58470 F3600.000
G1 X141.563 Y67.033 E160.59018
G1 X141.563 Y132.967 E163.26799
G1 X141.467 Y133.063 E163.27347
G1 X58.533 Y133.063 E166.64171
G1 X58.437 Y132.967 E166.64719
G1 X58.437 Y67.033 E169.32500
G1 X58.490 Y66.980 E169.32804
G1 E166.32804 F2400.00000
G92 E0
G1 X141.205 Y132.705 F9000.000
G1 E3.00000 F2400.00000
G1 X58.795 Y132.705 E6.34692 F3600.000
G1 X58.795 Y67.295 E9.00342
G1 X141.205 Y67.295 E12.35034
G1 X141.205 Y132.645 E15.00441
G1 X140.859 Y132.505 F9000.000
G1 X140.879 Y132.379 F9000.000
G1 X59.121 Y132.379 E18.32488 F3600.000
G1 X59.121 Y67.621 E20.95493
G1 X140.879 Y67.621 E24.27540
G1 X140.879 Y132.319 E26.90302
G1 X140.554 Y132.054 F9000.000
G1 X59.446 Y132.054 E30.19704 F3600.000
G1 X59.446 Y67.946 E32.80064
G1 X140.554 Y67.946 E36.09467
G1 X140.554 Y131.994 E38.69583
G1 E35.69583 F2400.00000
G92 E0
G1 X63.393 Y71.467 F9000.000
G1 E3.00000 F2400.00000
G1 X63.199 Y71.699 E3.01230 F3600.000
G1 X62.971 Y71.890 E3.02440
G1 X62.651 Y72.066 E3.03922
G1 X62.365 Y72.156 E3.05140
G1 X62.000 Y72.196 E3.06631
G1 X61.635 Y72.156 E3.08122
G1 X61.349 Y72.066 E3.09340
G1 X61.029 Y71.890 E3.10822
G1 X60.801 Y71.699 E3.12032
G1 X60.610 Y71.471 E3.13241
G1 X60.433 Y71.149 E3.14732
G1 X60.330 Y70.797 E3.16223
G1 X60.304 Y70.498 E3.17441
G1 X60.344 Y70.135 E3.18924
G1 X60.434 Y69.849 E3.20141
G1 X60.610 Y69.529 E3.21624
G1 X60.801 Y69.301 E3.22833
G1 X61.029 Y69.110 E3.24042
G1 X61.349 Y68.934 E3.25525
G1 X61.635 Y68.844 E3.26742
G1 X61.993 Y68.804 E3.28204 F3600.000
G1 X62.296 Y68.830 E3.29442
G1 X62.649 Y68.933 E3.30934
G1 X62.971 Y69.110 E3.32425
G1 X63.199 Y69.301 E3.33634
G1 X63.390 Y69.529 E3.34843
G1 X63.567 Y69.851 E3.36335
G1 X63.670 Y70.203 E3.37826
G1 X63.696 Y70.500 E3.39035
G1 X63.670 Y70.797 E3.40244
G1 X63.567 Y71.149 E3.41735
G1 X63.422 Y71.414 E3.42962
G1 X63.516 Y71.744 F9000.000
G1 X63.679 Y71.623 F9000.000
G1 X63.431 Y71.930 E3.44566 F3600.000
G1 X63.156 Y72.161 E3.46023
G1 X62.779 Y72.367 E3.47766
G1 X62.432 Y72.476 E3.49244
G1 X62.000 Y72.524 E3.51010
G1 X61.568 Y72.476 E3.52777
G1 X61.221 Y72.367 E3.54255
G1 X60.844 Y72.161 E3.55998
G1 X60.570 Y71.930 E3.57453
G1 X60.339 Y71.656 E3.58908
G1 X60.130 Y71.274 E3.60674
G1 X60.009 Y70.857 E3.62441
G1 X59.977 Y70.494 E3.63919
G1 X60.024 Y70.068 E3.65662
G1 X60.133 Y69.721 E3.67140
G1 X60.339 Y69.344 E3.68883
G1 X60.570 Y69.070 E3.70338
G1 X60.844 Y68.839 E3.71794
G1 X61.221 Y68.633 E3.73536
G1 X61.567 Y68.524 E3.75013
G1 X61.989 Y68.477 E3.76734 F3600.000
G1 X62.356 Y68.508 E3.78234
G1 X62.774 Y68.630 E3.80002
G1 X63.156 Y68.839 E3.81769
G1 X63.430 Y69.070 E3.83224
G1 X63.660 Y69.344 E3.84679
G1 X63.870 Y69.726 E3.86445
G1 X63.991 Y70.143 E3.88211
G1 X64.023 Y70.500 E3.89667
G1 X63.991 Y70.857 E3.91122
G1 X63.870 Y71.274 E3.92887
G1 X63.708 Y71.570 E3.94257
G1 X63.965 Y71.779 F9000.000
G1 X63.662 Y72.161 E3.96236 F3600.000
G1 X63.340 Y72.431 E3.97940
G1 X62.908 Y72.668 E3.99944
G1 X62.500 Y72.797 E4.01683
G1 X62.000 Y72.851 E4.03724
G1 X61.500 Y72.797 E4.05765
G1 X61.092 Y72.668 E4.07504
G1 X60.660 Y72.431 E4.09508
G1 X60.339 Y72.161 E4.11209
G1 X60.069 Y71.840 E4.12910
G1 X59.828 Y71.400 E4.14951
G1 X59.687 Y70.917 E4.16992
G1 X59.650 Y70.491 E4.18731
G1 X59.703 Y70.000 E4.20735
G1 X59.832 Y69.592 E4.22474
G1 X60.069 Y69.160 E4.24477
G1 X60.339 Y68.839 E4.26178
G1 X60.660 Y68.569 E4.27879
G1 X61.092 Y68.332 E4.29883
G1 X61.500 Y68.204 E4.31619
G1 X61.984 Y68.150 E4.33599 F3600.000
G1 X62.416 Y68.187 E4.35360
G1 X62.900 Y68.328 E4.37405
G1 X63.340 Y68.569 E4.39446
G1 X63.661 Y68.839 E4.41147
G1 X63.931 Y69.160 E4.42849
G1 X64.172 Y69.600 E4.44890
G1 X64.313 Y70.083 E4.46931
G1 X64.349 Y70.500 E4.48632
G1 X64.313 Y70.917 E4.50333
G1 X64.172 Y71.399 E4.52372
G1 X63.994 Y71.726 E4.53887
G1 X61.993 Y127.804 F9000.000
G1 X62.296 Y127.830 E4.55125 F3600.000
G1 X62.649 Y127.933 E4.56617
G1 X62.967 Y128.107 E4.58087
G1 X63.201 Y128.302 E4.59326
G1 X63.429 Y128.587 E4.60809
G1 X63.568 Y128.853 E4.62027
G1 X63.670 Y129.203 E4.63509
G1 X63.696 Y129.502 E4.64726
G1 X63.657 Y129.860 E4.66188
G1 X63.566 Y130.151 E4.67426
G1 X63.390 Y130.471 E4.68910
G1 X63.199 Y130.699 E4.70119
G1 X62.971 Y130.890 E4.71328
G1 X62.651 Y131.066 E4.72811
G1 X62.365 Y131.156 E4.74028
G1 X62.000 Y131.196 E4.75520
G1 X61.635 Y131.156 E4.77011
G1 X61.349 Y131.066 E4.78228
G1 X61.033 Y130.893 E4.79690
G1 X60.801 Y130.699 E4.80919
G1 X60.610 Y130.471 E4.82129
G1 X60.433 Y130.149 E4.83620
G1 X60.331 Y129.802 E4.85091
G1 X60.304 Y129.498 E4.86329
G1 X60.344 Y129.135 E4.87812
G1 X60.434 Y128.849 E4.89030
G1 X60.610 Y128.529 E4.90512
G1 X60.802 Y128.299 E4.91730
G1 X61.087 Y128.071 E4.93213
G1 X61.351 Y127.933 E4.94422
G1 X61.635 Y127.844 E4.95631
G1 X61.933 Y127.811 E4.96849 F3600.000
G1 X62.150 Y127.543 F9000.000
G1 X61.957 Y127.481 F9000.000
G1 X62.356 Y127.508 E4.98476 F3600.000
G1 X62.774 Y127.630 E5.00243
G1 X63.151 Y127.836 E5.01987
G1 X63.434 Y128.073 E5.03487
G1 X63.703 Y128.408 E5.05232
G1 X63.871 Y128.731 E5.06710
G1 X63.991 Y129.143 E5.08453
G1 X64.023 Y129.505 E5.09930
G1 X63.978 Y129.927 E5.11651
G1 X63.867 Y130.279 E5.13150
G1 X63.661 Y130.656 E5.14896
G1 X63.430 Y130.930 E5.16351
G1 X63.156 Y131.161 E5.17806
G1 X62.779 Y131.367 E5.19549
G1 X62.432 Y131.476 E5.21027
G1 X62.000 Y131.524 E5.22793
G1 X61.568 Y131.476 E5.24560
G1 X61.221 Y131.367 E5.26037
G1 X60.849 Y131.164 E5.27758
G1 X60.570 Y130.931 E5.29234
G1 X60.339 Y130.656 E5.30691
G1 X60.130 Y130.275 E5.32456
G1 X60.010 Y129.863 E5.34200
G1 X59.977 Y129.495 E5.35700
G1 X60.024 Y129.068 E5.37445
G1 X60.133 Y128.721 E5.38923
G1 X60.339 Y128.344 E5.40666
G1 X60.573 Y128.065 E5.42145
G1 X60.908 Y127.797 E5.43888
G1 X61.226 Y127.631 E5.45343
G1 X61.567 Y127.524 E5.46796
G1 X61.897 Y127.487 E5.48144 F3600.000
G1 X61.921 Y127.157 F9000.000
G1 X62.416 Y127.187 E5.50160 F3600.000
G1 X62.899 Y127.328 E5.52203
G1 X63.335 Y127.566 E5.54221
G1 X63.668 Y127.844 E5.55982
G1 X63.977 Y128.229 E5.57989
G1 X64.175 Y128.609 E5.59727
G1 X64.313 Y129.083 E5.61731
G1 X64.350 Y129.509 E5.63468
G1 X64.298 Y129.993 E5.65448
G1 X64.168 Y130.407 E5.67209
G1 X63.931 Y130.840 E5.69216
G1 X63.661 Y131.161 E5.70917
G1 X63.340 Y131.431 E5.72618
G1 X62.908 Y131.668 E5.74621
G1 X62.500 Y131.797 E5.76360
G1 X62.000 Y131.851 E5.78401
G1 X61.500 Y131.797 E5.80443
G1 X61.093 Y131.668 E5.82179
G1 X60.665 Y131.434 E5.84159
G1 X60.339 Y131.162 E5.85883
G1 X60.069 Y130.840 E5.87587
G1 X59.828 Y130.400 E5.89626
G1 X59.688 Y129.923 E5.91644
G1 X59.650 Y129.492 E5.93405
G1 X59.703 Y129.000 E5.95412
G1 X59.832 Y128.592 E5.97151
G1 X60.069 Y128.160 E5.99154
G1 X60.345 Y127.832 E6.00893
G1 X60.729 Y127.523 E6.02897
G1 X61.101 Y127.329 E6.04598
G1 X61.500 Y127.204 E6.06296
G1 X61.861 Y127.164 E6.07773 F3600.000
G1 X63.405 Y123.896 F9000.000
G1 X63.405 Y102.506 E6.94645 F3600.000
G1 X79.795 Y102.506 E7.61209
G1 X79.795 Y123.896 E8.48081
G1 X63.465 Y123.896 E9.14402
G1 X63.005 Y123.896 F9000.000
G1 X63.079 Y124.222 F9000.000
G1 X63.079 Y102.180 E10.03918 F3600.000
G1 X80.121 Y102.180 E10.73128
G1 X80.121 Y124.222 E11.62644
G1 X63.139 Y124.222 E12.31610
G1 X62.754 Y124.547 F9000.000
G1 X62.754 Y101.855 E13.23771 F3600.000
G1 X80.446 Y101.855 E13.95626
G1 X80.446 Y124.547 E14.87787
G1 X62.814 Y124.547 E15.59397
G1 E12.59397 F2400.00000
G92 E0
G1 X70.655 Y90.646 F9000.000
G1 E3.00000 F2400.00000
G1 X70.655 Y85.756 E3.19860 F3600.000
G1 X75.545 Y85.756 E3.39720
G1 X75.545 Y90.646 E3.59579
G1 X70.715 Y90.646 E3.79195
G1 X70.255 Y90.646 F9000.000
G1 X70.329 Y90.972 F9000.000
G1 X70.329 Y85.430 E4.01700 F3600.000
G1 X75.871 Y85.430 E4.24205
G1 X75.871 Y90.972 E4.46709
G1 X70.389 Y90.972 E4.68970
G1 X70.004 Y91.297 F9000.000
G1 X70.004 Y85.105 E4.94120 F3600.000
G1 X76.196 Y85.105 E5.19270
G1 X76.196 Y91.297 E5.44419
G1 X70.064 Y91.297 E5.69325
G1 X87.425 Y103.642 F9000.000
G1 X88.107 Y102.829 E5.73637 F3600.000
G1 X88.477 Y102.443 E5.75807
G1 X88.863 Y102.073 E5.77976
G1 X89.676 Y101.391 E5.82288
G1 X90.548 Y100.781 E5.86609
G1 X91.469 Y100.249 E5.90930
G1 X92.467 Y99.784 E5.95403
G1 X93.431 Y99.436 E5.99564
G1 X93.946 Y99.286 E6.01741
G1 X94.982 Y99.056 E6.06053
G1 X96.037 Y98.917 E6.10374
G1 X97.058 Y98.872 E6.14525 F3600.000
G1 X97.632 Y98.882 E6.16855
G1 X98.165 Y98.917 E6.19025
G1 X99.218 Y99.056 E6.23337
G1 X100.216 Y99.276 E6.27489
G1 X100.769 Y99.436 E6.29827
G1 X101.767 Y99.799 E6.34140
G1 X102.731 Y100.249 E6.38461
G1 X103.651 Y100.779 E6.42773
G1 X104.096 Y101.077 E6.44951
G1 X104.906 Y101.698 E6.49093
G1 X105.339 Y102.075 E6.51423
G1 X105.723 Y102.443 E6.53585
G1 X106.093 Y102.828 E6.55754
G1 X106.749 Y103.609 E6.59897
G1 X107.089 Y104.071 E6.62226
G1 X107.386 Y104.515 E6.64397
G1 X107.917 Y105.435 E6.68709
G1 X108.367 Y106.399 E6.73029
G1 X108.717 Y107.359 E6.77181
G1 X108.880 Y107.911 E6.79519
G1 X109.110 Y108.948 E6.83832
G1 X109.249 Y110.003 E6.88153
G1 X109.295 Y111.066 E6.92474
G1 X109.249 Y112.129 E6.96794
G1 X109.110 Y113.184 E7.01115
G1 X108.880 Y114.220 E7.05427
G1 X108.730 Y114.735 E7.07606
G1 X108.367 Y115.733 E7.11918
G1 X107.918 Y116.695 E7.16230
G1 X107.660 Y117.165 E7.18408
G1 X107.113 Y118.026 E7.22551
G1 X106.775 Y118.489 E7.24880
G1 X106.441 Y118.906 E7.27050
G1 X105.723 Y119.689 E7.31363
G1 X104.939 Y120.408 E7.35683
G1 X104.097 Y121.054 E7.39996
G1 X103.651 Y121.352 E7.42174
G1 X102.731 Y121.883 E7.46486
G1 X101.767 Y122.333 E7.50807
G1 X100.769 Y122.696 E7.55119
G1 X100.254 Y122.846 E7.57297
G1 X99.259 Y123.068 E7.61440
G1 X98.692 Y123.157 E7.63769
G1 X98.161 Y123.215 E7.65939
G1 X97.100 Y123.261 E7.70252
G1 X96.037 Y123.215 E7.74572
G1 X94.982 Y123.076 E7.78893
G1 X93.946 Y122.846 E7.83205
G1 X93.431 Y122.696 E7.85384
G1 X92.433 Y122.333 E7.89696
G1 X91.471 Y121.884 E7.94008
G1 X91.001 Y121.626 E7.96186
G1 X90.140 Y121.079 E8.00328
G1 X89.676 Y120.741 E8.02658
G1 X89.260 Y120.406 E8.04828
G1 X88.478 Y119.691 E8.09132
G1 X88.107 Y119.303 E8.11310
G1 X87.425 Y118.490 E8.15622
G1 X86.815 Y117.618 E8.19943
G1 X86.283 Y116.697 E8.24264
G1 X85.833 Y115.733 E8.28585
G1 X85.469 Y114.733 E8.32905
G1 X85.194 Y113.705 E8.37226
G1 X85.010 Y112.660 E8.41538
G1 X84.951 Y112.127 E8.43716
G1 X84.905 Y111.066 E8.48029
G1 X84.951 Y110.005 E8.52341
G1 X85.010 Y109.472 E8.54519
G1 X85.194 Y108.426 E8.58831
G1 X85.469 Y107.399 E8.63152
G1 X85.833 Y106.399 E8.67473
