;Generated with Cura_SteamEngine 15.01
;M109 T0 S200.000000
;T0

;Basic settings: Layer height: 0.2 Walls: 0.8 Fill: 25
;Print time: #P_TIME#
;Filament used: #F_AMNT#m #F_WGHT#g
;Filament cost: #F_COST#
;M190 S45                          ;Uncomment to add your own bed temperature line
;M109 T0 S210                        ;Uncomment to add your own temperature line
M190 S45
M104 T0 S210
T0
;#START
G21        							;metric values
G90        							;absolute positioning
M82        							;set extruder to absolute mode
M107       							;start with the fan off
T0								;set initial extruder
G28 X0 Y0  							;move X/Y to min endstops
G28 Z0     							;move Z to min endstops
G1 Z15.0 F12000                         	     		;move the platform down 15mm
G92 E0             		         			;zero the extruded length
G1 F300 E30             	                 		;extrude 30mm of feed stock
G92 E0                  	                 		;zero the extruded length again
G1 F6000 E-1			         			;retract a bit the filament to allow cut
G92 E0								;zero the extruded length
G4 S3								;wait 3 seconds for extruded filament to cool down
G1 Y10 F7000				        		;exit from cleaning bay to cut the filament
G1 F12000
;Put printing message on LCD screen
M117 Printing...
;Layer count: 35
;LAYER:0
M107
G0 F9000 X81.050 Y85.000 Z0.300
;TYPE:SKIRT
G1 F1800 X144.949 Y85.000 E3.18793
G1 X144.949 Y106.500 E4.26057
G1 X98.949 Y106.500 E6.55552
G1 X98.949 Y122.000 E7.32882
G1 X144.949 Y122.000 E9.62377
G1 X144.949 Y141.000 E10.57168
G1 X81.050 Y141.000 E13.75962
G1 X81.050 Y85.000 E16.55347
G0 F9000 X81.450 Y85.400
G1 F1800 X144.549 Y85.400 E19.70149
G1 X144.549 Y106.100 E20.73422
G1 X98.549 Y106.100 E23.02917
G1 X98.549 Y122.400 E23.84238
G1 X144.549 Y122.400 E26.13733
G1 X144.549 Y140.600 E27.04533
G1 X81.450 Y140.600 E30.19335
G1 X81.450 Y85.400 E32.94729
G0 F9000 X81.850 Y85.800
G1 F1800 X144.149 Y85.800 E36.05540
G1 X144.149 Y105.700 E37.04821
G1 X98.149 Y105.700 E39.34316
G1 X98.149 Y122.800 E40.19629
G1 X144.149 Y122.800 E42.49124
G1 X144.149 Y140.200 E43.35933
G1 X81.850 Y140.200 E46.46744
G1 X81.850 Y85.800 E49.18146
G1 F4800 E48.68146
G0 F9000 X85.650 Y89.600
;TYPE:WALL-INNER
G1 F4800 E49.18146
G1 F1800 X140.349 Y89.600 E51.91041
G1 X140.349 Y101.900 E52.52406
G1 X94.349 Y101.900 E54.81901
G1 X94.349 Y126.600 E56.05129
G1 X140.349 Y126.600 E58.34624
G1 X140.349 Y136.400 E58.83517
G1 X85.650 Y136.400 E61.56411
G1 X85.650 Y89.600 E63.89897
G0 F9000 X87.385 Y91.985
G1 F1800 X87.309 Y92.042 E63.90371
G1 X86.933 Y92.438 E63.93096
G1 X86.709 Y92.869 E63.95519
G1 X86.612 Y93.265 E63.97553
G1 X86.597 Y93.515 E63.98802
G1 X86.636 Y93.874 E64.00604
G1 X86.772 Y94.281 E64.02745
G1 X86.846 Y94.424 E64.03548
G1 X86.990 Y94.638 E64.04835
G1 X87.136 Y94.804 E64.05938
G1 X87.385 Y95.013 E64.07560
G1 X87.740 Y95.208 E64.09581
G1 X88.047 Y95.306 E64.11188
G1 X88.146 Y95.326 E64.11692
G1 X88.450 Y95.352 E64.13214
G1 X88.756 Y95.326 E64.14747
G1 X89.085 Y95.236 E64.16448
G1 X89.373 Y95.102 E64.18033
G1 X89.596 Y94.952 E64.19374
G1 X89.851 Y94.707 E64.21138
G1 X90.011 Y94.491 E64.22479
G1 X90.160 Y94.204 E64.24092
G1 X90.236 Y93.978 E64.25282
G1 X90.275 Y93.804 E64.26172
G1 X90.301 Y93.499 E64.27699
G1 X90.275 Y93.193 E64.29231
G1 X90.188 Y92.869 E64.30905
G1 X89.965 Y92.438 E64.33326
G1 X89.898 Y92.349 E64.33881
G1 X89.659 Y92.099 E64.35607
G1 X89.440 Y91.937 E64.36966
G1 X89.157 Y91.791 E64.38555
G1 X89.007 Y91.735 E64.39354
G1 X88.752 Y91.673 E64.40663
G1 X88.448 Y91.648 E64.42185
G1 X88.145 Y91.673 E64.43701
G1 X87.665 Y91.824 E64.46212
G1 X87.385 Y91.985 E64.47823
G0 F9000 X86.613 Y93.266
G0 X87.136 Y94.803
G0 X88.448 Y130.648
G1 F1800 X88.145 Y130.673 E64.49340
G1 X87.665 Y130.824 E64.51850
G1 X87.385 Y130.985 E64.53462
G1 X87.309 Y131.042 E64.53936
G1 X87.037 Y131.303 E64.55817
G1 X86.808 Y131.645 E64.57870
G1 X86.662 Y132.016 E64.59859
G1 X86.612 Y132.265 E64.61126
G1 X86.597 Y132.515 E64.62376
G1 X86.636 Y132.874 E64.64177
G1 X86.772 Y133.281 E64.66318
G1 X86.988 Y133.635 E64.68387
G1 X87.136 Y133.804 E64.69508
G1 X87.385 Y134.013 E64.71130
G1 X87.740 Y134.208 E64.73150
G1 X88.047 Y134.306 E64.74758
G1 X88.146 Y134.326 E64.75262
G1 X88.450 Y134.352 E64.76784
G1 X88.756 Y134.326 E64.78316
G1 X89.085 Y134.236 E64.80018
G1 X89.373 Y134.102 E64.81603
G1 X89.596 Y133.952 E64.82944
G1 X89.851 Y133.707 E64.84708
G1 X90.124 Y133.285 E64.87215
G1 X90.255 Y132.901 E64.89240
G1 X90.275 Y132.802 E64.89743
G1 X90.301 Y132.499 E64.91261
G1 X90.275 Y132.193 E64.92793
G1 X90.188 Y131.869 E64.94467
G1 X89.965 Y131.439 E64.96883
G1 X89.900 Y131.351 E64.97429
G1 X89.659 Y131.099 E64.99169
G1 X89.440 Y130.937 E65.00528
G1 X89.157 Y130.791 E65.02116
G1 X89.007 Y130.735 E65.02915
G1 X88.752 Y130.673 E65.04224
G1 X88.448 Y130.648 E65.05746
G0 F9000 X134.419 Y130.802
G1 F1800 X134.703 Y131.600 E65.09972
G1 X134.833 Y131.600 E65.10621
G1 X134.662 Y132.016 E65.12865
G1 X134.612 Y132.265 E65.14132
G1 X134.597 Y132.515 E65.15381
G1 X134.636 Y132.874 E65.17183
G1 X134.772 Y133.281 E65.19324
G1 X134.988 Y133.635 E65.21393
G1 X135.136 Y133.804 E65.22513
G1 X135.385 Y134.013 E65.24135
G1 X135.740 Y134.208 E65.26156
G1 X136.047 Y134.306 E65.27764
G1 X136.146 Y134.326 E65.28267
G1 X136.450 Y134.352 E65.29790
G1 X136.756 Y134.326 E65.31322
G1 X137.230 Y134.176 E65.33802
G1 X137.373 Y134.102 E65.34606
G1 X137.596 Y133.952 E65.35946
G1 X137.851 Y133.707 E65.37711
G1 X138.124 Y133.285 E65.40218
G1 X138.255 Y132.901 E65.42242
G1 X138.275 Y132.802 E65.42746
G1 X138.301 Y132.499 E65.44263
G1 X138.275 Y132.193 E65.45796
G1 X138.188 Y131.869 E65.47469
G1 X138.087 Y131.640 E65.48718
G1 X138.064 Y131.600 E65.48948
G1 X138.211 Y131.600 E65.49682
G1 X138.477 Y130.764 E65.54058
G1 X137.716 Y130.225 E65.58711
G1 X137.225 Y130.017 E65.61371
G1 X136.880 Y129.935 E65.63140
G1 X136.432 Y129.899 E65.65383
G1 X136.015 Y129.934 E65.67470
G1 X135.668 Y130.016 E65.69249
G1 X135.185 Y130.225 E65.71875
G1 X134.901 Y130.409 E65.73563
G1 X134.419 Y130.802 E65.76666
G0 F9000 X94.408 Y126.541
G0 X94.408 Y101.959
G0 X136.450 Y95.352
G1 F1800 X136.756 Y95.326 E65.78198
G1 X137.230 Y95.176 E65.80678
G1 X137.373 Y95.102 E65.81482
G1 X137.596 Y94.952 E65.82822
G1 X137.851 Y94.707 E65.84587
G1 X138.011 Y94.491 E65.85928
G1 X138.160 Y94.204 E65.87541
G1 X138.236 Y93.978 E65.88731
G1 X138.275 Y93.804 E65.89620
G1 X138.301 Y93.499 E65.91147
G1 X138.275 Y93.193 E65.92680
G1 X138.188 Y92.869 E65.94353
G1 X137.965 Y92.438 E65.96774
G1 X137.898 Y92.349 E65.97330
G1 X137.659 Y92.099 E65.99056
G1 X137.440 Y91.937 E66.00415
G1 X137.084 Y91.762 E66.02394
G1 X136.752 Y91.673 E66.04109
G1 X136.448 Y91.648 E66.05630
G1 X136.145 Y91.673 E66.07147
G1 X135.667 Y91.823 E66.09647
G1 X135.385 Y91.985 E66.11269
G1 X135.309 Y92.042 E66.11743
G1 X134.933 Y92.438 E66.14467
G1 X134.709 Y92.869 E66.16891
G1 X134.612 Y93.265 E66.18925
G1 X134.597 Y93.515 E66.20174
G1 X134.636 Y93.874 E66.21976
G1 X134.772 Y94.281 E66.24117
G1 X134.846 Y94.424 E66.24920
G1 X134.990 Y94.638 E66.26207
G1 X135.136 Y94.804 E66.27310
G1 X135.385 Y95.013 E66.28932
G1 X135.740 Y95.208 E66.30952
G1 X136.047 Y95.306 E66.32560
G1 X136.146 Y95.326 E66.33064
G1 X136.450 Y95.352 E66.34586
G0 F9000 X136.203 Y94.929
;TYPE:WALL-OUTER
G1 F1800 X136.450 Y94.951 E66.35824
G1 X136.824 Y94.900 E66.37707
G1 X137.061 Y94.813 E66.38966
G1 X137.118 Y94.786 E66.39281
G1 X137.339 Y94.645 E66.40589
G1 X137.554 Y94.438 E66.42078
G1 X137.734 Y94.170 E66.43688
G1 X137.789 Y94.053 E66.44333
G1 X137.878 Y93.746 E66.45928
G1 X137.900 Y93.499 E66.47165
G1 X137.849 Y93.124 E66.49053
G1 X137.704 Y92.775 E66.50939
G1 X137.593 Y92.608 E66.51939
G1 X137.388 Y92.394 E66.53418
G1 X137.174 Y92.244 E66.54722
G1 X137.118 Y92.213 E66.55041
G1 X136.763 Y92.084 E66.56925
G1 X136.448 Y92.049 E66.58506
G1 X136.073 Y92.099 E66.60394
G1 X135.670 Y92.276 E66.62590
G1 X135.424 Y92.474 E66.64165
G1 X135.298 Y92.616 E66.65112
G1 X135.109 Y92.944 E66.67001
G1 X135.010 Y93.312 E66.68902
G1 X134.998 Y93.506 E66.69872
G1 X135.031 Y93.805 E66.71373
G1 X135.135 Y94.112 E66.72990
G1 X135.162 Y94.169 E66.73305
G1 X135.301 Y94.386 E66.74590
G1 X135.423 Y94.524 E66.75509
G1 X135.616 Y94.686 E66.76766
G1 X135.893 Y94.839 E66.78345
G1 X136.203 Y94.929 E66.79956
G0 F9000 X136.176 Y95.227
G0 X137.510 Y95.014
G0 X138.273 Y93.804
G0 X140.449 Y89.410
G0 X140.749 Y89.200
G1 F1800 X140.749 Y102.300 E67.45312
G1 X94.749 Y102.300 E69.74807
G1 X94.749 Y126.200 E70.94044
G1 X140.749 Y126.200 E73.23539
G1 X140.749 Y136.800 E73.76423
G1 X85.250 Y136.800 E76.53308
G1 X85.250 Y89.200 E78.90786
G1 X140.749 Y89.200 E81.67671
G0 F9000 X140.449 Y89.410
G0 X94.408 Y101.959
G0 X94.408 Y126.541
G0 X136.674 Y130.011
G0 X136.635 Y130.308
G1 F1800 X136.441 Y130.300 E81.68640
G1 X136.078 Y130.330 E81.70457
G1 X135.795 Y130.397 E81.71908
G1 X135.374 Y130.579 E81.74196
G1 X135.137 Y130.733 E81.75607
G1 X134.890 Y130.934 E81.77195
G1 X134.985 Y131.200 E81.78604
G1 X135.807 Y131.200 E81.82705
G1 X135.562 Y131.353 E81.84147
G1 X135.298 Y131.617 E81.86009
G1 X135.109 Y131.944 E81.87894
G1 X135.010 Y132.312 E81.89795
G1 X134.998 Y132.506 E81.90764
G1 X135.031 Y132.805 E81.92265
G1 X135.135 Y133.112 E81.93882
G1 X135.162 Y133.169 E81.94197
G1 X135.301 Y133.385 E81.95479
G1 X135.515 Y133.609 E81.97024
G1 X135.616 Y133.686 E81.97658
G1 X135.893 Y133.839 E81.99236
G1 X136.203 Y133.929 E82.00847
G1 X136.450 Y133.951 E82.02084
G1 X136.824 Y133.900 E82.03967
G1 X137.061 Y133.813 E82.05227
G1 X137.118 Y133.786 E82.05541
G1 X137.339 Y133.645 E82.06849
G1 X137.554 Y133.438 E82.08338
G1 X137.636 Y133.332 E82.09007
G1 X137.763 Y133.114 E82.10266
G1 X137.864 Y132.814 E82.11845
G1 X137.900 Y132.499 E82.13427
G1 X137.849 Y132.124 E82.15315
G1 X137.672 Y131.721 E82.17511
G1 X137.593 Y131.609 E82.18194
G1 X137.388 Y131.394 E82.19677
G1 X137.174 Y131.244 E82.20980
G1 X137.091 Y131.200 E82.21449
G1 X137.918 Y131.200 E82.25575
G1 X138.007 Y130.921 E82.27036
G1 X137.520 Y130.576 E82.30014
G1 X137.096 Y130.396 E82.32312
G1 X136.818 Y130.330 E82.33737
G1 X136.635 Y130.308 E82.34657
G0 F9000 X136.674 Y130.011
G0 X90.198 Y132.526
G0 X89.900 Y132.499
G1 F1800 X89.849 Y132.124 E82.36545
G1 X89.672 Y131.721 E82.38741
G1 X89.593 Y131.609 E82.39425
G1 X89.388 Y131.394 E82.40907
G1 X89.174 Y131.244 E82.42210
G1 X89.118 Y131.213 E82.42530
G1 X88.886 Y131.116 E82.43784
G1 X88.695 Y131.070 E82.44764
G1 X88.448 Y131.049 E82.46001
G1 X88.073 Y131.099 E82.47889
G1 X87.780 Y131.214 E82.49459
G1 X87.562 Y131.353 E82.50749
G1 X87.298 Y131.617 E82.52612
G1 X87.109 Y131.944 E82.54496
G1 X87.010 Y132.312 E82.56397
G1 X86.998 Y132.506 E82.57367
G1 X87.031 Y132.805 E82.58868
G1 X87.135 Y133.112 E82.60485
G1 X87.162 Y133.169 E82.60799
G1 X87.301 Y133.385 E82.62081
G1 X87.515 Y133.609 E82.63626
G1 X87.616 Y133.686 E82.64260
G1 X87.893 Y133.839 E82.65839
G1 X88.203 Y133.929 E82.67449
G1 X88.450 Y133.951 E82.68686
G1 X88.823 Y133.900 E82.70565
G1 X88.946 Y133.861 E82.71208
G1 X89.118 Y133.786 E82.72145
G1 X89.339 Y133.645 E82.73452
G1 X89.554 Y133.438 E82.74941
G1 X89.636 Y133.332 E82.75610
G1 X89.763 Y133.114 E82.76869
G1 X89.864 Y132.814 E82.78448
G1 X89.900 Y132.499 E82.80030
G0 F9000 X90.198 Y132.526
G0 X88.424 Y95.249
G0 X88.450 Y94.951
G1 F1800 X88.823 Y94.900 E82.81908
G1 X88.946 Y94.861 E82.82552
G1 X89.118 Y94.786 E82.83488
G1 X89.339 Y94.645 E82.84796
G1 X89.554 Y94.438 E82.86285
G1 X89.734 Y94.170 E82.87895
G1 X89.789 Y94.053 E82.88540
G1 X89.878 Y93.746 E82.90135
G1 X89.900 Y93.499 E82.91372
G1 X89.849 Y93.124 E82.93260
G1 X89.704 Y92.775 E82.95146
G1 X89.593 Y92.608 E82.96146
G1 X89.388 Y92.394 E82.97625
G1 X89.174 Y92.244 E82.98928
G1 X89.118 Y92.213 E82.99248
G1 X88.886 Y92.116 E83.00502
G1 X88.695 Y92.070 E83.01482
G1 X88.448 Y92.049 E83.02719
G1 X88.073 Y92.099 E83.04607
G1 X87.780 Y92.214 E83.06177
G1 X87.562 Y92.353 E83.07467
G1 X87.340 Y92.565 E83.08998
G1 X87.298 Y92.616 E83.09328
G1 X87.109 Y92.944 E83.11217
G1 X87.010 Y93.312 E83.13118
G1 X86.998 Y93.506 E83.14088
G1 X87.031 Y93.805 E83.15588
G1 X87.135 Y94.112 E83.17205
G1 X87.162 Y94.169 E83.17520
G1 X87.301 Y94.386 E83.18806
G1 X87.423 Y94.524 E83.19725
G1 X87.616 Y94.686 E83.20982
G1 X87.893 Y94.839 E83.22561
G1 X88.203 Y94.929 E83.24171
G1 X88.450 Y94.951 E83.25408
G0 F9000 X88.418 Y95.489
;TYPE:SKIN
G1 F1800 X94.688 Y101.759 E83.69646
G0 F9000 X94.209 Y101.846
G1 F1800 X87.708 Y95.345 E84.15515
G0 F9000 X88.920 Y95.425
G1 F1800 X95.254 Y101.759 E84.60204
G0 F9000 X95.820 Y101.759
G1 F1800 X89.334 Y95.274 E85.05963
G0 F9000 X89.685 Y95.059
G1 F1800 X96.385 Y101.759 E85.53235
G0 F9000 X96.951 Y101.759
G1 F1800 X89.970 Y94.779 E86.02486
G0 F9000 X90.195 Y94.438
G1 F1800 X97.517 Y101.759 E86.54143
G0 F9000 X98.082 Y101.759
G1 F1800 X90.361 Y94.038 E87.08619
G0 F9000 X90.436 Y93.548
G1 F1800 X98.648 Y101.759 E87.66556
G0 F9000 X99.214 Y101.759
G1 F1800 X90.335 Y92.881 E88.29198
G1 F4800 E87.79198
G0 F9000 X89.057 Y91.602
G1 F4800 E88.29198
G1 F1800 X87.194 Y89.740 E88.42339
G0 F9000 X86.629 Y89.740
G1 F1800 X88.398 Y91.510 E88.54824
G0 F9000 X87.919 Y91.596
G1 F1800 X86.063 Y89.740 E88.67919
G0 F9000 X85.789 Y90.032
G1 F1800 X87.508 Y91.751 E88.80048
G0 F9000 X87.174 Y91.982
G1 F1800 X85.789 Y90.598 E88.89816
G0 F9000 X85.789 Y91.163
G1 F1800 X86.898 Y92.272 E88.97641
G0 F9000 X86.680 Y92.620
G1 F1800 X85.789 Y91.729 E89.03927
G0 F9000 X85.789 Y92.295
G1 F1800 X86.524 Y93.029 E89.09110
G0 F9000 X86.457 Y93.528
G1 F1800 X85.789 Y92.860 E89.13823
G0 F9000 X85.789 Y93.426
G1 F1800 X86.615 Y94.252 E89.19651
G0 F9000 X85.789 Y93.992
G1 F1800 X94.209 Y102.411 E89.79055
G0 F9000 X94.209 Y102.977
G1 F1800 X85.789 Y94.557 E90.38462
G0 F9000 X85.789 Y95.123
G1 F1800 X94.209 Y103.543 E90.97870
G0 F9000 X94.209 Y104.108
G1 F1800 X85.789 Y95.689 E91.57274
G0 F9000 X85.789 Y96.254
G1 F1800 X94.209 Y104.674 E92.16682
G0 F9000 X94.209 Y105.240
G1 F1800 X85.789 Y96.820 E92.76089
G0 F9000 X85.789 Y97.386
G1 F1800 X94.209 Y105.805 E93.35493
G0 F9000 X94.209 Y106.371
G1 F1800 X85.789 Y97.951 E93.94901
G0 F9000 X85.789 Y98.517
G1 F1800 X94.209 Y106.937 E94.54309
G0 F9000 X94.209 Y107.502
G1 F1800 X85.789 Y99.083 E95.13713
G0 F9000 X85.789 Y99.649
G1 F1800 X94.209 Y108.068 E95.73117
G0 F9000 X94.209 Y108.634
G1 F1800 X85.789 Y100.214 E96.32525
G0 F9000 X85.789 Y100.780
G1 F1800 X94.209 Y109.199 E96.91929
G0 F9000 X94.209 Y109.765
G1 F1800 X85.789 Y101.346 E97.51333
G0 F9000 X85.789 Y101.911
G1 F1800 X94.209 Y110.331 E98.10741
G0 F9000 X94.209 Y110.896
G1 F1800 X85.789 Y102.477 E98.70145
G0 F9000 X85.789 Y103.043
G1 F1800 X94.209 Y111.462 E99.29549
G0 F9000 X94.209 Y112.028
G1 F1800 X85.789 Y103.608 E99.88956
G0 F9000 X85.789 Y104.174
G1 F1800 X94.209 Y112.594 E100.48364
G0 F9000 X94.209 Y113.159
G1 F1800 X85.789 Y104.740 E101.07768
G0 F9000 X85.789 Y105.305
G1 F1800 X94.209 Y113.725 E101.67176
G0 F9000 X94.209 Y114.291
G1 F1800 X85.789 Y105.871 E102.26583
G0 F9000 X85.789 Y106.437
G1 F1800 X94.209 Y114.856 E102.85988
G0 F9000 X94.209 Y115.422
G1 F1800 X85.789 Y107.002 E103.45395
G0 F9000 X85.789 Y107.568
G1 F1800 X94.209 Y115.988 E104.04803
G0 F9000 X94.209 Y116.553
G1 F1800 X85.789 Y108.134 E104.64207
G0 F9000 X85.789 Y108.699
G1 F1800 X94.209 Y117.119 E105.23615
G0 F9000 X94.209 Y117.685
G1 F1800 X85.789 Y109.265 E105.83022
G0 F9000 X85.789 Y109.831
G1 F1800 X94.209 Y118.250 E106.42426
G0 F9000 X94.209 Y118.816
G1 F1800 X85.789 Y110.397 E107.01831
G0 F9000 X85.789 Y110.962
G1 F1800 X94.209 Y119.382 E107.61238
G0 F9000 X94.209 Y119.947
G1 F1800 X85.789 Y111.528 E108.20642
G0 F9000 X85.789 Y112.094
G1 F1800 X94.209 Y120.513 E108.80046
G0 F9000 X94.209 Y121.079
G1 F1800 X85.789 Y112.659 E109.39454
G0 F9000 X85.789 Y113.225
G1 F1800 X94.209 Y121.644 E109.98858
G0 F9000 X94.209 Y122.210
G1 F1800 X85.789 Y113.791 E110.58262
G0 F9000 X85.789 Y114.356
G1 F1800 X94.209 Y122.776 E111.17670
G0 F9000 X94.209 Y123.342
G1 F1800 X85.789 Y114.922 E111.77078
G0 F9000 X85.789 Y115.488
G1 F1800 X94.209 Y123.907 E112.36482
G0 F9000 X94.209 Y124.473
G1 F1800 X85.789 Y116.053 E112.95889
G0 F9000 X85.789 Y116.619
G1 F1800 X94.209 Y125.039 E113.55297
