; generated by Slic3r 1.2.9 on 2016-11-09 at 11:36:08

; external perimeters extrusion width = 0.40mm
; perimeters extrusion width = 0.40mm
; infill extrusion width = 0.40mm
; solid infill extrusion width = 0.40mm
; top infill extrusion width = 0.40mm
; support material extrusion width = 0.18mm

M107
M104 S210 ; set temperature
G28 ; home all axes
G1 Z5 F5000 ; lift nozzle

M109 S210 ; wait for temperature to be reached
G21 ; set units to millimeters
G90 ; use absolute coordinates
M82 ; use absolute distances for extrusion
G92 E0
G1 E-4.00000 F3600.00000
G92 E0
G1 Z0.300 F7800.000
G1 X54.662 Y61.005 F7800.000
G1 E4.00000 F3600.00000
G1 X56.867 Y60.053 E4.12545 F1800.000
G1 X58.600 Y59.843 E4.21665
G1 X141.400 Y59.843 E8.54253
G1 X143.768 Y60.241 E8.66797
G1 X145.877 Y61.389 E8.79342 F1800.000
G1 X147.495 Y63.162 E8.91886
G1 X148.447 Y65.367 E9.04431
G1 X148.657 Y67.100 E9.13551
G1 X148.657 Y132.900 E12.57323
G1 X148.259 Y135.268 E12.69867
G1 X147.111 Y137.377 E12.82412
G1 X145.338 Y138.995 E12.94956
G1 X143.133 Y139.947 E13.07501
G1 X141.400 Y140.157 E13.16621
G1 X58.600 Y140.157 E17.49209
G1 X56.232 Y139.759 E17.61753
G1 X54.123 Y138.611 E17.74298
G1 X52.505 Y136.838 E17.86843
G1 X51.553 Y134.633 E17.99387
G1 X51.343 Y132.900 E18.08507
G1 X51.343 Y67.100 E21.52279
G1 X51.741 Y64.732 E21.64823
G1 X52.889 Y62.623 E21.77368
G1 X54.618 Y61.045 E21.89599
G1 X54.955 Y61.342 F7800.000
G1 X55.065 Y61.247 E21.90356 F1800.000
G1 X57.235 Y60.400 E22.02530
G1 X58.600 Y60.262 E22.09696
G1 X141.400 Y60.262 E26.42284
G1 X143.696 Y60.659 E26.54458
G1 X145.726 Y61.804 E26.66633 F1800.000
G1 X147.253 Y63.565 E26.78807
G1 X148.100 Y65.735 E26.90982
G1 X148.238 Y67.100 E26.98148
G1 X148.238 Y132.900 E30.41919
G1 X147.841 Y135.196 E30.54094
G1 X146.696 Y137.226 E30.66268
G1 X144.935 Y138.753 E30.78443
G1 X142.765 Y139.600 E30.90617
G1 X141.400 Y139.738 E30.97783
G1 X58.600 Y139.738 E35.30371
G1 X56.304 Y139.341 E35.42546
G1 X54.274 Y138.196 E35.54720
G1 X52.747 Y136.435 E35.66895
G1 X51.900 Y134.265 E35.79069
G1 X51.762 Y132.900 E35.86235
G1 X51.762 Y67.100 E39.30006
G1 X52.159 Y64.804 E39.42181
G1 X53.304 Y62.774 E39.54356
G1 X54.910 Y61.381 E39.65460
G1 X55.237 Y61.686 F7800.000
G1 X55.465 Y61.499 E39.66998 F1800.000
G1 X58.600 Y60.681 E39.83927
G1 X141.400 Y60.681 E44.16514
G1 X143.622 Y61.078 E44.28307
G1 X145.569 Y62.220 E44.40100 F1800.000
G1 X147.001 Y63.965 E44.51893
G1 X147.819 Y67.100 E44.68822
G1 X147.819 Y132.900 E48.12593
G1 X147.422 Y135.122 E48.24386
G1 X146.280 Y137.069 E48.36179
G1 X144.535 Y138.501 E48.47972
G1 X141.400 Y139.319 E48.64900
G1 X58.600 Y139.319 E52.97488
G1 X56.378 Y138.922 E53.09281
G1 X54.431 Y137.780 E53.21074
G1 X52.999 Y136.035 E53.32867
G1 X52.181 Y132.900 E53.49795
G1 X52.181 Y67.100 E56.93567
G1 X52.578 Y64.878 E57.05360
G1 X53.720 Y62.931 E57.17153
G1 X55.191 Y61.724 E57.27094
G1 X57.993 Y65.634 F7800.000
G1 X142.007 Y65.634 E61.66027 F1800.000
G1 X142.866 Y66.493 E61.72373
G1 X142.866 Y133.507 E65.22489 F1800.000
G1 X142.007 Y134.366 E65.28835
G1 X57.993 Y134.366 E69.67768
G1 X57.134 Y133.507 E69.74113
G1 X57.134 Y66.493 E73.24230
G1 X57.950 Y65.676 E73.30262
G1 X58.166 Y66.053 F7800.000
G1 X141.834 Y66.053 E77.67382 F1800.000
G1 X142.447 Y66.666 E77.71914 F1800.000
G1 X142.447 Y133.334 E81.20218
G1 X141.834 Y133.947 E81.24751
G1 X58.166 Y133.947 E85.61871
G1 X57.553 Y133.334 E85.66403
G1 X57.553 Y66.666 E89.14707
G1 X58.124 Y66.095 E89.18926
G1 X58.340 Y66.472 F7800.000
G1 X141.660 Y66.472 E93.54233 F1800.000
G1 X142.028 Y66.840 E93.56953
G1 X142.028 Y133.160 E97.03444 F1800.000
G1 X141.660 Y133.528 E97.06163
G1 X58.340 Y133.528 E101.41470
G1 X57.972 Y133.160 E101.44190
G1 X57.972 Y66.840 E104.90680
G1 X58.297 Y66.514 E104.93086
G1 X58.513 Y66.891 F7800.000
G1 X141.487 Y66.891 E109.26581 F1800.000
G1 X141.609 Y67.013 E109.27487
G1 X141.609 Y132.987 E112.72165
G1 X141.487 Y133.109 E112.73072
G1 X58.513 Y133.109 E117.06566
G1 X58.391 Y132.987 E117.07472
G1 X58.391 Y67.013 E120.52150
G1 X58.471 Y66.933 E120.52743
G1 E116.52743 F3600.00000
G92 E0
G1 X141.200 Y132.700 F7800.000
G1 E4.00000 F3600.00000
G1 X58.800 Y132.700 E7.44929 F1800.000
G1 X58.800 Y67.300 E10.18695
G1 X141.200 Y67.300 E13.63624
G1 X141.200 Y132.640 E16.37140
G1 X140.854 Y132.500 F7800.000
G1 X140.864 Y132.364 F7800.000
G1 X59.136 Y132.364 E19.79259 F1800.000
G1 X59.136 Y67.636 E22.50215
G1 X140.864 Y67.636 E25.92334
G1 X140.864 Y132.304 E28.63040
G1 X61.642 Y132.029 F7800.000
G1 X59.471 Y132.029 E28.72126 F1800.000
G1 X59.471 Y129.886 E28.81095
G1 X59.644 Y129.861 E28.81826
G1 X59.805 Y130.410 E28.84219
G1 X60.049 Y130.855 E28.86343
G1 X60.321 Y131.180 E28.88119
G1 X60.651 Y131.455 E28.89915
G1 X61.083 Y131.691 E28.91976
G1 X61.495 Y131.821 E28.93787
G1 X61.652 Y131.838 E28.94448
G1 X61.645 Y131.969 E28.94995
G1 X61.736 Y131.172 F7800.000
G1 X61.634 Y131.161 E28.95423 F1800.000
G1 X61.347 Y131.071 E28.96682
G1 X61.031 Y130.898 E28.98193
G1 X60.798 Y130.703 E28.99464
G1 X60.605 Y130.474 E29.00715
G1 X60.428 Y130.151 E29.02256
G1 X60.326 Y129.803 E29.03776
G1 X60.299 Y129.498 E29.05056
G1 X60.339 Y129.134 E29.06589
G1 X60.429 Y128.847 E29.07848
G1 X60.605 Y128.526 E29.09380
G1 X60.799 Y128.296 E29.10640
G1 X61.084 Y128.067 E29.12172
G1 X61.349 Y127.929 E29.13422
G1 X61.634 Y127.839 E29.14672
G1 X61.993 Y127.799 E29.16183 F1800.000
G1 X62.297 Y127.825 E29.17463
G1 X62.651 Y127.928 E29.19005
G1 X62.969 Y128.102 E29.20525
G1 X63.204 Y128.299 E29.21805
G1 X63.433 Y128.584 E29.23338
G1 X63.572 Y128.851 E29.24597
G1 X63.675 Y129.202 E29.26129
G1 X63.701 Y129.502 E29.27388
G1 X63.662 Y129.861 E29.28899
G1 X63.571 Y130.153 E29.30179
G1 X63.395 Y130.474 E29.31712
G1 X63.203 Y130.703 E29.32963
G1 X62.974 Y130.895 E29.34213
G1 X62.653 Y131.071 E29.35745
G1 X62.366 Y131.161 E29.37004
G1 X62.000 Y131.201 E29.38546
G1 X61.795 Y131.179 E29.39408
G1 X61.675 Y131.255 F7800.000
G1 X61.699 Y131.506 F7800.000
G1 X61.565 Y131.491 E29.39974 F1800.000
G1 X61.215 Y131.381 E29.41509
G1 X60.841 Y131.176 E29.43295
G1 X60.559 Y130.941 E29.44828
G1 X60.327 Y130.664 E29.46342
G1 X60.117 Y130.281 E29.48174
G1 X59.995 Y129.865 E29.49985
G1 X59.962 Y129.495 E29.51543
G1 X60.009 Y129.065 E29.53354
G1 X60.119 Y128.715 E29.54890
G1 X60.327 Y128.336 E29.56699
G1 X60.563 Y128.055 E29.58235
G1 X60.900 Y127.784 E29.60044
G1 X61.220 Y127.617 E29.61556
G1 X61.564 Y127.509 E29.63066
G1 X61.988 Y127.462 E29.64852 F1800.000
G1 X62.359 Y127.494 E29.66410
G1 X62.780 Y127.616 E29.68244
G1 X63.159 Y127.824 E29.70055
G1 X63.445 Y128.063 E29.71613
G1 X63.716 Y128.400 E29.73424
G1 X63.885 Y128.725 E29.74960
G1 X64.006 Y129.140 E29.76769
G1 X64.038 Y129.506 E29.78304
G1 X63.992 Y129.930 E29.80090
G1 X63.881 Y130.285 E29.81648
G1 X63.673 Y130.664 E29.83459
G1 X63.441 Y130.941 E29.84971
G1 X63.164 Y131.173 E29.86482
G1 X62.785 Y131.381 E29.88291
G1 X62.435 Y131.491 E29.89827
G1 X62.000 Y131.539 E29.91661
G1 X61.759 Y131.512 E29.92677
G1 E25.92677 F3600.00000
G92 E0
G1 X62.000 Y72.201 F7800.000
G1 E4.00000 F3600.00000
G1 X61.634 Y72.161 E4.01541 F1800.000
G1 X61.347 Y72.071 E4.02801
G1 X61.026 Y71.895 E4.04333
G1 X60.797 Y71.703 E4.05583
G1 X60.605 Y71.474 E4.06833
G1 X60.428 Y71.151 E4.08375
G1 X60.325 Y70.798 E4.09916
G1 X60.299 Y70.498 E4.11175
G1 X60.339 Y70.134 E4.12707
G1 X60.429 Y69.847 E4.13967
G1 X60.605 Y69.526 E4.15499
G1 X60.797 Y69.297 E4.16749
G1 X61.026 Y69.105 E4.17999
G1 X61.347 Y68.929 E4.19531
G1 X61.634 Y68.839 E4.20790
G1 X61.993 Y68.799 E4.22301 F1800.000
G1 X62.297 Y68.825 E4.23581
G1 X62.651 Y68.928 E4.25124
G1 X62.974 Y69.105 E4.26665
G1 X63.203 Y69.297 E4.27915
G1 X63.395 Y69.526 E4.29165
G1 X63.572 Y69.849 E4.30707
G1 X63.675 Y70.202 E4.32248
G1 X63.701 Y70.500 E4.33498
G1 X63.675 Y70.798 E4.34748
G1 X63.572 Y71.151 E4.36289
G1 X63.398 Y71.469 E4.37809
G1 X63.203 Y71.702 E4.39080
G1 X62.974 Y71.895 E4.40331
G1 X62.653 Y72.071 E4.41863
G1 X62.366 Y72.161 E4.43123
G1 X62.060 Y72.195 E4.44413
G1 X61.804 Y72.513 F7800.000
G1 X61.963 Y72.535 F7800.000
G1 X61.565 Y72.491 E4.46093 F1800.000
G1 X61.215 Y72.381 E4.47629
G1 X60.836 Y72.173 E4.49438
G1 X60.559 Y71.941 E4.50949
G1 X60.327 Y71.664 E4.52461
G1 X60.116 Y71.280 E4.54294
G1 X59.994 Y70.860 E4.56128
G1 X59.962 Y70.494 E4.57664
G1 X60.009 Y70.065 E4.59473
G1 X60.119 Y69.715 E4.61009
G1 X60.327 Y69.336 E4.62818
G1 X60.559 Y69.059 E4.64329
G1 X60.836 Y68.827 E4.65841
G1 X61.215 Y68.619 E4.67650
G1 X61.564 Y68.509 E4.69184
G1 X61.988 Y68.462 E4.70970 F1800.000
G1 X62.359 Y68.494 E4.72528
G1 X62.780 Y68.616 E4.74364
G1 X63.164 Y68.827 E4.76198
G1 X63.441 Y69.059 E4.77709
G1 X63.673 Y69.336 E4.79221
G1 X63.884 Y69.720 E4.81054
G1 X64.006 Y70.140 E4.82888
G1 X64.038 Y70.500 E4.84399
G1 X64.006 Y70.860 E4.85911
G1 X63.884 Y71.280 E4.87743
G1 X63.676 Y71.659 E4.89554
G1 X63.441 Y71.941 E4.91087
G1 X63.164 Y72.173 E4.92601
G1 X62.785 Y72.381 E4.94410
G1 X62.435 Y72.491 E4.95946
G1 X62.023 Y72.536 E4.97682
G1 E0.97682 F3600.00000
G92 E0
G1 X59.471 Y70.142 F7800.000
G1 E4.00000 F3600.00000
G1 X59.471 Y67.971 E4.09087 F1800.000
G1 X61.642 Y67.971 E4.18174
G1 X61.653 Y68.161 E4.18972
G1 X61.495 Y68.179 E4.19637
G1 X61.082 Y68.309 E4.21447
G1 X60.645 Y68.549 E4.23533
G1 X60.321 Y68.821 E4.25306
G1 X60.049 Y69.145 E4.27078
G1 X59.809 Y69.582 E4.29164
G1 X59.679 Y69.995 E4.30977
G1 X59.662 Y70.152 E4.31639
G1 X59.531 Y70.145 E4.32186
G1 X59.471 Y70.884 F7800.000
G1 X59.644 Y70.859 E4.32917 F1800.000
G1 X59.804 Y71.409 E4.35315
G1 X60.049 Y71.855 E4.37441
G1 X60.321 Y72.179 E4.39213
G1 X60.645 Y72.451 E4.40986
G1 X61.082 Y72.691 E4.43072
G1 X61.495 Y72.821 E4.44885
G1 X62.000 Y72.876 E4.47010
G1 X62.505 Y72.821 E4.49136
G1 X62.918 Y72.691 E4.50949
G1 X63.355 Y72.451 E4.53035
G1 X63.680 Y72.179 E4.54811
G1 X63.955 Y71.849 E4.56607
G1 X64.196 Y71.409 E4.58708
G1 X64.338 Y70.922 E4.60832
G1 X64.375 Y70.500 E4.62604
G1 X64.338 Y70.078 E4.64377
G1 X64.196 Y69.591 E4.66503
G1 X63.951 Y69.145 E4.68629
G1 X63.679 Y68.821 E4.70402
G1 X63.355 Y68.549 E4.72174
G1 X62.909 Y68.304 E4.74300
G1 X62.359 Y68.144 E4.76698
G1 X62.384 Y67.971 E4.77429
G1 X137.642 Y67.971 E7.92461
G1 X137.653 Y68.161 E7.93259
G1 X137.495 Y68.179 E7.93924
G1 X137.082 Y68.309 E7.95735
G1 X136.645 Y68.549 E7.97820
G1 X136.320 Y68.821 E7.99597
G1 X136.045 Y69.151 E8.01393
G1 X135.808 Y69.583 E8.03458
G1 X135.678 Y70.001 E8.05291
G1 X135.624 Y70.501 E8.07393
G1 X135.679 Y71.005 E8.09516
G1 X135.809 Y71.418 E8.11329
G1 X136.049 Y71.855 E8.13414
G1 X136.321 Y72.179 E8.15187
G1 X136.645 Y72.451 E8.16960
G1 X137.082 Y72.691 E8.19046
G1 X137.495 Y72.821 E8.20858
G1 X138.000 Y72.876 E8.22984
G1 X138.505 Y72.821 E8.25110
G1 X138.918 Y72.691 E8.26923
G1 X139.355 Y72.451 E8.29008
G1 X139.686 Y72.173 E8.30821
G1 X139.998 Y71.784 E8.32907
G1 X140.198 Y71.400 E8.34720
G1 X140.356 Y70.859 E8.37078
G1 X140.529 Y70.884 E8.37809
G1 X140.529 Y129.116 E10.81568
G1 X140.356 Y129.141 E10.82299
G1 X140.198 Y128.600 E10.84657
G1 X139.998 Y128.216 E10.86470
G1 X139.686 Y127.826 E10.88559
G1 X139.349 Y127.545 E10.90395
G1 X138.909 Y127.304 E10.92497
G1 X138.421 Y127.162 E10.94624
G1 X137.984 Y127.125 E10.96459
G1 X137.495 Y127.179 E10.98521
G1 X137.091 Y127.306 E11.00291
G1 X136.716 Y127.502 E11.02064
G1 X136.320 Y127.820 E11.04190
G1 X136.002 Y128.216 E11.06316
G1 X135.806 Y128.592 E11.08092
G1 X135.678 Y129.001 E11.09888
G1 X135.624 Y129.501 E11.11989
G1 X135.679 Y130.005 E11.14113
G1 X135.806 Y130.409 E11.15885
G1 X136.002 Y130.784 E11.17658
G1 X136.314 Y131.174 E11.19747
G1 X136.651 Y131.455 E11.21583
G1 X137.083 Y131.691 E11.23645
G1 X137.495 Y131.821 E11.25455
G1 X137.652 Y131.838 E11.26116
G1 X137.642 Y132.029 E11.26915
G1 X62.358 Y132.029 E14.42054
G1 X62.348 Y131.838 E14.42853
G1 X62.505 Y131.821 E14.43514
G1 X62.918 Y131.691 E14.45327
G1 X63.355 Y131.451 E14.47412
G1 X63.679 Y131.179 E14.49185
G1 X63.951 Y130.855 E14.50958
G1 X64.191 Y130.417 E14.53047
G1 X64.322 Y129.999 E14.54883
G1 X64.375 Y129.509 E14.56944
G1 X64.338 Y129.078 E14.58755
G1 X64.198 Y128.600 E14.60840
G1 X63.998 Y128.216 E14.62653
G1 X63.686 Y127.826 E14.64743
G1 X63.349 Y127.545 E14.66578
G1 X62.909 Y127.304 E14.68680
G1 X62.421 Y127.162 E14.70807
G1 X61.984 Y127.125 E14.72643
G1 X61.495 Y127.179 E14.74704
G1 X61.091 Y127.306 E14.76475
G1 X60.716 Y127.502 E14.78247
G1 X60.327 Y127.814 E14.80333
G1 X60.049 Y128.145 E14.82146
G1 X59.809 Y128.582 E14.84231
G1 X59.679 Y128.995 E14.86044
G1 X59.662 Y129.152 E14.86706
G1 X59.471 Y129.142 E14.87504
G1 X59.471 Y70.944 E17.31122
G1 E13.31122 F3600.00000
G92 E0
G1 X88.859 Y102.070 F7800.000
G1 E4.00000 F3600.00000
G1 X89.673 Y101.387 E4.04446 F1800.000
G1 X90.545 Y100.776 E4.08901
G1 X91.467 Y100.244 E4.13357
G1 X92.466 Y99.779 E4.17969
G1 X93.430 Y99.431 E4.22260
G1 X93.944 Y99.281 E4.24505
G1 X94.981 Y99.051 E4.28951
G1 X96.037 Y98.912 E4.33406
G1 X97.058 Y98.867 E4.37687 F1800.000
G1 X97.632 Y98.877 E4.40089
G1 X98.165 Y98.912 E4.42327
G1 X99.218 Y99.051 E4.46773
G1 X100.217 Y99.271 E4.51054
G1 X100.770 Y99.431 E4.53465
G1 X101.769 Y99.794 E4.57912
G1 X102.733 Y100.244 E4.62367
G1 X103.653 Y100.775 E4.66814
G1 X104.099 Y101.073 E4.69060
G1 X104.909 Y101.694 E4.73331
G1 X105.342 Y102.071 E4.75733
G1 X105.727 Y102.439 E4.77962
G1 X106.096 Y102.825 E4.80199
G1 X106.753 Y103.606 E4.84471
G1 X107.094 Y104.068 E4.86873
G1 X107.391 Y104.513 E4.89111
G1 X107.922 Y105.432 E4.93557
G1 X108.371 Y106.397 E4.98012
G1 X108.722 Y107.358 E5.02293
G1 X108.885 Y107.910 E5.04704
G1 X109.115 Y108.947 E5.09151
G1 X109.254 Y110.003 E5.13607
G1 X109.300 Y111.066 E5.18062
G1 X109.254 Y112.129 E5.22517
G1 X109.115 Y113.184 E5.26973
G1 X108.885 Y114.221 E5.31419
G1 X108.735 Y114.737 E5.33665
G1 X108.371 Y115.735 E5.38111
G1 X107.923 Y116.697 E5.42558
G1 X107.665 Y117.168 E5.44804
G1 X107.117 Y118.029 E5.49075
G1 X106.779 Y118.493 E5.51477
G1 X106.444 Y118.910 E5.53716
G1 X105.727 Y119.693 E5.58162
G1 X104.942 Y120.412 E5.62617
G1 X104.099 Y121.058 E5.67063
G1 X103.653 Y121.356 E5.69310
G1 X102.733 Y121.888 E5.73756
G1 X101.769 Y122.337 E5.78211
G1 X100.771 Y122.701 E5.82657
G1 X100.256 Y122.851 E5.84903
G1 X99.260 Y123.072 E5.89175
G1 X98.693 Y123.161 E5.91577
G1 X98.161 Y123.220 E5.93815
G1 X97.100 Y123.266 E5.98261
G1 X96.037 Y123.220 E6.02717
G1 X94.981 Y123.081 E6.07172
G1 X93.944 Y122.851 E6.11618
G1 X93.429 Y122.701 E6.13865
G1 X92.431 Y122.337 E6.18311
G1 X91.469 Y121.888 E6.22757
G1 X90.998 Y121.630 E6.25003
G1 X90.137 Y121.083 E6.29275
G1 X89.673 Y120.745 E6.31676
G1 X89.256 Y120.410 E6.33915
G1 X88.475 Y119.694 E6.38352
G1 X88.104 Y119.307 E6.40598
G1 X87.421 Y118.493 E6.45045
G1 X86.810 Y117.621 E6.49500
G1 X86.278 Y116.699 E6.53955
G1 X85.828 Y115.735 E6.58411
G1 X85.464 Y114.735 E6.62866
G1 X85.189 Y113.706 E6.67321
G1 X85.005 Y112.660 E6.71767
G1 X84.946 Y112.127 E6.74014
G1 X84.900 Y111.066 E6.78460
G1 X84.946 Y110.005 E6.82906
G1 X85.005 Y109.471 E6.85153
G1 X85.189 Y108.425 E6.89599
G1 X85.464 Y107.397 E6.94054
G1 X85.828 Y106.397 E6.98509
G1 X86.278 Y105.432 E7.02965
G1 X86.810 Y104.511 E7.07420
G1 X87.421 Y103.639 E7.11875
G1 X88.104 Y102.825 E7.16322
G1 X88.816 Y102.111 E7.20544
G1 X88.778 Y101.678 F7800.000
G1 X88.644 Y101.812 F7800.000
G1 X89.468 Y101.120 E7.25051 F1800.000
G1 X90.364 Y100.493 E7.29629
G1 X91.312 Y99.946 E7.34208
G1 X92.337 Y99.469 E7.38945
G1 X93.325 Y99.112 E7.43342
G1 X93.861 Y98.956 E7.45678
G1 X94.923 Y98.720 E7.50231
G1 X96.007 Y98.577 E7.54808
G1 X97.054 Y98.531 E7.59194 F1800.000
G1 X97.646 Y98.542 E7.61673
G1 X98.198 Y98.578 E7.63991
G1 X99.277 Y98.720 E7.68543
G1 X100.300 Y98.946 E7.72929
G1 X100.874 Y99.112 E7.75432
G1 X101.897 Y99.484 E7.79989
G1 X102.889 Y99.946 E7.84567
G1 X103.831 Y100.490 E7.89121
G1 X104.295 Y100.800 E7.91458
G1 X105.122 Y101.434 E7.95820
G1 X105.568 Y101.823 E7.98299
G1 X105.964 Y102.202 E8.00592
G1 X106.346 Y102.601 E8.02905
G1 X107.017 Y103.398 E8.07266
G1 X107.368 Y103.875 E8.09745
G1 X107.676 Y104.335 E8.12062
G1 X108.220 Y105.277 E8.16616
G1 X108.682 Y106.268 E8.21193
G1 X109.041 Y107.253 E8.25579
G1 X109.210 Y107.826 E8.28082
G1 X109.446 Y108.889 E8.32639
G1 X109.588 Y109.973 E8.37217
