; generated by Slic3r 1.2.9 on 2016-11-07 at 19:24:41

; external perimeters extrusion width = 0.25mm
; perimeters extrusion width = 0.25mm
; infill extrusion width = 0.25mm
; solid infill extrusion width = 0.25mm
; top infill extrusion width = 0.25mm
; support material extrusion width = 0.25mm

M107
M104 S210 ; set temperature
G28 ; home all axes
G1 Z5 F5000 ; lift nozzle

M109 S210 ; wait for temperature to be reached
G21 ; set units to millimeters
G90 ; use absolute coordinates
M82 ; use absolute distances for extrusion
G92 E0
G1 E-3.00000 F2400.00000
G92 E0
G1 Z0.375 F7800.000
G1 X54.480 Y60.898 F7800.000
G1 E3.00000 F2400.00000
G1 X56.699 Y59.901 E3.18280 F1800.000
G1 X58.600 Y59.654 E3.32689
G1 X141.400 Y59.654 E9.54938
G1 X143.800 Y60.051 E9.73219
G1 X145.943 Y61.201 E9.91499 F1800.000
G1 X147.602 Y62.980 E10.09779
G1 X148.599 Y65.199 E10.28059
G1 X148.846 Y67.100 E10.42468
G1 X148.846 Y132.900 E15.36961
G1 X148.449 Y135.300 E15.55241
G1 X147.299 Y137.443 E15.73521
G1 X145.520 Y139.102 E15.91801
G1 X143.301 Y140.099 E16.10081
G1 X141.400 Y140.346 E16.24490
G1 X58.600 Y140.346 E22.46739
G1 X56.200 Y139.949 E22.65020
G1 X54.057 Y138.799 E22.83300
G1 X52.398 Y137.020 E23.01580
G1 X51.401 Y134.801 E23.19860
G1 X51.154 Y132.900 E23.34269
G1 X51.154 Y67.100 E28.28762
G1 X51.551 Y64.700 E28.47042
G1 X52.701 Y62.557 E28.65322
G1 X54.436 Y60.939 E28.83151
G1 X54.819 Y61.283 F7800.000
G1 X54.944 Y61.173 E28.84397 F1800.000
G1 X57.125 Y60.294 E29.02071
G1 X58.600 Y60.136 E29.13220
G1 X141.400 Y60.136 E35.35470
G1 X143.718 Y60.533 E35.53144
G1 X145.772 Y61.679 E35.70819 F1800.000
G1 X147.327 Y63.444 E35.88493
G1 X148.206 Y65.625 E36.06167
G1 X148.364 Y67.100 E36.17316
G1 X148.364 Y132.900 E41.11809
G1 X147.967 Y135.218 E41.29484
G1 X146.821 Y137.272 E41.47158
G1 X145.056 Y138.827 E41.64833
G1 X142.875 Y139.706 E41.82507
G1 X141.400 Y139.864 E41.93656
G1 X58.600 Y139.864 E48.15906
G1 X56.282 Y139.467 E48.33580
G1 X54.228 Y138.321 E48.51255
G1 X52.673 Y136.556 E48.68929
G1 X51.794 Y134.375 E48.86604
G1 X51.636 Y132.900 E48.97753
G1 X51.636 Y67.100 E53.92246
G1 X52.033 Y64.782 E54.09920
G1 X53.179 Y62.728 E54.27594
G1 X54.774 Y61.322 E54.43573
G1 X55.144 Y61.676 F7800.000
G1 X55.405 Y61.460 E54.46110 F1800.000
G1 X58.600 Y60.618 E54.70945
G1 X141.400 Y60.618 E60.93194
G1 X143.633 Y61.015 E61.10241
G1 X145.593 Y62.157 E61.27289 F1800.000
G1 X147.040 Y63.905 E61.44336
G1 X147.882 Y67.100 E61.69171
G1 X147.882 Y132.900 E66.63664
G1 X147.485 Y135.133 E66.80711
G1 X146.343 Y137.093 E66.97758
G1 X144.595 Y138.540 E67.14805
G1 X141.400 Y139.382 E67.39640
G1 X58.600 Y139.382 E73.61890
G1 X56.367 Y138.985 E73.78937
G1 X54.407 Y137.843 E73.95984
G1 X52.960 Y136.095 E74.13031
G1 X52.118 Y132.900 E74.37866
G1 X52.118 Y67.100 E79.32359
G1 X52.515 Y64.867 E79.49406
G1 X53.657 Y62.907 E79.66453
G1 X55.098 Y61.714 E79.80512
G1 X57.901 Y65.413 F7800.000
G1 X142.099 Y65.413 E86.13265 F1800.000
G1 X143.087 Y66.401 E86.23769
G1 X143.087 Y133.599 E91.28765 F1800.000
G1 X142.099 Y134.587 E91.39268
G1 X57.901 Y134.587 E97.72021
G1 X56.913 Y133.599 E97.82524
G1 X56.913 Y66.401 E102.87521
G1 X57.859 Y65.455 E102.97573
G1 X58.101 Y65.895 F7800.000
G1 X141.899 Y65.895 E109.27325 F1800.000
G1 X142.605 Y66.601 E109.34827 F1800.000
G1 X142.605 Y133.399 E114.36823
G1 X141.899 Y134.105 E114.44325
G1 X58.101 Y134.105 E120.74077
G1 X57.395 Y133.399 E120.81579
G1 X57.395 Y66.601 E125.83574
G1 X58.058 Y65.937 E125.90626
G1 X58.301 Y66.377 F7800.000
G1 X141.699 Y66.377 E132.17377 F1800.000
G1 X142.123 Y66.801 E132.21878
G1 X142.123 Y133.199 E137.20873 F1800.000
G1 X141.699 Y133.623 E137.25374
G1 X58.301 Y133.623 E143.52125
G1 X57.877 Y133.199 E143.56626
G1 X57.877 Y66.801 E148.55621
G1 X58.258 Y66.419 E148.59671
G1 X58.500 Y66.859 F7800.000
G1 X141.500 Y66.859 E154.83421 F1800.000
G1 X141.641 Y67.000 E154.84922
G1 X141.641 Y133.000 E159.80915
G1 X141.500 Y133.141 E159.82416
G1 X58.500 Y133.141 E166.06166
G1 X58.359 Y133.000 E166.07666
G1 X58.359 Y67.000 E171.03660
G1 X58.458 Y66.901 E171.04709
G1 E168.04709 F2400.00000
G92 E0
G1 X141.119 Y132.619 F7800.000
G1 E3.00000 F2400.00000
G1 X58.881 Y132.619 E9.18022 F1800.000
G1 X58.881 Y67.381 E14.08288
G1 X141.119 Y67.381 E20.26310
G1 X141.119 Y132.559 E25.16125
G1 X140.772 Y132.419 F7800.000
G1 X140.637 Y132.137 F7800.000
G1 X59.363 Y132.137 E31.26903 F1800.000
G1 X59.363 Y67.863 E36.09923
G1 X140.637 Y67.863 E42.20701
G1 X140.637 Y132.077 E47.03271
G1 X139.261 Y130.761 F7800.000
G1 X138.966 Y130.998 E47.06116 F1800.000
G1 X138.682 Y131.147 E47.08522
G1 X138.383 Y131.241 E47.10883
G1 X138.000 Y131.283 E47.13777
G1 X137.617 Y131.241 E47.16671
G1 X137.315 Y131.146 E47.19052
G1 X136.980 Y130.962 E47.21923
G1 X136.737 Y130.758 E47.24304
G1 X136.498 Y130.460 E47.27175
G1 X136.353 Y130.182 E47.29533
G1 X136.259 Y129.883 E47.31891
G1 X136.217 Y129.500 E47.34783
G1 X136.258 Y129.124 E47.37629
G1 X136.353 Y128.818 E47.40034
G1 X136.498 Y128.540 E47.42395
G1 X136.739 Y128.239 E47.45288
G1 X137.034 Y128.002 E47.48133
G1 X137.318 Y127.853 E47.50539
G1 X137.617 Y127.759 E47.52898
G1 X137.990 Y127.718 E47.55720 F1800.000
G1 X138.312 Y127.745 E47.58149
G1 X138.679 Y127.852 E47.61022
G1 X138.960 Y127.998 E47.63403
G1 X139.261 Y128.239 E47.66297
G1 X139.502 Y128.540 E47.69192
G1 X139.648 Y128.821 E47.71573
G1 X139.755 Y129.187 E47.74444
G1 X139.782 Y129.500 E47.76802
G1 X139.755 Y129.813 E47.79160
G1 X139.648 Y130.179 E47.82031
G1 X139.502 Y130.460 E47.84412
G1 X139.298 Y130.714 E47.86853
G1 X139.346 Y131.129 F7800.000
G1 X139.637 Y131.062 F7800.000
G1 X139.231 Y131.403 E47.90833 F1800.000
G1 X138.868 Y131.593 E47.93915
G1 X138.482 Y131.715 E47.96954
G1 X138.000 Y131.768 E48.00602
G1 X137.518 Y131.715 E48.04249
G1 X137.125 Y131.591 E48.07344
G1 X136.707 Y131.362 E48.10929
G1 X136.391 Y131.097 E48.14024
G1 X136.093 Y130.725 E48.17608
G1 X135.906 Y130.367 E48.20640
G1 X135.785 Y129.982 E48.23671
G1 X135.732 Y129.501 E48.27314
G1 X135.783 Y129.025 E48.30909
G1 X135.906 Y128.634 E48.33991
G1 X136.093 Y128.275 E48.37030
G1 X136.396 Y127.897 E48.40673
G1 X136.769 Y127.597 E48.44267
G1 X137.132 Y127.407 E48.47350
G1 X137.517 Y127.285 E48.50384
G1 X137.984 Y127.233 E48.53915 F1800.000
G1 X138.401 Y127.269 E48.57060
G1 X138.860 Y127.402 E48.60652
G1 X139.225 Y127.593 E48.63747
G1 X139.604 Y127.896 E48.67394
G1 X139.907 Y128.275 E48.71042
G1 X140.098 Y128.640 E48.74137
G1 X140.231 Y129.098 E48.77721
G1 X140.266 Y129.500 E48.80753
G1 X140.231 Y129.902 E48.83785
G1 X140.098 Y130.360 E48.87369
G1 X139.907 Y130.725 E48.90464
G1 X139.674 Y131.015 E48.93262
G1 X138.000 Y72.283 F7800.000
G1 X137.617 Y72.241 E48.96156 F1800.000
G1 X137.315 Y72.146 E48.98538
G1 X136.980 Y71.962 E49.01408
G1 X136.738 Y71.758 E49.03788
G1 X136.502 Y71.466 E49.06610
G1 X136.353 Y71.182 E49.09016
G1 X136.259 Y70.883 E49.11376
G1 X136.217 Y70.500 E49.14269
G1 X136.258 Y70.124 E49.17114
G1 X136.353 Y69.818 E49.19520
G1 X136.498 Y69.540 E49.21881
G1 X136.737 Y69.242 E49.24751
G1 X136.980 Y69.038 E49.27133
G1 X137.315 Y68.854 E49.30004
G1 X137.617 Y68.759 E49.32383
G1 X137.990 Y68.718 E49.35205 F1800.000
G1 X138.312 Y68.745 E49.37634
G1 X138.682 Y68.853 E49.40531
G1 X139.020 Y69.038 E49.43425
G1 X139.263 Y69.242 E49.45806
G1 X139.502 Y69.540 E49.48677
G1 X139.648 Y69.821 E49.51058
G1 X139.755 Y70.187 E49.53929
G1 X139.782 Y70.500 E49.56287
G1 X139.755 Y70.813 E49.58645
G1 X139.648 Y71.179 E49.61516
G1 X139.502 Y71.460 E49.63897
G1 X139.263 Y71.758 E49.66768
G1 X139.020 Y71.962 E49.69149
G1 X138.685 Y72.146 E49.72020
G1 X138.383 Y72.241 E49.74401
G1 X138.060 Y72.276 E49.76845
G1 X137.795 Y72.609 F7800.000
G1 X138.052 Y72.762 F7800.000
G1 X137.518 Y72.715 E49.80880 F1800.000
G1 X137.125 Y72.591 E49.83975
G1 X136.707 Y72.362 E49.87560
G1 X136.392 Y72.097 E49.90650
G1 X136.097 Y71.731 E49.94181
G1 X135.907 Y71.368 E49.97263
G1 X135.785 Y70.982 E50.00302
G1 X135.732 Y70.501 E50.03945
G1 X135.783 Y70.025 E50.07539
G1 X135.906 Y69.634 E50.10622
G1 X136.093 Y69.275 E50.13661
G1 X136.391 Y68.903 E50.17245
G1 X136.707 Y68.638 E50.20340
G1 X137.125 Y68.409 E50.23924
G1 X137.517 Y68.285 E50.27014
G1 X137.984 Y68.233 E50.30546 F1800.000
G1 X138.401 Y68.269 E50.33691
G1 X138.868 Y68.405 E50.37346
G1 X139.293 Y68.638 E50.40993
G1 X139.609 Y68.903 E50.44088
G1 X139.907 Y69.275 E50.47673
G1 X140.098 Y69.640 E50.50768
G1 X140.231 Y70.098 E50.54352
G1 X140.266 Y70.500 E50.57384
G1 X140.231 Y70.902 E50.60415
G1 X140.098 Y71.360 E50.64000
G1 X139.907 Y71.725 E50.67095
G1 X139.609 Y72.097 E50.70679
G1 X139.293 Y72.362 E50.73774
G1 X138.875 Y72.591 E50.77358
G1 X138.482 Y72.715 E50.80453
G1 X138.112 Y72.756 E50.83253
G1 X140.155 Y72.268 F7800.000
G1 X140.155 Y127.721 E54.99983 F1800.000
G1 X139.490 Y127.187 E55.06390
G1 X139.040 Y126.953 E55.10199
G1 X138.490 Y126.792 E55.14508
G1 X137.978 Y126.749 E55.18371
G1 X137.417 Y126.811 E55.22611
G1 X136.946 Y126.960 E55.26320
G1 X136.503 Y127.192 E55.30079
G1 X136.053 Y127.554 E55.34422
G1 X135.687 Y128.010 E55.38816
G1 X135.459 Y128.449 E55.42533
G1 X135.309 Y128.926 E55.46292
G1 X135.247 Y129.501 E55.50636
G1 X135.311 Y130.082 E55.55029
G1 X135.459 Y130.552 E55.58734
G1 X135.687 Y130.990 E55.62440
G1 X136.221 Y131.655 E55.68847
G1 X63.768 Y131.655 E61.13333
G1 X64.262 Y131.067 E61.19100
G1 X64.537 Y130.565 E61.23398
G1 X64.689 Y130.082 E61.27207
G1 X64.751 Y129.514 E61.31505
G1 X64.707 Y129.009 E61.35313
G1 X64.547 Y128.460 E61.39611
G1 X64.313 Y128.010 E61.43419
G1 X63.955 Y127.564 E61.47717
G1 X63.567 Y127.238 E61.51526
G1 X63.053 Y126.957 E61.55927
G1 X62.490 Y126.792 E61.60340
G1 X61.978 Y126.749 E61.64202
G1 X61.417 Y126.811 E61.68442
G1 X60.946 Y126.960 E61.72151
G1 X60.503 Y127.192 E61.75910
G1 X59.845 Y127.721 E61.82257
G1 X59.845 Y72.268 E65.98993
G1 X60.433 Y72.762 E66.04759
G1 X60.935 Y73.037 E66.09057
G1 X61.418 Y73.189 E66.12866
G1 X62.000 Y73.253 E66.17267
G1 X62.582 Y73.189 E66.21668
G1 X63.065 Y73.037 E66.25476
G1 X63.567 Y72.762 E66.29774
G1 X63.945 Y72.445 E66.33480
G1 X64.262 Y72.067 E66.37185
G1 X64.543 Y71.553 E66.41586
G1 X64.707 Y70.991 E66.45987
G1 X64.750 Y70.498 E66.49705
G1 X64.705 Y70.000 E66.53464
G1 X64.543 Y69.446 E66.57807
G1 X64.262 Y68.933 E66.62200
G1 X63.768 Y68.345 E66.67967
G1 X136.221 Y68.345 E72.12453
G1 X135.687 Y69.010 E72.18861
G1 X135.459 Y69.449 E72.22578
G1 X135.309 Y69.926 E72.26337
G1 X135.247 Y70.501 E72.30681
G1 X135.311 Y71.082 E72.35074
G1 X135.460 Y71.554 E72.38791
G1 X135.692 Y71.997 E72.42550
G1 X136.046 Y72.436 E72.46790
G1 X136.433 Y72.762 E72.50591
G1 X136.935 Y73.037 E72.54889
G1 X137.418 Y73.189 E72.58697
G1 X138.000 Y73.253 E72.63098
G1 X138.582 Y73.189 E72.67499
G1 X139.065 Y73.037 E72.71308
G1 X139.567 Y72.762 E72.75606
G1 X140.109 Y72.307 E72.80922
G1 X128.630 Y103.170 F7800.000
G1 X129.463 Y103.558 E72.87826 F1800.000
G1 X130.259 Y104.018 E72.94731
G1 X131.011 Y104.545 E73.01635
G1 X131.713 Y105.133 E73.08517
G1 X132.367 Y105.787 E73.15467
G1 X132.945 Y106.476 E73.22221
G1 X133.482 Y107.241 E73.29252
G1 X133.942 Y108.037 E73.36158
G1 X134.330 Y108.870 E73.43062
G1 X134.644 Y109.733 E73.49966
G1 X134.877 Y110.601 E73.56720
G1 X134.972 Y111.074 E73.60346
G1 X135.091 Y111.982 E73.67229
G1 X135.132 Y112.900 E73.74133
G1 X135.091 Y113.818 E73.81038
G1 X134.972 Y114.726 E73.87919
G1 X134.881 Y115.182 E73.91418
G1 X134.649 Y116.051 E73.98172
G1 X134.330 Y116.930 E74.05203
G1 X133.943 Y117.760 E74.12086
G1 X133.719 Y118.168 E74.15584
G1 X133.236 Y118.926 E74.22339
G1 X132.668 Y119.669 E74.29369
G1 X132.047 Y120.347 E74.36275
G1 X131.372 Y120.966 E74.43157
G1 X131.009 Y121.257 E74.46655
G1 X130.273 Y121.773 E74.53409
G1 X129.463 Y122.241 E74.60440
G1 X128.630 Y122.630 E74.67346
G1 X127.770 Y122.943 E74.74227
G1 X127.323 Y123.073 E74.77726
G1 X126.445 Y123.268 E74.84480
G1 X125.518 Y123.391 E74.91511
G1 X124.603 Y123.431 E74.98394
G1 X124.138 Y123.421 E75.01893
G1 X123.225 Y123.341 E75.08774
G1 X122.321 Y123.182 E75.15679
G1 X121.433 Y122.944 E75.22584
G1 X120.573 Y122.631 E75.29465
G1 X120.147 Y122.443 E75.32964
G1 X119.349 Y122.029 E75.39718
G1 X118.559 Y121.527 E75.46749
G1 X117.830 Y120.968 E75.53654
G1 X117.153 Y120.347 E75.60559
G1 X116.532 Y119.670 E75.67464
G1 X115.973 Y118.941 E75.74368
G1 X115.481 Y118.168 E75.81250
G1 X115.257 Y117.760 E75.84749
G1 X114.870 Y116.930 E75.91630
G1 X114.556 Y116.067 E75.98535
G1 X114.319 Y115.182 E76.05416
G1 X114.228 Y114.726 E76.08915
G1 X114.110 Y113.835 E76.15669
G1 X114.069 Y112.903 E76.22677
G1 X114.079 Y112.438 E76.26177
G1 X114.159 Y111.525 E76.33059
G1 X114.318 Y110.621 E76.39963
G1 X114.556 Y109.733 E76.46868
G1 X114.870 Y108.870 E76.53772
G1 X115.258 Y108.037 E76.60677
G1 X115.716 Y107.244 E76.67558
G1 X115.975 Y106.857 E76.71057
G1 X116.532 Y106.130 E76.77939
G1 X117.153 Y105.453 E76.84843
G1 X117.828 Y104.834 E76.91725
G1 X118.191 Y104.543 E76.95224
G1 X118.927 Y104.027 E77.01978
G1 X119.737 Y103.558 E77.09009
G1 X120.570 Y103.170 E77.15914
G1 X121.433 Y102.856 E77.22819
G1 X122.321 Y102.618 E77.29723
G1 X123.222 Y102.459 E77.36605
G1 X123.685 Y102.408 E77.40104
G1 X124.583 Y102.369 E77.46858 F1800.000
G1 X125.518 Y102.409 E77.53889
G1 X126.429 Y102.528 E77.60794
G1 X127.323 Y102.727 E77.67676
G1 X127.770 Y102.857 E77.71175
G1 X128.574 Y103.150 E77.77606
G1 X128.951 Y102.931 F7800.000
G1 X128.834 Y102.733 F7800.000
G1 X129.686 Y103.130 E77.84668 F1800.000
G1 X130.518 Y103.611 E77.91889
G1 X131.305 Y104.162 E77.99110
G1 X132.035 Y104.774 E78.06268
G1 X132.388 Y105.112 E78.09942
G1 X132.726 Y105.465 E78.13614
G1 X133.327 Y106.182 E78.20643
G1 X133.889 Y106.982 E78.27991
G1 X134.370 Y107.814 E78.35215
G1 X134.776 Y108.685 E78.42436
G1 X135.104 Y109.588 E78.49656
G1 X135.347 Y110.491 E78.56684
G1 X135.448 Y110.995 E78.60547
G1 X135.572 Y111.940 E78.67710
G1 X135.614 Y112.900 E78.74931
G1 X135.572 Y113.860 E78.82151
G1 X135.448 Y114.804 E78.89310
G1 X135.351 Y115.292 E78.93045
G1 X135.109 Y116.195 E79.00073
G1 X134.776 Y117.114 E79.07421
G1 X134.373 Y117.978 E79.14583
G1 X134.134 Y118.414 E79.18318
G1 X133.632 Y119.203 E79.25347
G1 X133.038 Y119.979 E79.32695
G1 X132.388 Y120.688 E79.39919
G1 X131.686 Y121.332 E79.47077
G1 X131.298 Y121.643 E79.50812
G1 X130.532 Y122.179 E79.57841
G1 X129.686 Y122.669 E79.65189
G1 X128.815 Y123.076 E79.72413
G1 X127.920 Y123.401 E79.79571
G1 X127.443 Y123.540 E79.83307
G1 X126.530 Y123.743 E79.90335
G1 X125.560 Y123.872 E79.97683
G1 X124.608 Y123.914 E80.04845
G1 X124.111 Y123.903 E80.08581
G1 X123.162 Y123.820 E80.15739
G1 X122.216 Y123.653 E80.22960
G1 X121.288 Y123.404 E80.30181
G1 X120.393 Y123.078 E80.37339
G1 X119.938 Y122.878 E80.41074
G1 X119.108 Y122.447 E80.48103
G1 X118.283 Y121.922 E80.55451
G1 X117.520 Y121.337 E80.62675
G1 X116.812 Y120.688 E80.69896
G1 X116.163 Y119.980 E80.77117
G1 X115.578 Y119.217 E80.84338
G1 X115.066 Y118.414 E80.91496
G1 X114.827 Y117.978 E80.95232
G1 X114.424 Y117.115 E81.02391
G1 X114.096 Y116.212 E81.09611
G1 X113.849 Y115.292 E81.16770
G1 X113.752 Y114.804 E81.20505
G1 X113.630 Y113.877 E81.27534
G1 X113.586 Y112.909 E81.34819
G1 X113.597 Y112.411 E81.38559
G1 X113.680 Y111.462 E81.45717
G1 X113.847 Y110.516 E81.52938
G1 X114.096 Y109.588 E81.60158
G1 X114.424 Y108.685 E81.67379
G1 X114.830 Y107.814 E81.74600
G1 X115.307 Y106.989 E81.81758
G1 X115.583 Y106.576 E81.85495
G1 X116.163 Y105.820 E81.92653
G1 X116.812 Y105.112 E81.99874
G1 X117.514 Y104.468 E82.07032
G1 X117.902 Y104.157 E82.10767
G1 X118.668 Y103.621 E82.17796
G1 X119.514 Y103.131 E82.25144
G1 X120.385 Y102.724 E82.32368
G1 X121.288 Y102.396 E82.39589
G1 X122.216 Y102.147 E82.46810
G1 X123.154 Y101.982 E82.53968
G1 X123.648 Y101.928 E82.57703
G1 X124.583 Y101.886 E82.64732 F1800.000
G1 X125.559 Y101.928 E82.72080
G1 X126.513 Y102.053 E82.79304
G1 X127.442 Y102.259 E82.86462
G1 X127.920 Y102.399 E82.90199
G1 X128.778 Y102.711 E82.97064
G1 X129.038 Y102.296 F7800.000
G1 X129.908 Y102.702 E83.04285 F1800.000
G1 X130.777 Y103.204 E83.11822
G1 X131.599 Y103.779 E83.19359
G1 X132.356 Y104.415 E83.26794
G1 X132.729 Y104.771 E83.30666
G1 X133.085 Y105.143 E83.34535
G1 X133.710 Y105.888 E83.41838
